;FLAVOR:Marlin
;TIME:10876
;Filament used: 5.73711m
;Layer height: 0.2
;MINX:70.448
;MINY:66.339
;MINZ:0.3
;MAXX:149.897
;MAXY:153.661
;MAXZ:20.5
;Generated with Cura_SteamEngine 4.12.1
M140 S80
M105
M190 S80
M104 S220
M105
M109 S220
M82 ;absolute extrusion mode
; Ender 3 Custom Start G-code
G92 E0 ; Reset Extruder
G28 ; Home all axes
G1 Z2.0 F3000 ; Move Z Axis up little to prevent scratching of Heat Bed
G1 X0.1 Y20 Z0.3 F5000.0 ; Move to start position
G1 X0.1 Y200.0 Z0.3 F1500.0 E15 ; Draw the first line
G1 X0.4 Y200.0 Z0.3 F5000.0 ; Move to side a little
G1 X0.4 Y20 Z0.3 F1500.0 E30 ; Draw the second line
G92 E0 ; Reset Extruder
G1 Z2.0 F3000 ; Move Z Axis up little to prevent scratching of Heat Bed
G1 X5 Y20 Z0.3 F5000.0 ; Move over to prevent blob squish
G92 E0
G92 E0
G1 F1500 E-6.5
;LAYER_COUNT:102
;LAYER:0
M107
G0 F6000 X147.965 Y86.212 Z0.3
;TYPE:SKIRT
G1 F1500 E0
G1 F600 X148.081 Y86.173 E0.00916
G1 X148.155 Y86.273 E0.01847
G1 X148.081 Y86.373 E0.02778
G1 X147.965 Y86.334 E0.03694
G1 X147.965 Y86.212 E0.04607
G0 F6000 X147.454 Y85.843
G1 F600 X147.824 Y85.573 E0.08034
G1 X148.276 Y85.573 E0.11417
G1 X148.646 Y85.843 E0.14845
G1 X148.787 Y86.273 E0.18231
G1 X148.646 Y86.703 E0.21618
G1 X148.276 Y86.973 E0.25045
G1 X147.824 Y86.973 E0.28428
G1 X147.454 Y86.703 E0.31856
G1 X147.313 Y86.273 E0.35242
G1 X147.454 Y85.843 E0.38629
G0 F6000 X147.824 Y106.276
G1 F600 X148.276 Y106.276 E0.42011
G1 X148.646 Y106.546 E0.45439
G1 X148.787 Y106.976 E0.48826
G1 X148.646 Y107.406 E0.52212
G1 X148.276 Y107.676 E0.5564
G1 X147.824 Y107.676 E0.59022
G1 X147.454 Y107.406 E0.6245
G1 X147.313 Y106.976 E0.65837
G1 X147.454 Y106.546 E0.69223
G1 X147.824 Y106.276 E0.72651
G0 F6000 X148.081 Y106.876
G1 F600 X148.155 Y106.976 E0.73582
G1 X148.081 Y107.076 E0.74513
G1 X147.965 Y107.037 E0.75429
G1 X147.965 Y106.915 E0.76342
G1 X148.081 Y106.876 E0.77257
G0 F6000 X147.824 Y127.114
G1 F600 X148.276 Y127.114 E0.8064
G1 X148.646 Y127.384 E0.84068
G1 X148.787 Y127.814 E0.87454
G1 X148.646 Y128.244 E0.90841
G1 X148.276 Y128.514 E0.94269
G1 X147.824 Y128.514 E0.97651
G1 X147.454 Y128.244 E1.01079
G1 X147.313 Y127.814 E1.04465
G1 X147.454 Y127.384 E1.07852
G1 X147.824 Y127.114 E1.1128
G0 F6000 X148.081 Y127.714
G1 F600 X148.155 Y127.814 E1.12211
G1 X148.081 Y127.914 E1.13142
G1 X147.965 Y127.875 E1.14057
G1 X147.965 Y127.753 E1.1497
G1 X148.081 Y127.714 E1.15886
G0 F6000 X147.824 Y147.061
G1 F600 X148.276 Y147.061 E1.19269
G1 X148.646 Y147.331 E1.22697
G1 X148.787 Y147.761 E1.26083
G1 X148.646 Y148.191 E1.2947
G1 X148.276 Y148.461 E1.32897
G1 X147.824 Y148.461 E1.3628
G1 X147.454 Y148.191 E1.39708
G1 X147.313 Y147.761 E1.43094
G1 X147.454 Y147.331 E1.46481
G1 X147.824 Y147.061 E1.49908
G0 F6000 X148.081 Y147.661
G1 F600 X148.155 Y147.761 E1.50839
G1 X148.081 Y147.861 E1.5177
G1 X147.965 Y147.822 E1.52686
G1 X147.965 Y147.7 E1.53599
G1 X148.081 Y147.661 E1.54515
G1 F1500 E-4.95485
G0 F6000 X146.411 Y153.094
G0 X145.848 Y153.657
G0 X74.152 Y153.657
G0 X73.589 Y153.094
G0 X72.546 Y147.854
G1 F1500 E1.54515
G1 F600 X72.687 Y148.285 E1.57909
G1 X72.546 Y148.715 E1.61295
G1 X72.176 Y148.985 E1.64723
G1 X71.724 Y148.985 E1.68105
G1 X71.354 Y148.715 E1.71533
G1 X71.213 Y148.285 E1.7492
G1 X71.354 Y147.854 E1.78313
G1 X71.724 Y147.585 E1.81737
G1 X72.176 Y147.585 E1.85119
G1 X72.546 Y147.854 E1.88542
G0 F6000 X71.981 Y148.185
G1 F600 X72.055 Y148.285 E1.89473
G1 X71.981 Y148.385 E1.90404
G1 X71.865 Y148.346 E1.9132
G1 X71.865 Y148.224 E1.92233
G1 X71.981 Y148.185 E1.93149
G0 F6000 X72.055 Y127.734
G1 F600 X71.981 Y127.834 E1.9408
G1 X71.865 Y127.795 E1.94996
G1 X71.865 Y127.673 E1.95909
G1 X71.981 Y127.634 E1.96825
G1 X72.055 Y127.734 E1.97756
G0 F6000 X72.546 Y127.304
G1 F600 X72.687 Y127.734 E2.01142
G1 X72.546 Y128.164 E2.04529
G1 X72.176 Y128.434 E2.07956
G1 X71.724 Y128.434 E2.11339
G1 X71.354 Y128.164 E2.14767
G1 X71.213 Y127.734 E2.18153
G1 X71.354 Y127.304 E2.2154
G1 X71.724 Y127.034 E2.24968
G1 X72.176 Y127.034 E2.2835
G1 X72.546 Y127.304 E2.31778
G0 F6000 X72.687 Y107.121
G1 F600 X72.546 Y107.551 E2.35164
G1 X72.176 Y107.821 E2.38592
G1 X71.724 Y107.821 E2.41975
G1 X71.354 Y107.551 E2.45402
G1 X71.213 Y107.121 E2.48789
G1 X71.354 Y106.691 E2.52175
G1 X71.724 Y106.421 E2.55603
G1 X72.176 Y106.421 E2.58986
G1 X72.546 Y106.691 E2.62413
G1 X72.687 Y107.121 E2.658
G0 F6000 X72.055 Y107.121
G1 F600 X71.981 Y107.221 E2.66731
G1 X71.865 Y107.182 E2.67647
G1 X71.865 Y107.06 E2.6856
G1 X71.981 Y107.021 E2.69476
G1 X72.055 Y107.121 E2.70407
G0 F6000 X72.055 Y86.634
G1 F600 X71.981 Y86.734 E2.71338
G1 X71.865 Y86.695 E2.72253
G1 X71.865 Y86.573 E2.73166
G1 X71.981 Y86.534 E2.74082
G1 X72.055 Y86.634 E2.75013
G0 F6000 X72.687 Y86.634
G1 F600 X72.546 Y87.064 E2.784
G1 X72.176 Y87.334 E2.81827
G1 X71.724 Y87.334 E2.8521
G1 X71.354 Y87.064 E2.88638
G1 X71.213 Y86.634 E2.92024
G1 X71.354 Y86.204 E2.95411
G1 X71.724 Y85.934 E2.98838
G1 X72.176 Y85.934 E3.02221
G1 X72.546 Y86.204 E3.05649
G1 X72.687 Y86.634 E3.09035
G1 F1500 E-3.40965
;MESH:18650_holder_v2_655_wires_x4.stl
G0 F6000 X105.369 Y96.461
G0 X105.552 Y96.285
G0 X115.343 Y99.252
G0 X121.435 Y101.293
G0 X119.807 Y101.971
G0 X121.739 Y103.885
G0 X122.543 Y104.545
G0 X125.023 Y106.035
;TYPE:WALL-INNER
G1 F1500 E3.09035
G1 F600 X126.374 Y106.168 E3.19194
G1 X127.725 Y106.035 E3.29354
G1 X129.02 Y105.641 E3.39483
G1 X130.216 Y105.002 E3.49631
G1 X131.265 Y104.142 E3.59782
G1 X132.126 Y103.094 E3.69932
G1 X132.764 Y101.897 E3.80083
G1 X133.157 Y100.601 E3.90218
G1 X133.29 Y99.252 E4.00362
G1 X133.157 Y97.902 E4.10514
G1 X132.764 Y96.605 E4.20656
G1 X132.126 Y95.408 E4.30806
G1 X131.265 Y94.36 E4.40956
G1 X130.216 Y93.5 E4.51108
G1 X129.02 Y92.861 E4.61255
G1 X127.725 Y92.467 E4.71385
G1 X126.374 Y92.334 E4.81544
G1 X125.023 Y92.467 E4.91703
G1 X123.728 Y92.861 E5.01833
G1 X122.532 Y93.5 E5.11981
G1 X121.483 Y94.36 E5.22132
G1 X120.622 Y95.408 E5.32282
G1 X119.984 Y96.605 E5.42433
G1 X119.591 Y97.902 E5.52575
G1 X119.458 Y99.252 E5.62726
G1 X119.591 Y100.601 E5.72871
G1 X119.984 Y101.897 E5.83005
G1 X120.622 Y103.094 E5.93156
G1 X121.483 Y104.142 E6.03306
G1 X122.532 Y105.002 E6.13457
G1 X123.728 Y105.641 E6.23605
G1 X125.023 Y106.035 E6.33735
G0 F6000 X125.141 Y105.444
;TYPE:WALL-OUTER
G1 F600 X126.374 Y105.565 E6.43006
G1 X127.607 Y105.444 E6.52278
G1 X128.789 Y105.084 E6.61525
G1 X129.881 Y104.501 E6.70788
G1 X130.839 Y103.715 E6.80062
G1 X131.625 Y102.759 E6.89324
G1 X132.207 Y101.667 E6.98584
G1 X132.566 Y100.483 E7.07843
G1 X132.687 Y99.252 E7.17099
G1 X132.566 Y98.019 E7.26371
G1 X132.207 Y96.835 E7.3563
G1 X131.625 Y95.743 E7.4489
G1 X130.839 Y94.787 E7.54152
G1 X129.881 Y94.001 E7.63425
G1 X128.789 Y93.418 E7.72689
G1 X127.607 Y93.058 E7.81936
G1 X126.374 Y92.937 E7.91207
G1 X125.141 Y93.058 E8.00479
G1 X123.959 Y93.418 E8.09725
G1 X122.867 Y94.001 E8.18989
G1 X121.909 Y94.787 E8.28262
G1 X121.123 Y95.743 E8.37524
G1 X120.541 Y96.835 E8.46785
G1 X120.182 Y98.019 E8.56043
G1 X120.061 Y99.252 E8.65315
G1 X120.182 Y100.483 E8.74572
G1 X120.541 Y101.667 E8.8383
G1 X121.123 Y102.759 E8.93091
G1 X121.909 Y103.715 E9.02352
G1 X122.867 Y104.501 E9.11626
G1 X123.959 Y105.084 E9.2089
G1 X125.141 Y105.444 E9.30136
G0 F6000 X125.013 Y106.091
G1 F1500 E2.80136
G0 F6000 X122.733 Y104.701
G0 X121.739 Y103.885
G0 X120.923 Y102.893
G0 X120.319 Y101.759
G0 X119.946 Y100.529
G0 X119.82 Y99.252
G0 X119.946 Y97.973
G0 X120.319 Y96.743
G0 X120.923 Y95.609
G0 X121.739 Y94.617
G0 X122.733 Y93.801
G0 X123.867 Y93.196
G0 X125.095 Y92.822
G0 X125.743 Y92.757
G0 X125.775 Y92.182
G0 X125.947 Y93.948
G0 X126.374 Y83.097
G0 X126.374 Y84.861
G0 X125.023 Y84.537
;TYPE:WALL-INNER
G1 F1500 E9.30136
G1 F600 X126.374 Y84.67 E9.40295
G1 X127.725 Y84.537 E9.50455
G1 X129.02 Y84.143 E9.60584
G1 X130.216 Y83.504 E9.70732
G1 X131.265 Y82.644 E9.80883
G1 X132.126 Y81.596 E9.91033
G1 X132.764 Y80.399 E10.01184
G1 X133.157 Y79.103 E10.11319
G1 X133.29 Y77.754 E10.21463
G1 X133.157 Y76.404 E10.31615
G1 X132.764 Y75.107 E10.41757
G1 X132.126 Y73.91 E10.51907
G1 X131.265 Y72.862 E10.62057
G1 X130.216 Y72.002 E10.72209
G1 X129.02 Y71.363 E10.82356
G1 X127.725 Y70.969 E10.92486
G1 X126.374 Y70.836 E11.02645
G1 X125.023 Y70.969 E11.12804
G1 X123.728 Y71.363 E11.22934
G1 X122.532 Y72.002 E11.33082
G1 X121.483 Y72.862 E11.43233
G1 X120.622 Y73.91 E11.53383
G1 X119.984 Y75.107 E11.63534
G1 X119.591 Y76.404 E11.73676
G1 X119.458 Y77.754 E11.83827
G1 X119.591 Y79.103 E11.93972
G1 X119.984 Y80.399 E12.04106
G1 X120.622 Y81.596 E12.14257
G1 X121.483 Y82.644 E12.24407
G1 X122.532 Y83.504 E12.34558
G1 X123.728 Y84.143 E12.44706
G1 X125.023 Y84.537 E12.54836
G0 F6000 X125.141 Y83.946
;TYPE:WALL-OUTER
G1 F600 X126.374 Y84.067 E12.64107
G1 X127.607 Y83.946 E12.73379
G1 X128.789 Y83.586 E12.82626
G1 X129.881 Y83.003 E12.91889
G1 X130.839 Y82.217 E13.01163
G1 X131.625 Y81.261 E13.10425
G1 X132.207 Y80.169 E13.19685
G1 X132.566 Y78.985 E13.28944
G1 X132.687 Y77.754 E13.382
G1 X132.566 Y76.521 E13.47472
G1 X132.207 Y75.337 E13.56731
G1 X131.625 Y74.245 E13.65991
G1 X130.839 Y73.289 E13.75253
G1 X129.881 Y72.503 E13.84526
G1 X128.789 Y71.92 E13.9379
G1 X127.607 Y71.56 E14.03037
G1 X126.374 Y71.439 E14.12308
G1 X125.141 Y71.56 E14.2158
G1 X123.959 Y71.92 E14.30826
G1 X122.867 Y72.503 E14.4009
G1 X121.909 Y73.289 E14.49363
G1 X121.123 Y74.245 E14.58625
G1 X120.541 Y75.337 E14.67886
G1 X120.182 Y76.521 E14.77144
G1 X120.061 Y77.754 E14.86416
G1 X120.182 Y78.985 E14.95673
G1 X120.541 Y80.169 E15.04931
G1 X121.123 Y81.261 E15.14192
G1 X121.909 Y82.217 E15.23453
G1 X122.867 Y83.003 E15.32727
G1 X123.959 Y83.586 E15.41991
G1 X125.141 Y83.946 E15.51237
G0 F6000 X125.013 Y84.593
G1 F1500 E9.01237
G0 F6000 X122.426 Y83.663
G0 X123.404 Y82.196
G0 X112.965 Y82.2
G0 X113.949 Y83.663
G0 X109.998 Y84.67
;TYPE:WALL-INNER
G1 F1500 E15.51237
G1 F600 X111.348 Y84.537 E15.61389
G1 X112.646 Y84.144 E15.71538
G1 X113.843 Y83.504 E15.81696
G1 X114.889 Y82.643 E15.91834
G1 X115.75 Y81.597 E16.01973
G1 X116.39 Y80.4 E16.12131
G1 X116.783 Y79.103 E16.22273
G1 X116.916 Y77.754 E16.32417
G1 X116.783 Y76.404 E16.42569
G1 X116.39 Y75.106 E16.52718
G1 X115.75 Y73.909 E16.62876
G1 X114.889 Y72.863 E16.73014
G1 X113.843 Y72.002 E16.83153
G1 X112.646 Y71.362 E16.9331
G1 X111.348 Y70.969 E17.0346
G1 X109.998 Y70.836 E17.13611
G1 X108.649 Y70.969 E17.23755
G1 X107.352 Y71.362 E17.33897
G1 X106.155 Y72.002 E17.44055
G1 X105.109 Y72.863 E17.54194
G1 X104.248 Y73.909 E17.64332
G1 X103.608 Y75.106 E17.7449
G1 X103.215 Y76.404 E17.84639
G1 X103.082 Y77.754 E17.94791
G1 X103.215 Y79.103 E18.04935
G1 X103.608 Y80.4 E18.15077
G1 X104.248 Y81.597 E18.25235
G1 X105.109 Y82.643 E18.35373
G1 X106.155 Y83.504 E18.45512
G1 X107.352 Y84.144 E18.5567
G1 X108.649 Y84.537 E18.65812
G1 X109.998 Y84.67 E18.75956
G0 F6000 X109.998 Y84.067
;TYPE:WALL-OUTER
G1 F600 X111.231 Y83.946 E18.85227
G1 X112.415 Y83.587 E18.94486
G1 X113.508 Y83.003 E19.0376
G1 X114.463 Y82.217 E19.13016
G1 X115.249 Y81.262 E19.22272
G1 X115.833 Y80.169 E19.31546
G1 X116.192 Y78.985 E19.40805
G1 X116.313 Y77.754 E19.50062
G1 X116.192 Y76.521 E19.59333
G1 X115.833 Y75.337 E19.68592
G1 X115.249 Y74.244 E19.77866
G1 X114.463 Y73.289 E19.87122
G1 X113.508 Y72.503 E19.96378
G1 X112.415 Y71.919 E20.05652
G1 X111.231 Y71.56 E20.14911
G1 X109.998 Y71.439 E20.24182
G1 X108.767 Y71.56 E20.33439
G1 X107.583 Y71.919 E20.42698
G1 X106.49 Y72.503 E20.51971
G1 X105.535 Y73.289 E20.61228
G1 X104.749 Y74.244 E20.70484
G1 X104.165 Y75.337 E20.79757
G1 X103.806 Y76.521 E20.89016
G1 X103.685 Y77.754 E20.98288
G1 X103.806 Y78.985 E21.07544
G1 X104.165 Y80.169 E21.16803
G1 X104.749 Y81.262 E21.26077
G1 X105.535 Y82.217 E21.35333
G1 X106.49 Y83.003 E21.44589
G1 X107.583 Y83.587 E21.53863
G1 X108.767 Y83.946 E21.63122
G1 X109.998 Y84.067 E21.72379
G0 F6000 X109.998 Y84.727
G1 F1500 E15.22379
G0 F6000 X106.049 Y83.663
G0 X107.033 Y82.2
G0 X96.594 Y82.196
G0 X97.572 Y83.663
G0 X94.975 Y84.537
;TYPE:WALL-INNER
G1 F1500 E21.72379
G1 F600 X96.27 Y84.143 E21.82508
G1 X97.466 Y83.504 E21.92656
G1 X98.515 Y82.644 E22.02807
G1 X99.376 Y81.596 E22.12957
G1 X100.014 Y80.399 E22.23108
G1 X100.407 Y79.103 E22.33243
G1 X100.54 Y77.754 E22.43387
G1 X100.407 Y76.404 E22.53539
G1 X100.014 Y75.107 E22.63681
G1 X99.376 Y73.91 E22.73831
G1 X98.515 Y72.862 E22.83982
G1 X97.466 Y72.002 E22.94133
G1 X96.27 Y71.363 E23.0428
G1 X94.975 Y70.969 E23.1441
G1 X93.624 Y70.836 E23.24569
G1 X92.275 Y70.969 E23.34714
G1 X90.978 Y71.362 E23.44855
G1 X89.782 Y72.002 E23.55007
G1 X88.733 Y72.862 E23.65158
G1 X87.872 Y73.909 E23.75302
G1 X87.232 Y75.107 E23.85467
G1 X86.841 Y76.404 E23.95604
G1 X86.708 Y77.754 E24.05756
G1 X86.841 Y79.102 E24.15893
G1 X87.232 Y80.399 E24.2603
G1 X87.872 Y81.597 E24.36195
G1 X88.733 Y82.644 E24.46339
G1 X89.782 Y83.504 E24.5649
G1 X90.978 Y84.144 E24.66641
G1 X92.275 Y84.537 E24.76783
G1 X93.624 Y84.67 E24.86927
G1 X94.975 Y84.537 E24.97087
G0 F6000 X94.857 Y83.946
;TYPE:WALL-OUTER
G1 F600 X96.039 Y83.586 E25.06333
G1 X97.131 Y83.003 E25.15597
G1 X98.089 Y82.217 E25.2487
G1 X98.875 Y81.261 E25.34132
G1 X99.457 Y80.169 E25.43393
G1 X99.816 Y78.985 E25.52651
G1 X99.937 Y77.754 E25.61908
G1 X99.816 Y76.521 E25.7118
G1 X99.457 Y75.337 E25.80438
G1 X98.875 Y74.245 E25.89699
G1 X98.089 Y73.289 E25.9896
G1 X97.131 Y72.503 E26.08234
G1 X96.039 Y71.92 E26.17498
G1 X94.857 Y71.56 E26.26744
G1 X93.624 Y71.439 E26.36016
G1 X92.393 Y71.56 E26.45272
G1 X91.209 Y71.919 E26.54531
G1 X90.117 Y72.503 E26.63799
G1 X89.159 Y73.289 E26.73072
G1 X88.373 Y74.244 E26.82328
G1 X87.789 Y75.337 E26.91602
G1 X87.432 Y76.521 E27.00856
G1 X87.311 Y77.754 E27.10128
G1 X87.432 Y78.985 E27.19385
G1 X87.789 Y80.169 E27.28639
G1 X88.373 Y81.262 E27.37913
G1 X89.159 Y82.217 E27.47169
G1 X90.117 Y83.003 E27.56442
G1 X91.209 Y83.587 E27.6571
G1 X92.393 Y83.946 E27.74968
G1 X93.624 Y84.067 E27.84225
G1 X94.857 Y83.946 E27.93497
G0 F6000 X94.985 Y84.593
G1 F1500 E21.43497
G0 F6000 X93.624 Y84.861
G0 X93.624 Y83.097
G0 X93.624 Y93.907
G0 X93.624 Y92.143
G0 X96.131 Y93.196
G0 X97.265 Y93.801
G0 X98.259 Y94.617
G0 X99.075 Y95.609
G0 X99.679 Y96.743
G0 X100.052 Y97.973
G0 X100.178 Y99.252
G0 X100.052 Y100.529
G0 X99.679 Y101.759
G0 X99.075 Y102.893
G0 X98.259 Y103.885
G0 X97.455 Y104.545
G0 X94.975 Y106.035
;TYPE:WALL-INNER
G1 F1500 E27.93497
G1 F600 X96.27 Y105.641 E28.03626
G1 X97.466 Y105.002 E28.13774
G1 X98.515 Y104.142 E28.23925
G1 X99.376 Y103.094 E28.34075
G1 X100.014 Y101.897 E28.44226
G1 X100.407 Y100.601 E28.54361
G1 X100.54 Y99.252 E28.64505
G1 X100.407 Y97.902 E28.74657
G1 X100.014 Y96.605 E28.84799
G1 X99.376 Y95.408 E28.94949
G1 X98.515 Y94.36 E29.051
G1 X97.466 Y93.5 E29.15251
G1 X96.27 Y92.861 E29.25398
G1 X94.975 Y92.467 E29.35528
G1 X93.624 Y92.334 E29.45687
G1 X92.275 Y92.467 E29.55832
G1 X90.978 Y92.86 E29.65973
G1 X89.782 Y93.5 E29.76125
G1 X88.733 Y94.36 E29.86276
G1 X87.872 Y95.407 E29.9642
G1 X87.232 Y96.605 E30.06585
G1 X86.841 Y97.902 E30.16722
G1 X86.708 Y99.252 E30.26874
G1 X86.841 Y100.6 E30.37011
G1 X87.232 Y101.897 E30.47148
G1 X87.872 Y103.095 E30.57313
G1 X88.733 Y104.142 E30.67457
G1 X89.782 Y105.002 E30.77608
G1 X90.978 Y105.642 E30.87759
G1 X92.275 Y106.035 E30.97901
G1 X93.624 Y106.168 E31.08045
G1 X94.975 Y106.035 E31.18205
G0 F6000 X94.857 Y105.444
;TYPE:WALL-OUTER
G1 F600 X96.039 Y105.084 E31.27451
G1 X97.131 Y104.501 E31.36715
G1 X98.089 Y103.715 E31.45988
G1 X98.875 Y102.759 E31.5525
G1 X99.457 Y101.667 E31.64511
G1 X99.816 Y100.483 E31.73769
G1 X99.937 Y99.252 E31.83026
G1 X99.816 Y98.019 E31.92298
G1 X99.457 Y96.835 E32.01556
G1 X98.875 Y95.743 E32.10817
G1 X98.089 Y94.787 E32.20078
G1 X97.131 Y94.001 E32.29352
G1 X96.039 Y93.418 E32.38616
G1 X94.857 Y93.058 E32.47862
G1 X93.624 Y92.937 E32.57134
G1 X92.393 Y93.058 E32.6639
G1 X91.209 Y93.417 E32.75649
G1 X90.117 Y94.001 E32.84917
G1 X89.159 Y94.787 E32.9419
G1 X88.373 Y95.742 E33.03446
G1 X87.789 Y96.835 E33.1272
G1 X87.432 Y98.019 E33.21974
G1 X87.311 Y99.252 E33.31246
G1 X87.432 Y100.483 E33.40503
G1 X87.789 Y101.667 E33.49757
G1 X88.373 Y102.76 E33.59031
G1 X89.159 Y103.715 E33.68287
