;FLAVOR:Marlin
;TIME:586
;Filament used: 0.267576m
;Layer height: 0.2
;MINX:94.012
;MINY:94.018
;MINZ:0.3
;MAXX:135.993
;MAXY:128.982
;MAXZ:7.9
;Generated with Cura_SteamEngine 4.12.1
M140 S80
M105
M190 S80
M104 S220
M105
M109 S220
M82 ;absolute extrusion mode
; Ender 3 Custom Start G-code
G92 E0 ; Reset Extruder
G28 ; Home all axes
G1 Z2.0 F3000 ; Move Z Axis up little to prevent scratching of Heat Bed
G1 X0.1 Y20 Z0.3 F5000.0 ; Move to start position
G1 X0.1 Y200.0 Z0.3 F1500.0 E15 ; Draw the first line
G1 X0.4 Y200.0 Z0.3 F5000.0 ; Move to side a little
G1 X0.4 Y20 Z0.3 F1500.0 E30 ; Draw the second line
G92 E0 ; Reset Extruder
G1 Z2.0 F3000 ; Move Z Axis up little to prevent scratching of Heat Bed
G1 X5 Y20 Z0.3 F5000.0 ; Move over to prevent blob squish
G92 E0
G92 E0
G1 F1500 E-6.5
;LAYER_COUNT:39
;LAYER:0
M107
G0 F6000 X98.652 Y98.736 Z0.3
;TYPE:SKIRT
G1 F1500 E0
G1 F600 X99.319 Y98.107 E0.06861
G1 X99.565 Y97.893 E0.09301
G1 X100.167 Y97.404 E0.15105
G1 X100.609 Y97.069 E0.19255
G1 X101.574 Y96.412 E0.27992
G1 X101.753 Y96.303 E0.2956
G1 X102.182 Y96.054 E0.33272
G1 X102.445 Y95.909 E0.3552
G1 X103.184 Y95.536 E0.41715
G1 X103.414 Y95.43 E0.4361
G1 X103.939 Y95.203 E0.4789
G1 X104.561 Y94.97 E0.52861
G1 X105.071 Y94.795 E0.56896
G1 X105.892 Y94.547 E0.63314
G1 X105.999 Y94.519 E0.64142
G1 X106.415 Y94.418 E0.67345
G1 X106.622 Y94.372 E0.68932
G1 X107.157 Y94.266 E0.73014
G1 X107.912 Y94.157 E0.78722
G1 X108.559 Y94.085 E0.83594
G1 X109.516 Y94.018 E0.90773
G1 X110.165 Y94.019 E0.9563
G1 X110.785 Y94.037 E1.00272
G1 X111.741 Y94.105 E1.07444
G1 X112.463 Y94.209 E1.12903
G1 X112.992 Y94.303 E1.16924
G1 X113.802 Y94.478 E1.23125
G1 X114.197 Y94.578 E1.26175
G1 X114.832 Y94.758 E1.31114
G1 X115.108 Y94.845 E1.3328
G1 X115.337 Y94.92 E1.35083
G1 X115.828 Y95.086 E1.38962
G1 X117.07 Y95.518 E1.48802
G1 X119.418 Y96.263 E1.67237
G1 X121.872 Y96.965 E1.86338
G1 X123.555 Y97.404 E1.99354
G1 X123.898 Y97.49 E2.02001
G1 X124.435 Y97.639 E2.06171
G1 X124.719 Y97.725 E2.08392
G1 X125.609 Y98.034 E2.15442
G1 X126.184 Y98.261 E2.20068
G1 X127.187 Y98.714 E2.28304
G1 X127.383 Y98.814 E2.29951
G1 X127.875 Y99.08 E2.34137
G1 X127.964 Y99.131 E2.34904
G1 X128.649 Y99.556 E2.40937
G1 X129.022 Y99.806 E2.44297
G1 X129.654 Y100.262 E2.5013
G1 X130.029 Y100.552 E2.53677
G1 X130.763 Y101.17 E2.60858
G1 X131.254 Y101.647 E2.65981
G1 X131.719 Y102.127 E2.70982
G1 X132.502 Y103.024 E2.79892
G1 X132.645 Y103.206 E2.81624
G1 X133.054 Y103.761 E2.86784
G1 X133.221 Y104.002 E2.88978
G1 X133.597 Y104.58 E2.94138
G1 X133.772 Y104.868 E2.9666
G1 X134.25 Y105.737 E3.04082
G1 X134.404 Y106.048 E3.06679
G1 X134.749 Y106.815 E3.12973
G1 X134.863 Y107.095 E3.15235
G1 X135.016 Y107.492 E3.18419
G1 X135.051 Y107.588 E3.19184
G1 X135.358 Y108.563 E3.26834
G1 X135.533 Y109.219 E3.31914
G1 X135.801 Y110.518 E3.4184
G1 X135.843 Y110.805 E3.44011
G1 X135.893 Y111.19 E3.46916
G1 X135.957 Y111.902 E3.52266
G1 X135.971 Y112.14 E3.5405
G1 X135.989 Y112.587 E3.57398
G1 X135.993 Y112.789 E3.5891
G1 X135.973 Y113.726 E3.65924
G1 X135.94 Y114.26 E3.69928
G1 X135.864 Y115.052 E3.75882
G1 X135.724 Y115.894 E3.82269
G1 X135.597 Y116.515 E3.87013
G1 X135.301 Y117.658 E3.95849
G1 X135.208 Y117.954 E3.98171
G1 X134.732 Y119.209 E4.08215
G1 X134.508 Y119.709 E4.12315
G1 X134.181 Y120.378 E4.17888
G1 X133.994 Y120.732 E4.20884
G1 X133.643 Y121.351 E4.26209
G1 X133.607 Y121.41 E4.26726
G1 X133.314 Y121.865 E4.30776
G1 X133.201 Y122.032 E4.32285
G1 X132.858 Y122.512 E4.367
G1 X132.726 Y122.687 E4.38341
G1 X132.352 Y123.157 E4.42836
G1 X132.153 Y123.394 E4.45152
G1 X131.703 Y123.899 E4.50213
G1 X131.496 Y124.118 E4.52469
G1 X130.667 Y124.912 E4.61059
G1 X130.421 Y125.125 E4.63494
G1 X129.839 Y125.596 E4.69097
G1 X129.397 Y125.931 E4.73247
G1 X128.432 Y126.588 E4.81984
G1 X128.253 Y126.697 E4.83552
G1 X127.824 Y126.946 E4.87264
G1 X127.561 Y127.091 E4.89512
G1 X126.834 Y127.459 E4.9561
G1 X126.609 Y127.563 E4.97465
G1 X126.074 Y127.794 E5.01825
G1 X125.885 Y127.87 E5.0335
G1 X125.4 Y128.052 E5.07227
G1 X125.246 Y128.106 E5.08448
G1 X124.768 Y128.262 E5.12211
G1 X124.447 Y128.359 E5.1472
G1 X123.599 Y128.581 E5.2128
G1 X123.368 Y128.632 E5.2305
G1 X122.849 Y128.734 E5.27009
G1 X122.086 Y128.844 E5.32778
G1 X121.435 Y128.916 E5.37679
G1 X120.478 Y128.982 E5.44858
G1 X119.847 Y128.981 E5.4958
G1 X119.243 Y128.964 E5.54102
G1 X118.287 Y128.898 E5.61273
G1 X117.578 Y128.796 E5.66634
G1 X117.037 Y128.701 E5.70744
G1 X116.204 Y128.522 E5.7712
G1 X115.809 Y128.422 E5.80169
G1 X115.172 Y128.241 E5.85125
G1 X114.666 Y128.079 E5.89101
G1 X114.181 Y127.915 E5.92933
G1 X112.933 Y127.481 E6.02821
G1 X110.579 Y126.735 E6.213
G1 X108.102 Y126.026 E6.40581
G1 X106.751 Y125.672 E6.51033
G1 X106.08 Y125.502 E6.56213
G1 X105.556 Y125.356 E6.60284
G1 X105.372 Y125.3 E6.61723
G1 X104.965 Y125.168 E6.64925
G1 X104.745 Y125.092 E6.66667
G1 X104.29 Y124.924 E6.70297
G1 X103.835 Y124.745 E6.73956
G1 X102.739 Y124.246 E6.82968
G1 X102.539 Y124.142 E6.84655
G1 X102.105 Y123.905 E6.88355
G1 X101.352 Y123.44 E6.94978
G1 X100.978 Y123.189 E6.98349
G1 X100.354 Y122.74 E7.04102
G1 X99.98 Y122.451 E7.07639
G1 X99.247 Y121.833 E7.14814
G1 X98.733 Y121.333 E7.2018
G1 X98.249 Y120.831 E7.25399
G1 X97.442 Y119.898 E7.3463
G1 X97.307 Y119.724 E7.36278
G1 X96.9 Y119.166 E7.41447
G1 X96.74 Y118.932 E7.43568
G1 X96.408 Y118.418 E7.48147
G1 X96.234 Y118.132 E7.50653
G1 X95.746 Y117.244 E7.58235
G1 X95.595 Y116.938 E7.60789
G1 X95.366 Y116.444 E7.64864
G1 X95.315 Y116.327 E7.65819
G1 X95.128 Y115.871 E7.69507
G1 X95.052 Y115.674 E7.71087
G1 X94.886 Y115.217 E7.74726
G1 X94.652 Y114.45 E7.80727
G1 X94.476 Y113.793 E7.85817
G1 X94.204 Y112.474 E7.95895
G1 X94.159 Y112.165 E7.98232
G1 X94.099 Y111.688 E8.0183
G1 X94.049 Y111.104 E8.06216
G1 X94.034 Y110.853 E8.08098
G1 X94.015 Y110.343 E8.11917
G1 X94.012 Y110.147 E8.13384
G1 X94.034 Y109.245 E8.20136
G1 X94.067 Y108.723 E8.24051
G1 X94.134 Y108.016 E8.29365
G1 X94.291 Y107.06 E8.36615
G1 X94.428 Y106.403 E8.41638
G1 X94.744 Y105.211 E8.50866
G1 X94.821 Y104.973 E8.52738
G1 X95.249 Y103.854 E8.61704
G1 X95.471 Y103.353 E8.65805
G1 X95.821 Y102.631 E8.71809
G1 X95.947 Y102.393 E8.73825
G1 X96.357 Y101.683 E8.7996
G1 X96.633 Y101.241 E8.8386
G1 X97.382 Y100.179 E8.93585
G1 X97.521 Y100.004 E8.95257
G1 X97.841 Y99.619 E8.99004
G1 X98.038 Y99.392 E9.01253
G1 X98.508 Y98.883 E9.06438
G1 X98.652 Y98.736 E9.07978
G0 F6000 X99.08 Y99.155
G1 F600 X99.713 Y98.559 E9.14484
G1 X99.959 Y98.345 E9.16924
G1 X100.529 Y97.882 E9.2242
G1 X100.971 Y97.547 E9.2657
G1 X101.886 Y96.924 E9.34854
G1 X102.065 Y96.815 E9.36422
G1 X102.471 Y96.58 E9.39933
G1 X102.734 Y96.435 E9.42181
G1 X103.435 Y96.081 E9.48057
G1 X103.665 Y95.975 E9.49953
G1 X104.166 Y95.759 E9.54036
G1 X104.755 Y95.537 E9.58746
G1 X105.265 Y95.362 E9.62781
G1 X106.044 Y95.127 E9.6887
G1 X106.151 Y95.099 E9.69698
G1 X106.545 Y95.004 E9.72731
G1 X106.752 Y94.958 E9.74318
G1 X107.262 Y94.857 E9.78209
G1 X107.978 Y94.753 E9.83623
G1 X108.625 Y94.681 E9.88495
G1 X109.557 Y94.617 E9.95486
G1 X110.147 Y94.619 E9.99901
G1 X110.767 Y94.637 E10.04543
G1 X111.699 Y94.704 E10.11535
G1 X112.358 Y94.8 E10.16519
G1 X112.887 Y94.894 E10.2054
G1 X113.655 Y95.059 E10.26418
G1 X114.05 Y95.159 E10.29468
G1 X114.652 Y95.33 E10.34151
G1 X115.145 Y95.488 E10.38025
G1 X115.631 Y95.653 E10.41866
G1 X116.871 Y96.085 E10.51693
G1 X119.251 Y96.839 E10.70376
G1 X121.692 Y97.538 E10.89377
G1 X123.462 Y97.999 E11.03065
G1 X123.752 Y98.072 E11.05303
G1 X124.261 Y98.213 E11.09256
G1 X124.545 Y98.299 E11.11476
G1 X125.389 Y98.592 E11.18162
G1 X125.964 Y98.819 E11.22788
G1 X126.915 Y99.249 E11.30599
G1 X127.111 Y99.349 E11.32246
G1 X127.576 Y99.601 E11.36204
G1 X127.665 Y99.652 E11.36971
G1 X128.315 Y100.055 E11.42695
G1 X128.688 Y100.305 E11.46055
G1 X129.287 Y100.737 E11.51582
G1 X129.662 Y101.027 E11.55129
G1 X130.375 Y101.629 E11.62113
G1 X130.823 Y102.065 E11.66791
G1 X131.288 Y102.545 E11.71792
G1 X132.03 Y103.395 E11.80236
G1 X132.173 Y103.577 E11.81968
G1 X132.561 Y104.103 E11.86859
G1 X132.728 Y104.344 E11.89054
G1 X133.084 Y104.892 E11.93944
G1 X133.259 Y105.18 E11.96466
G1 X133.712 Y106.003 E12.03496
G1 X133.866 Y106.314 E12.06093
G1 X134.193 Y107.041 E12.12059
G1 X134.307 Y107.321 E12.14321
G1 X134.453 Y107.697 E12.1734
G1 X134.488 Y107.793 E12.18104
G1 X134.779 Y108.717 E12.25354
G1 X134.954 Y109.373 E12.30435
G1 X135.207 Y110.605 E12.39847
G1 X135.249 Y110.892 E12.42018
G1 X135.297 Y111.262 E12.4481
G1 X135.358 Y111.937 E12.49882
G1 X135.372 Y112.175 E12.51666
G1 X135.389 Y112.599 E12.54841
G1 X135.393 Y112.801 E12.56353
G1 X135.374 Y113.689 E12.63
G1 X135.341 Y114.223 E12.67004
G1 X135.269 Y114.976 E12.72665
G1 X135.136 Y115.774 E12.78719
G1 X135.009 Y116.395 E12.83463
G1 X134.729 Y117.478 E12.91834
G1 X134.636 Y117.774 E12.94156
G1 X134.184 Y118.963 E13.03675
G1 X133.96 Y119.463 E13.07775
G1 X133.651 Y120.098 E13.1306
G1 X133.464 Y120.452 E13.16056
G1 X133.131 Y121.038 E13.211
G1 X133.095 Y121.097 E13.21617
G1 X132.818 Y121.528 E13.25451
G1 X132.705 Y121.695 E13.2696
G1 X132.379 Y122.151 E13.31155
G1 X132.247 Y122.326 E13.32795
G1 X131.893 Y122.771 E13.37051
G1 X131.694 Y123.008 E13.39366
G1 X131.267 Y123.486 E13.44163
G1 X131.06 Y123.705 E13.46418
G1 X130.274 Y124.458 E13.54564
G1 X130.028 Y124.671 E13.56999
G1 X129.477 Y125.118 E13.62309
G1 X129.035 Y125.453 E13.66459
G1 X128.12 Y126.076 E13.74743
G1 X127.941 Y126.185 E13.76311
G1 X127.535 Y126.42 E13.79822
G1 X127.272 Y126.565 E13.82069
G1 X126.582 Y126.914 E13.87856
G1 X126.357 Y127.018 E13.89711
G1 X125.851 Y127.237 E13.93837
G1 X125.662 Y127.313 E13.95362
G1 X125.202 Y127.486 E13.99039
G1 X125.048 Y127.54 E14.00261
G1 X124.594 Y127.688 E14.03834
G1 X124.273 Y127.785 E14.06344
G1 X123.47 Y127.995 E14.12555
G1 X123.239 Y128.046 E14.14325
G1 X122.744 Y128.143 E14.181
G1 X122.02 Y128.248 E14.23575
G1 X121.369 Y128.32 E14.28476
G1 X120.438 Y128.383 E14.3546
G1 X119.864 Y128.382 E14.39755
G1 X119.26 Y128.365 E14.44277
G1 X118.329 Y128.298 E14.51262
G1 X117.682 Y128.205 E14.56154
G1 X117.141 Y128.11 E14.60264
G1 X116.351 Y127.941 E14.6631
G1 X115.956 Y127.841 E14.69359
G1 X115.352 Y127.669 E14.74059
G1 X114.858 Y127.511 E14.7794
G1 X114.378 Y127.348 E14.81734
G1 X113.122 Y126.911 E14.91686
G1 X110.756 Y126.162 E15.10258
G1 X108.279 Y125.453 E15.29539
G1 X106.83 Y125.073 E15.40749
G1 X106.227 Y124.92 E15.45405
G1 X105.73 Y124.782 E15.49265
G1 X105.546 Y124.726 E15.50704
G1 X105.161 Y124.601 E15.53734
G1 X104.941 Y124.525 E15.55475
G1 X104.51 Y124.365 E15.58916
G1 X104.055 Y124.186 E15.62575
G1 X103.016 Y123.714 E15.71115
G1 X102.816 Y123.61 E15.72802
G1 X102.4 Y123.382 E15.76352
G1 X101.686 Y122.942 E15.82628
G1 X101.312 Y122.691 E15.85999
G1 X100.721 Y122.265 E15.91451
G1 X100.347 Y121.976 E15.94988
G1 X99.634 Y121.374 E16.01971
G1 X99.165 Y120.916 E16.06877
G1 X98.681 Y120.414 E16.12096
G1 X97.916 Y119.531 E16.20839
G1 X97.781 Y119.357 E16.22487
G1 X97.395 Y118.827 E16.27393
G1 X97.235 Y118.593 E16.29515
G1 X96.921 Y118.106 E16.33851
G1 X96.747 Y117.82 E16.36356
G1 X96.284 Y116.978 E16.43547
G1 X96.133 Y116.672 E16.46101
G1 X95.916 Y116.204 E16.49961
G1 X95.865 Y116.087 E16.50916
G1 X95.688 Y115.655 E16.5441
G1 X95.612 Y115.458 E16.5599
G1 X95.454 Y115.022 E16.59461
G1 X95.231 Y114.294 E16.65159
G1 X95.055 Y113.637 E16.70249
G1 X94.798 Y112.388 E16.79791
G1 X94.753 Y112.079 E16.82128
G1 X94.696 Y111.622 E16.85575
G1 X94.648 Y111.068 E16.89736
G1 X94.633 Y110.817 E16.91618
G1 X94.615 Y110.334 E16.95235
G1 X94.612 Y110.138 E16.96702
G1 X94.633 Y109.283 E17.03102
G1 X94.666 Y108.761 E17.07016
G1 X94.729 Y108.089 E17.12067
G1 X94.879 Y107.183 E17.1894
G1 X95.016 Y106.526 E17.23962
G1 X95.315 Y105.396 E17.3271
G1 X95.392 Y105.158 E17.34582
G1 X95.798 Y104.097 E17.43083
G1 X96.02 Y103.596 E17.47184
G1 X96.352 Y102.912 E17.52874
G1 X96.478 Y102.674 E17.54889
G1 X96.865 Y102.001 E17.60699
G1 X97.141 Y101.559 E17.64598
G1 X97.852 Y100.553 E17.73817
G1 X97.991 Y100.378 E17.7549
G1 X98.294 Y100.013 E17.7904
G1 X98.491 Y99.786 E17.81289
G1 X98.936 Y99.302 E17.86209
G1 X99.08 Y99.155 E17.87749
G0 F6000 X99.509 Y99.575
G1 F600 X100.107 Y99.012 E17.93896
G1 X100.353 Y98.798 E17.96336
G1 X100.891 Y98.36 E18.01527
G1 X101.333 Y98.025 E18.05678
G1 X102.198 Y97.437 E18.13505
G1 X102.377 Y97.328 E18.15073
G1 X102.761 Y97.105 E18.18397
G1 X103.024 Y96.96 E18.20644
G1 X103.686 Y96.626 E18.26193
G1 X103.916 Y96.52 E18.28088
G1 X104.393 Y96.314 E18.31976
G1 X104.95 Y96.105 E18.36429
G1 X105.46 Y95.93 E18.40464
G1 X106.195 Y95.708 E18.46209
G1 X106.302 Y95.68 E18.47037
G1 X106.676 Y95.589 E18.49918
G1 X106.883 Y95.543 E18.51504
G1 X107.368 Y95.447 E18.55204
G1 X108.045 Y95.349 E18.60324
G1 X108.692 Y95.277 E18.65195
G1 X109.597 Y95.217 E18.71983
G1 X110.13 Y95.218 E18.75971
G1 X110.75 Y95.236 E18.80613
G1 X111.655 Y95.303 E18.87404
G1 X112.253 Y95.391 E18.91928
G1 X112.782 Y95.485 E18.95949
G1 X113.508 Y95.641 E19.01506
G1 X113.903 Y95.741 E19.04555
G1 X114.472 Y95.902 E19.0898
G1 X114.748 Y95.989 E19.11146
G1 X115.348 Y96.19 E19.15881
G1 X116.671 Y96.651 E19.26366
G1 X119.093 Y97.418 E19.45378
G1 X121.53 Y98.116 E19.64349
G1 X123.285 Y98.574 E19.77922
G1 X123.606 Y98.654 E19.80398
G1 X124.087 Y98.787 E19.84132
G1 X124.371 Y98.873 E19.86353
G1 X125.168 Y99.151 E19.9267
G1 X125.743 Y99.378 E19.97296
G1 X126.642 Y99.783 E20.04675
G1 X126.838 Y99.883 E20.06322
G1 X127.278 Y100.121 E20.10065
G1 X127.367 Y100.172 E20.10833
G1 X127.981 Y100.553 E20.1624
G1 X128.354 Y100.803 E20.19601
G1 X128.92 Y101.211 E20.24822
G1 X129.295 Y101.501 E20.2837
G1 X129.988 Y102.087 E20.35161
G1 X130.392 Y102.482 E20.3939
G1 X130.857 Y102.962 E20.44391
G1 X131.558 Y103.765 E20.52368
G1 X131.701 Y103.947 E20.541
G1 X132.068 Y104.444 E20.58724
G1 X132.235 Y104.685 E20.60918
G1 X132.571 Y105.203 E20.65538
G1 X132.746 Y105.491 E20.6806
G1 X133.174 Y106.269 E20.74705
G1 X133.328 Y106.58 E20.77302
G1 X133.638 Y107.267 E20.82943
G1 X133.752 Y107.547 E20.85205
G1 X133.889 Y107.903 E20.8806
G1 X133.924 Y107.999 E20.88824
G1 X134.199 Y108.872 E20.95674
G1 X134.374 Y109.528 E21.00755
G1 X134.613 Y110.692 E21.09647
G1 X134.689 Y111.228 E21.13699
G1 X134.702 Y111.335 E21.14505
G1 X134.759 Y111.972 E21.19291
G1 X134.773 Y112.21 E21.21076
G1 X134.789 Y112.611 E21.24079
G1 X134.793 Y112.813 E21.25591
G1 X134.775 Y113.652 E21.31871
G1 X134.742 Y114.186 E21.35875
G1 X134.673 Y114.9 E21.41243
G1 X134.548 Y115.654 E21.46963
G1 X134.421 Y116.275 E21.51706
G1 X134.156 Y117.298 E21.59614
G1 X134.063 Y117.594 E21.61936
G1 X133.637 Y118.718 E21.70932
G1 X133.413 Y119.218 E21.75032
G1 X133.12 Y119.818 E21.80029
G1 X132.933 Y120.172 E21.83025
G1 X132.618 Y120.726 E21.87794
G1 X132.321 Y121.192 E21.91929
G1 X132.208 Y121.359 E21.93438
G1 X131.9 Y121.79 E21.97403
G1 X131.768 Y121.965 E21.99043
G1 X131.433 Y122.385 E22.03063
G1 X131.234 Y122.622 E22.05379
G1 X130.831 Y123.074 E22.09911
G1 X130.624 Y123.293 E22.12166
G1 X129.881 Y124.005 E22.19867
G1 X129.635 Y124.218 E22.22302
G1 X129.115 Y124.64 E22.27314
G1 X128.673 Y124.975 E22.31465
G1 X127.808 Y125.563 E22.39292
G1 X127.629 Y125.672 E22.4086
G1 X127.245 Y125.895 E22.44183
G1 X126.982 Y126.04 E22.46431
G1 X126.331 Y126.37 E22.51893
G1 X126.106 Y126.474 E22.53748
G1 X125.627 Y126.68 E22.5765
G1 X125.438 Y126.756 E22.59174
G1 X125.003 Y126.92 E22.62653
G1 X124.849 Y126.974 E22.63874
G1 X124.42 Y127.114 E22.67251
G1 X124.099 Y127.211 E22.69761
G1 X123.341 Y127.409 E22.75624
G1 X123.11 Y127.46 E22.77394
G1 X122.638 Y127.553 E22.80994
G1 X121.954 Y127.652 E22.86166
G1 X121.303 Y127.724 E22.91068
G1 X120.398 Y127.784 E22.97855
G1 X119.881 Y127.782 E23.01724
G1 X119.277 Y127.765 E23.06246
G1 X118.372 Y127.699 E23.13037
G1 X117.786 Y127.614 E23.17468
G1 X117.245 Y127.519 E23.21578
G1 X116.498 Y127.359 E23.27295
G1 X116.103 Y127.259 E23.30345
G1 X115.533 Y127.097 E23.34779
G1 X115.254 Y127.009 E23.36969
G1 X114.657 Y126.809 E23.4168
G1 X113.321 Y126.345 E23.52264
G1 X110.914 Y125.583 E23.71158
G1 X108.467 Y124.882 E23.90207
G1 X107.045 Y124.509 E24.01208
G1 X106.374 Y124.339 E24.06389
