;FLAVOR:Marlin
;TIME:226
;Filament used: 0.138759m
;Layer height: 0.2
;MINX:74.121
;MINY:74.121
;MINZ:0.3
;MAXX:145.879
;MAXY:145.879
;MAXZ:1.1
;Generated with Cura_SteamEngine 4.12.1
M140 S80
M105
M190 S80
M104 S220
M105
M109 S220
M82 ;absolute extrusion mode
; Ender 3 Custom Start G-code
G92 E0 ; Reset Extruder
G28 ; Home all axes
G1 Z2.0 F3000 ; Move Z Axis up little to prevent scratching of Heat Bed
G1 X0.1 Y20 Z0.3 F5000.0 ; Move to start position
G1 X0.1 Y200.0 Z0.3 F1500.0 E15 ; Draw the first line
G1 X0.4 Y200.0 Z0.3 F5000.0 ; Move to side a little
G1 X0.4 Y20 Z0.3 F1500.0 E30 ; Draw the second line
G92 E0 ; Reset Extruder
G1 Z2.0 F3000 ; Move Z Axis up little to prevent scratching of Heat Bed
G1 X5 Y20 Z0.3 F5000.0 ; Move over to prevent blob squish
G92 E0
G92 E0
G1 F1500 E-6.5
;LAYER_COUNT:5
;LAYER:0
M107
G0 F6000 X84.719 Y84.541 Z0.3
;TYPE:SKIRT
G1 F1500 E0
G1 F600 X85.621 Y83.688 E0.0929
G1 X85.796 Y83.526 E0.11075
G1 X86.291 Y83.078 E0.16071
G1 X86.823 Y82.61 E0.21374
G1 X87.336 Y82.186 E0.26354
G1 X88.294 Y81.443 E0.35427
G1 X88.485 Y81.298 E0.37222
G1 X89.191 Y80.776 E0.43792
G1 X89.606 Y80.478 E0.47616
G1 X90.163 Y80.104 E0.52637
G1 X91.216 Y79.442 E0.61945
G1 X91.414 Y79.32 E0.63685
G1 X92.143 Y78.885 E0.70038
G1 X92.612 Y78.614 E0.74092
G1 X93.198 Y78.299 E0.7907
G1 X94.292 Y77.753 E0.8822
G1 X94.495 Y77.654 E0.89911
G1 X95.207 Y77.318 E0.95802
G1 X95.765 Y77.064 E1.0039
G1 X96.39 Y76.803 E1.05459
G1 X97.536 Y76.365 E1.1464
G1 X97.756 Y76.284 E1.16395
G1 X98.532 Y76.007 E1.22561
G1 X99.053 Y75.829 E1.26681
G1 X99.704 Y75.63 E1.31775
G1 X100.864 Y75.313 E1.40774
G1 X101.083 Y75.255 E1.4247
G1 X101.953 Y75.038 E1.4918
G1 X102.451 Y74.921 E1.53008
G1 X103.122 Y74.785 E1.58132
G1 X104.325 Y74.581 E1.67263
G1 X104.555 Y74.545 E1.69005
G1 X105.377 Y74.424 E1.75223
G1 X105.912 Y74.352 E1.79263
G1 X106.609 Y74.281 E1.84506
G1 X107.859 Y74.194 E1.93883
G1 X108.08 Y74.181 E1.95539
G1 X108.892 Y74.142 E2.01623
G1 X109.446 Y74.123 E2.05771
G1 X110.122 Y74.121 E2.1083
G1 X111.35 Y74.155 E2.20024
G1 X111.587 Y74.164 E2.21798
G1 X112.395 Y74.205 E2.27853
G1 X112.955 Y74.24 E2.32052
G1 X113.647 Y74.306 E2.37254
G1 X114.829 Y74.456 E2.4617
G1 X115.062 Y74.488 E2.47931
G1 X115.921 Y74.616 E2.5443
G1 X116.414 Y74.695 E2.58166
G1 X117.126 Y74.834 E2.63595
G1 X118.325 Y75.109 E2.72801
G1 X118.535 Y75.159 E2.74416
G1 X119.27 Y75.343 E2.80087
G1 X119.869 Y75.502 E2.84724
G1 X120.517 Y75.696 E2.89786
G1 X121.699 Y76.091 E2.99113
G1 X121.919 Y76.167 E3.00855
G1 X122.723 Y76.456 E3.07248
G1 X123.212 Y76.639 E3.11156
G1 X123.852 Y76.902 E3.16334
G1 X124.976 Y77.406 E3.25552
G1 X125.175 Y77.498 E3.27193
G1 X125.933 Y77.857 E3.33469
G1 X126.415 Y78.093 E3.37485
G1 X127.036 Y78.423 E3.42748
G1 X128.074 Y79.017 E3.51698
G1 X128.261 Y79.126 E3.53318
G1 X129.001 Y79.57 E3.59776
G1 X129.452 Y79.848 E3.63741
G1 X130.046 Y80.242 E3.69075
G1 X131.024 Y80.937 E3.78054
G1 X131.199 Y81.064 E3.79672
G1 X131.91 Y81.592 E3.86299
G1 X132.325 Y81.909 E3.90207
G1 X132.861 Y82.346 E3.95383
G1 X133.782 Y83.147 E4.04517
G1 X133.94 Y83.287 E4.06097
G1 X134.567 Y83.856 E4.12433
G1 X134.986 Y84.248 E4.16727
G1 X135.458 Y84.718 E4.21712
G1 X136.298 Y85.606 E4.30859
G1 X136.458 Y85.779 E4.32623
G1 X137.022 Y86.403 E4.38917
G1 X137.382 Y86.812 E4.42995
G1 X137.817 Y87.339 E4.48109
G1 X138.556 Y88.293 E4.57139
G1 X138.693 Y88.474 E4.58838
G1 X139.224 Y89.191 E4.65515
G1 X139.522 Y89.606 E4.69338
G1 X139.897 Y90.165 E4.74376
G1 X140.558 Y91.217 E4.83674
G1 X140.676 Y91.408 E4.85354
G1 X141.115 Y92.143 E4.9176
G1 X141.386 Y92.612 E4.95814
G1 X141.699 Y93.194 E5.00759
G1 X142.236 Y94.269 E5.09752
G1 X142.337 Y94.476 E5.11476
G1 X142.682 Y95.207 E5.17525
G1 X142.936 Y95.765 E5.22113
G1 X143.197 Y96.39 E5.27182
G1 X143.633 Y97.531 E5.36322
G1 X143.715 Y97.752 E5.38086
G1 X143.99 Y98.524 E5.44219
G1 X144.169 Y99.047 E5.48356
G1 X144.37 Y99.704 E5.53498
G1 X144.687 Y100.864 E5.62497
G1 X144.745 Y101.083 E5.64192
G1 X144.962 Y101.953 E5.70902
G1 X145.079 Y102.451 E5.74731
G1 X145.214 Y103.12 E5.79838
G1 X145.415 Y104.304 E5.88825
G1 X145.452 Y104.533 E5.90561
G1 X145.575 Y105.372 E5.96907
G1 X145.647 Y105.905 E6.00932
G1 X145.719 Y106.608 E6.06221
G1 X145.805 Y107.845 E6.155
G1 X145.849 Y108.689 E6.21825
G1 X145.857 Y108.863 E6.23128
G1 X145.877 Y109.445 E6.27486
G1 X145.879 Y110.122 E6.32553
G1 X145.845 Y111.344 E6.41701
G1 X145.836 Y111.574 E6.43424
G1 X145.795 Y112.395 E6.49575
G1 X145.76 Y112.955 E6.53774
G1 X145.694 Y113.647 E6.58976
G1 X145.544 Y114.829 E6.67893
G1 X145.512 Y115.062 E6.69653
G1 X145.384 Y115.921 E6.76152
G1 X145.305 Y116.414 E6.79888
G1 X145.166 Y117.125 E6.8531
G1 X144.842 Y118.531 E6.96108
G1 X144.657 Y119.27 E7.01809
G1 X144.498 Y119.869 E7.06446
G1 X144.303 Y120.519 E7.11525
G1 X143.911 Y121.691 E7.20773
G1 X143.839 Y121.901 E7.22435
G1 X143.545 Y122.719 E7.28939
G1 X143.363 Y123.206 E7.3283
G1 X143.099 Y123.85 E7.38039
G1 X142.594 Y124.976 E7.47274
G1 X142.502 Y125.175 E7.48915
G1 X142.143 Y125.933 E7.55191
G1 X141.907 Y126.415 E7.59207
G1 X141.577 Y127.036 E7.6447
G1 X140.983 Y128.074 E7.7342
G1 X140.874 Y128.261 E7.7504
G1 X140.43 Y129.001 E7.81498
G1 X140.152 Y129.452 E7.85463
G1 X139.758 Y130.046 E7.90797
G1 X139.063 Y131.024 E7.99775
G1 X138.936 Y131.199 E8.01394
G1 X138.408 Y131.91 E8.08021
G1 X138.091 Y132.325 E8.11929
G1 X137.652 Y132.862 E8.1712
G1 X136.712 Y133.94 E8.27823
G1 X136.144 Y134.567 E8.34155
G1 X135.752 Y134.986 E8.38448
G1 X135.279 Y135.461 E8.43465
G1 X134.386 Y136.305 E8.5266
G1 X134.221 Y136.458 E8.54344
G1 X133.597 Y137.022 E8.60639
G1 X133.188 Y137.382 E8.64716
G1 X132.663 Y137.816 E8.69814
G1 X131.703 Y138.56 E8.78903
G1 X131.515 Y138.702 E8.80666
G1 X130.809 Y139.224 E8.87237
G1 X130.394 Y139.522 E8.9106
G1 X129.835 Y139.897 E8.96097
G1 X128.783 Y140.558 E9.05395
G1 X128.592 Y140.676 E9.07075
G1 X127.857 Y141.115 E9.13482
G1 X127.388 Y141.386 E9.17536
G1 X126.802 Y141.701 E9.22514
G1 X125.708 Y142.247 E9.31664
G1 X125.505 Y142.346 E9.33355
G1 X124.793 Y142.682 E9.39246
G1 X124.235 Y142.936 E9.43834
G1 X123.61 Y143.197 E9.48903
G1 X122.464 Y143.635 E9.58084
G1 X122.24 Y143.718 E9.59872
G1 X121.476 Y143.99 E9.65941
G1 X120.953 Y144.169 E9.70078
G1 X120.296 Y144.37 E9.75219
G1 X119.136 Y144.687 E9.84219
G1 X118.917 Y144.745 E9.85914
G1 X118.047 Y144.962 E9.92624
G1 X117.549 Y145.079 E9.96452
G1 X116.878 Y145.215 E10.01576
G1 X115.675 Y145.419 E10.10707
G1 X115.445 Y145.455 E10.12449
G1 X114.623 Y145.576 E10.18667
G1 X114.088 Y145.648 E10.22707
G1 X113.391 Y145.719 E10.2795
G1 X112.141 Y145.806 E10.37327
G1 X111.92 Y145.819 E10.38984
G1 X111.108 Y145.858 E10.45067
G1 X110.554 Y145.877 E10.49216
G1 X109.878 Y145.879 E10.54274
G1 X108.65 Y145.845 E10.63468
G1 X108.413 Y145.836 E10.65243
G1 X107.605 Y145.795 E10.71297
G1 X107.045 Y145.76 E10.75496
G1 X106.353 Y145.694 E10.80698
G1 X105.171 Y145.544 E10.89615
G1 X104.938 Y145.512 E10.91375
G1 X104.079 Y145.384 E10.97874
G1 X103.586 Y145.305 E11.0161
G1 X102.874 Y145.166 E11.07039
G1 X101.675 Y144.891 E11.16245
G1 X101.465 Y144.841 E11.1786
G1 X100.73 Y144.657 E11.23531
G1 X100.131 Y144.498 E11.28168
G1 X99.483 Y144.304 E11.3323
G1 X98.301 Y143.909 E11.42557
G1 X98.081 Y143.833 E11.44299
G1 X97.277 Y143.544 E11.50692
G1 X96.788 Y143.361 E11.546
G1 X96.148 Y143.098 E11.59778
G1 X95.024 Y142.594 E11.68996
G1 X94.823 Y142.501 E11.70654
G1 X94.037 Y142.128 E11.77164
G1 X93.578 Y141.903 E11.8099
G1 X92.966 Y141.579 E11.86172
G1 X91.927 Y140.985 E11.95128
G1 X90.999 Y140.43 E12.0322
G1 X90.548 Y140.152 E12.07185
G1 X89.954 Y139.758 E12.12519
G1 X88.976 Y139.063 E12.21498
G1 X88.801 Y138.936 E12.23116
G1 X88.087 Y138.406 E12.2977
G1 X87.671 Y138.088 E12.33689
G1 X87.137 Y137.652 E12.38848
G1 X86.215 Y136.85 E12.47993
G1 X85.571 Y136.27 E12.54479
G1 X85.433 Y136.144 E12.55877
G1 X85.014 Y135.752 E12.60171
G1 X84.539 Y135.279 E12.65188
G1 X83.695 Y134.386 E12.74383
G1 X83.542 Y134.221 E12.76067
G1 X82.978 Y133.597 E12.82361
G1 X82.618 Y133.188 E12.86439
G1 X82.184 Y132.663 E12.91536
G1 X81.44 Y131.703 E13.00625
G1 X81.298 Y131.515 E13.02389
G1 X80.779 Y130.813 E13.08922
G1 X80.48 Y130.397 E13.12756
G1 X80.101 Y129.832 E13.17847
G1 X79.321 Y128.587 E13.28842
G1 X78.884 Y127.855 E13.35221
G1 X78.612 Y127.384 E13.39292
G1 X78.298 Y126.8 E13.44254
G1 X77.752 Y125.706 E13.53404
G1 X77.653 Y125.502 E13.55101
G1 X77.319 Y124.794 E13.60959
G1 X77.064 Y124.234 E13.65564
G1 X76.802 Y123.607 E13.70649
G1 X76.365 Y122.463 E13.79814
G1 X76.282 Y122.24 E13.81594
G1 X76.01 Y121.476 E13.87663
G1 X75.831 Y120.953 E13.918
G1 X75.628 Y120.292 E13.96975
G1 X75.311 Y119.13 E14.05988
G1 X75.079 Y118.215 E14.13052
G1 X74.921 Y117.549 E14.18175
G1 X74.785 Y116.878 E14.23298
G1 X74.581 Y115.675 E14.3243
G1 X74.545 Y115.445 E14.34172
G1 X74.424 Y114.623 E14.40389
G1 X74.352 Y114.088 E14.44429
G1 X74.281 Y113.391 E14.49672
G1 X74.194 Y112.141 E14.59049
G1 X74.181 Y111.92 E14.60706
G1 X74.142 Y111.108 E14.6679
G1 X74.123 Y110.555 E14.70931
G1 X74.121 Y109.874 E14.76027
G1 X74.156 Y108.63 E14.8534
G1 X74.165 Y108.403 E14.8704
G1 X74.205 Y107.605 E14.93019
G1 X74.24 Y107.045 E14.97218
G1 X74.307 Y106.346 E15.02473
G1 X74.463 Y105.123 E15.117
G1 X74.494 Y104.896 E15.13414
G1 X74.616 Y104.083 E15.19567
G1 X74.695 Y103.589 E15.2331
G1 X74.834 Y102.871 E15.28783
G1 X75.11 Y101.669 E15.38013
G1 X75.16 Y101.461 E15.39614
G1 X75.343 Y100.73 E15.45253
G1 X75.502 Y100.131 E15.49891
G1 X75.698 Y99.478 E15.54993
G1 X76.097 Y98.286 E15.644
G1 X76.169 Y98.077 E15.66054
G1 X76.455 Y97.281 E15.72384
G1 X76.637 Y96.794 E15.76274
G1 X76.901 Y96.15 E15.81483
G1 X77.41 Y95.015 E15.90792
G1 X77.503 Y94.813 E15.92456
G1 X77.857 Y94.067 E15.98635
G1 X78.093 Y93.585 E16.02652
G1 X78.423 Y92.964 E16.07914
G1 X79.017 Y91.926 E16.16864
G1 X79.126 Y91.739 E16.18484
G1 X79.57 Y90.999 E16.24942
G1 X79.848 Y90.548 E16.28907
G1 X80.242 Y89.954 E16.34241
G1 X80.937 Y88.976 E16.4322
G1 X81.064 Y88.801 E16.44838
G1 X81.592 Y88.09 E16.51465
G1 X81.909 Y87.675 E16.55373
G1 X82.346 Y87.14 E16.60543
G1 X83.307 Y86.037 E16.71491
G1 X83.742 Y85.557 E16.76339
G1 X84.247 Y85.016 E16.81877
G1 X84.719 Y84.541 E16.86888
G0 F6000 X85.131 Y84.977
G1 F600 X86.033 Y84.124 E16.96179
G1 X86.198 Y83.971 E16.97863
G1 X86.808 Y83.421 E17.04009
G1 X87.219 Y83.06 E17.08103
G1 X87.704 Y82.66 E17.12807
G1 X88.662 Y81.917 E17.2188
G1 X88.842 Y81.78 E17.23573
G1 X89.541 Y81.264 E17.30075
G1 X89.956 Y80.966 E17.33898
G1 X90.482 Y80.612 E17.38643
G1 X91.535 Y79.95 E17.47951
G1 X91.722 Y79.835 E17.49594
G1 X92.301 Y79.488 E17.54646
G1 X92.912 Y79.134 E17.5993
G1 X93.465 Y78.836 E17.64631
G1 X94.559 Y78.29 E17.73781
G1 X94.752 Y78.196 E17.75387
G1 X95.316 Y77.929 E17.80057
G1 X96.014 Y77.611 E17.85797
G1 X96.604 Y77.364 E17.90584
G1 X97.75 Y76.926 E17.99765
G1 X97.958 Y76.849 E18.01425
G1 X98.726 Y76.575 E18.07527
G1 X99.247 Y76.397 E18.11647
G1 X99.862 Y76.208 E18.16462
G1 X101.022 Y75.891 E18.25461
G1 X101.229 Y75.837 E18.27062
G1 X102.09 Y75.622 E18.33703
G1 X102.588 Y75.505 E18.37532
G1 X103.222 Y75.377 E18.42372
G1 X104.425 Y75.173 E18.51503
G1 X104.642 Y75.138 E18.53148
G1 X105.457 Y75.019 E18.59312
G1 X105.992 Y74.947 E18.63352
G1 X106.651 Y74.88 E18.68309
G1 X108.11 Y74.78 E18.79253
G1 X108.913 Y74.742 E18.85269
G1 X109.467 Y74.723 E18.89417
G1 X110.105 Y74.721 E18.94192
G1 X111.333 Y74.755 E19.03385
G1 X111.557 Y74.764 E19.05063
G1 X112.357 Y74.804 E19.11057
G1 X112.917 Y74.839 E19.15256
G1 X113.572 Y74.901 E19.20179
G1 X114.754 Y75.051 E19.29096
G1 X114.973 Y75.081 E19.3075
G1 X115.826 Y75.209 E19.37205
G1 X116.319 Y75.288 E19.40941
G1 X116.992 Y75.419 E19.46072
G1 X118.389 Y75.741 E19.56801
G1 X119.276 Y75.964 E19.63645
G1 X119.715 Y76.081 E19.67045
G1 X120.327 Y76.265 E19.71828
G1 X121.509 Y76.66 E19.81154
G1 X121.717 Y76.732 E19.82801
G1 X122.513 Y77.018 E19.89131
G1 X123.002 Y77.201 E19.93038
G1 X123.606 Y77.45 E19.97928
G1 X124.918 Y78.04 E20.08693
G1 X125.669 Y78.396 E20.14913
G1 X126.151 Y78.632 E20.18929
G1 X126.738 Y78.943 E20.239
G1 X127.776 Y79.537 E20.3285
G1 X128.574 Y80.013 E20.39804
G1 X129.137 Y80.359 E20.44749
G1 X129.698 Y80.731 E20.49786
G1 X130.676 Y81.426 E20.58765
G1 X130.842 Y81.546 E20.60298
G1 X131.545 Y82.069 E20.66855
G1 X131.96 Y82.386 E20.70763
G1 X132.467 Y82.799 E20.75657
G1 X133.388 Y83.6 E20.84791
G1 X133.537 Y83.732 E20.86281
G1 X134.157 Y84.294 E20.92543
G1 X134.576 Y84.686 E20.96837
G1 X135.022 Y85.13 E21.01546
G1 X135.862 Y86.018 E21.10694
G1 X136.474 Y86.691 E21.17501
G1 X136.932 Y87.209 E21.22676
G1 X137.343 Y87.706 E21.27502
G1 X138.082 Y88.66 E21.36533
G1 X138.642 Y89.412 E21.43549
G1 X139.034 Y89.956 E21.48567
G1 X139.389 Y90.484 E21.53329
G1 X140.05 Y91.536 E21.62626
G1 X140.161 Y91.717 E21.64215
G1 X140.595 Y92.443 E21.70545
G1 X140.866 Y92.912 E21.74599
G1 X141.162 Y93.462 E21.79273
G1 X141.699 Y94.537 E21.88266
G1 X141.794 Y94.733 E21.89895
G1 X142.135 Y95.456 E21.95878
G1 X142.389 Y96.014 E22.00466
G1 X142.636 Y96.604 E22.05252
G1 X143.072 Y97.745 E22.14393
G1 X143.15 Y97.954 E22.16063
G1 X143.422 Y98.719 E22.22139
G1 X143.601 Y99.242 E22.26275
G1 X143.792 Y99.862 E22.3113
G1 X144.109 Y101.022 E22.4013
G1 X144.163 Y101.229 E22.41731
G1 X144.378 Y102.09 E22.48372
G1 X144.495 Y102.588 E22.522
G1 X144.623 Y103.22 E22.57026
G1 X144.824 Y104.404 E22.66013
G1 X144.858 Y104.621 E22.67657
G1 X144.98 Y105.452 E22.73942
G1 X145.052 Y105.985 E22.77967
G1 X145.12 Y106.65 E22.8297
G1 X145.218 Y108.083 E22.93718
G1 X145.257 Y108.883 E22.99712
G1 X145.277 Y109.465 E23.0407
G1 X145.279 Y110.105 E23.0886
G1 X145.245 Y111.327 E23.18008
G1 X145.237 Y111.545 E23.19641
G1 X145.196 Y112.357 E23.25725
G1 X145.161 Y112.917 E23.29924
G1 X145.099 Y113.572 E23.34848
G1 X144.949 Y114.754 E23.43764
G1 X144.919 Y114.973 E23.45418
G1 X144.791 Y115.826 E23.51873
G1 X144.712 Y116.319 E23.5561
G1 X144.581 Y116.991 E23.60733
G1 X144.26 Y118.385 E23.71438
G1 X144.036 Y119.276 E23.78314
G1 X143.919 Y119.715 E23.81714
G1 X143.734 Y120.329 E23.86513
G1 X143.342 Y121.501 E23.95761
G1 X143.274 Y121.699 E23.97328
G1 X142.983 Y122.509 E24.03769
G1 X142.801 Y122.996 E24.07659
G1 X142.551 Y123.605 E24.12586
G1 X142.046 Y124.731 E24.21821
G1 X141.96 Y124.918 E24.23361
G1 X141.604 Y125.669 E24.29581
G1 X141.368 Y126.151 E24.33597
G1 X141.057 Y126.738 E24.38568
G1 X140.463 Y127.776 E24.47518
G1 X139.987 Y128.574 E24.54472
G1 X139.641 Y129.137 E24.59417
G1 X139.269 Y129.698 E24.64454
G1 X138.574 Y130.676 E24.73433
G1 X138.454 Y130.842 E24.74966
G1 X137.931 Y131.545 E24.81523
G1 X137.614 Y131.96 E24.85431
G1 X137.2 Y132.469 E24.90341
G1 X136.397 Y133.392 E24.99497
G1 X135.825 Y134.027 E25.05892
G1 X135.706 Y134.157 E25.07211
G1 X135.314 Y134.576 E25.11505
G1 X134.867 Y135.025 E25.16246
G1 X133.974 Y135.869 E25.25442
G1 X133.818 Y136.013 E25.27031
G1 X133.2 Y136.572 E25.33267
G1 X132.791 Y136.932 E25.37344
G1 X132.295 Y137.341 E25.42155
G1 X131.335 Y138.085 E25.51244
G1 X131.158 Y138.22 E25.5291
G1 X130.459 Y138.736 E25.59412
G1 X130.044 Y139.034 E25.63235
G1 X129.516 Y139.389 E25.67997
G1 X128.464 Y140.05 E25.77295
G1 X128.283 Y140.161 E25.78884
G1 X127.557 Y140.595 E25.85213
G1 X127.088 Y140.866 E25.89267
G1 X126.535 Y141.164 E25.93968
G1 X125.441 Y141.71 E26.03118
G1 X125.248 Y141.804 E26.04724
G1 X124.684 Y142.071 E26.09394
G1 X123.986 Y142.389 E26.15134
G1 X123.396 Y142.636 E26.19921
G1 X122.25 Y143.074 E26.29102
G1 X122.038 Y143.153 E26.30795
G1 X121.281 Y143.422 E26.36807
G1 X120.758 Y143.601 E26.40944
G1 X120.138 Y143.792 E26.45799
G1 X118.978 Y144.109 E26.54798
G1 X118.771 Y144.163 E26.56399
G1 X117.91 Y144.378 E26.6304
G1 X117.412 Y144.495 E26.66869
G1 X116.778 Y144.623 E26.71709
G1 X115.575 Y144.827 E26.8084
G1 X115.358 Y144.862 E26.82485
G1 X114.543 Y144.981 E26.88649
G1 X114.008 Y145.053 E26.92688
G1 X113.349 Y145.12 E26.97646
G1 X111.89 Y145.22 E27.0859
G1 X111.087 Y145.258 E27.14606
G1 X110.533 Y145.277 E27.18754
G1 X109.895 Y145.279 E27.23528
G1 X108.667 Y145.245 E27.32722
G1 X108.443 Y145.236 E27.34399
G1 X107.643 Y145.196 E27.40394
G1 X107.083 Y145.161 E27.44593
G1 X106.428 Y145.099 E27.49516
