;FLAVOR:Marlin
;TIME:1940
;Filament used: 0.89717m
;Layer height: 0.2
;MINX:88.079
;MINY:89.014
;MINZ:0.3
;MAXX:132.069
;MAXY:132.013
;MAXZ:17.1
;Generated with Cura_SteamEngine 4.12.1
M140 S80
M105
M190 S80
M104 S220
M105
M109 S220
M82 ;absolute extrusion mode
; Ender 3 Custom Start G-code
G92 E0 ; Reset Extruder
G28 ; Home all axes
G1 Z2.0 F3000 ; Move Z Axis up little to prevent scratching of Heat Bed
G1 X0.1 Y20 Z0.3 F5000.0 ; Move to start position
G1 X0.1 Y200.0 Z0.3 F1500.0 E15 ; Draw the first line
G1 X0.4 Y200.0 Z0.3 F5000.0 ; Move to side a little
G1 X0.4 Y20 Z0.3 F1500.0 E30 ; Draw the second line
G92 E0 ; Reset Extruder
G1 Z2.0 F3000 ; Move Z Axis up little to prevent scratching of Heat Bed
G1 X5 Y20 Z0.3 F5000.0 ; Move over to prevent blob squish
G92 E0
G92 E0
G1 F1500 E-6.5
;LAYER_COUNT:85
;LAYER:0
M107
G0 F6000 X97.605 Y93.072 Z0.3
;TYPE:SKIRT
G1 F1500 E0
G1 F600 X98.273 Y92.42 E0.06985
G1 X99.002 Y91.823 E0.14037
G1 X99.322 Y91.583 E0.1703
G1 X99.571 Y91.402 E0.19334
G1 X99.779 Y91.255 E0.2124
G1 X100.564 Y90.749 E0.28229
G1 X101.389 Y90.312 E0.35216
G1 X102.249 Y89.948 E0.42204
G1 X103.136 Y89.658 E0.49188
G1 X104.045 Y89.446 E0.56173
G1 X104.969 Y89.312 E0.6316
G1 X105.531 Y89.269 E0.67378
G1 X106.218 Y89.235 E0.72526
G1 X107.059 Y89.207 E0.78823
G1 X109.694 Y89.045 E0.98579
G1 X110.161 Y89.026 E1.02077
G1 X110.808 Y89.014 E1.0692
G1 X111.248 Y89.015 E1.10212
G1 X111.431 Y89.019 E1.11582
G1 X112.363 Y89.079 E1.18571
G1 X113.179 Y89.198 E1.24742
G1 X114.381 Y89.421 E1.33891
G1 X116.89 Y89.851 E1.52941
G1 X118.103 Y90.043 E1.62132
G1 X119.018 Y90.229 E1.69119
G1 X119.914 Y90.492 E1.76107
G1 X120.784 Y90.83 E1.83092
G1 X121.622 Y91.242 E1.9008
G1 X122.65 Y91.88 E1.99134
G1 X123.057 Y92.165 E2.02853
G1 X123.854 Y92.78 E2.10386
G1 X123.992 Y92.897 E2.1174
G1 X124.677 Y93.531 E2.18725
G1 X125.306 Y94.221 E2.25712
G1 X125.874 Y94.962 E2.32699
G1 X126.493 Y95.957 E2.41469
G1 X126.623 Y96.193 E2.43485
G1 X127.901 Y98.439 E2.62824
G1 X128.114 Y98.793 E2.65915
G1 X128.718 Y99.822 E2.74844
G1 X129.156 Y100.647 E2.81835
G1 X129.625 Y101.794 E2.91108
G1 X129.764 Y102.198 E2.94305
G1 X129.869 Y102.52 E2.9684
G1 X130.012 Y102.983 E3.00466
G1 X130.719 Y105.379 E3.19161
G1 X131.373 Y107.373 E3.34865
G1 X131.583 Y108.046 E3.40141
G1 X131.823 Y108.949 E3.47134
G1 X131.984 Y109.868 E3.54116
G1 X132.067 Y110.798 E3.61103
G1 X132.069 Y111.732 E3.68093
G1 X131.992 Y112.662 E3.75076
G1 X131.835 Y113.582 E3.8206
G1 X131.597 Y114.495 E3.89121
G1 X131.455 Y114.957 E3.92738
G1 X131.349 Y115.283 E3.95304
G1 X131.297 Y115.435 E3.96506
G1 X131.196 Y115.717 E3.98747
G1 X130.697 Y117.052 E4.09413
G1 X130.616 Y117.261 E4.11091
G1 X129.761 Y119.656 E4.30121
G1 X129.636 Y120.021 E4.33009
G1 X129.296 Y120.89 E4.39992
G1 X128.883 Y121.728 E4.46983
G1 X128.4 Y122.526 E4.53964
G1 X127.85 Y123.281 E4.60954
G1 X127.238 Y123.986 E4.67941
G1 X126.567 Y124.635 E4.74927
G1 X126.005 Y125.103 E4.804
G1 X123.925 Y126.717 E5.00102
G1 X121.857 Y128.419 E5.20145
G1 X121.484 Y128.713 E5.23699
G1 X121.104 Y128.999 E5.27259
G1 X120.84 Y129.191 E5.29702
G1 X120.632 Y129.338 E5.31608
G1 X119.847 Y129.844 E5.38597
G1 X119.022 Y130.281 E5.45583
G1 X118.162 Y130.645 E5.52572
G1 X117.275 Y130.935 E5.59556
G1 X116.366 Y131.147 E5.66541
G1 X115.55 Y131.27 E5.72716
G1 X115.341 Y131.293 E5.7429
G1 X112.756 Y131.606 E5.93776
G1 X111.112 Y131.852 E6.06216
G1 X110.576 Y131.924 E6.10263
G1 X109.646 Y132.009 E6.17252
G1 X108.712 Y132.013 E6.24241
G1 X108.264 Y131.996 E6.27596
G1 X107.95 Y131.98 E6.29949
G1 X107.636 Y131.959 E6.32304
G1 X106.708 Y131.857 E6.39291
G1 X105.792 Y131.675 E6.4628
G1 X104.895 Y131.417 E6.53265
G1 X104.319 Y131.205 E6.57858
G1 X103.138 Y130.733 E6.67376
G1 X100.886 Y129.869 E6.85426
G1 X99.949 Y129.524 E6.92899
G1 X99.088 Y129.164 E6.99883
G1 X98.26 Y128.731 E7.06875
G1 X97.458 Y128.219 E7.13996
G1 X97.042 Y127.927 E7.17799
G1 X96.688 Y127.667 E7.21086
G1 X96.561 Y127.57 E7.22282
G1 X95.844 Y126.972 E7.29269
G1 X95.181 Y126.315 E7.36254
G1 X94.656 Y125.705 E7.42277
G1 X94.574 Y125.602 E7.43262
G1 X92.908 Y123.574 E7.62903
G1 X91.512 Y121.965 E7.78844
G1 X91.318 Y121.735 E7.81096
G1 X90.747 Y120.996 E7.88085
G1 X90.242 Y120.211 E7.9507
G1 X89.805 Y119.386 E8.02057
G1 X89.362 Y118.308 E8.10779
G1 X89.233 Y117.924 E8.1381
G1 X89.147 Y117.653 E8.15938
G1 X89.051 Y117.334 E8.18431
G1 X88.93 Y116.908 E8.21745
G1 X88.713 Y116 E8.28731
G1 X88.55 Y114.808 E8.37735
G1 X88.482 Y113.95 E8.44176
G1 X88.384 Y112.48 E8.55201
G1 X88.201 Y110.495 E8.70119
G1 X88.135 Y109.852 E8.74956
G1 X88.079 Y108.92 E8.81943
G1 X88.104 Y107.987 E8.88928
G1 X88.209 Y107.059 E8.95917
G1 X88.392 Y106.144 E9.029
G1 X88.556 Y105.551 E9.07504
G1 X88.699 Y105.084 E9.11159
G1 X88.981 Y104.275 E9.17571
G1 X89.052 Y104.095 E9.19019
G1 X89.432 Y103.242 E9.26007
G1 X89.883 Y102.425 E9.32991
G1 X90.402 Y101.649 E9.39977
G1 X91.044 Y100.855 E9.47618
G1 X91.441 Y100.409 E9.52087
G1 X92.562 Y99.179 E9.64541
G1 X94.231 Y97.242 E9.83675
G1 X95.82 Y95.288 E10.02523
G1 X96.46 Y94.455 E10.10384
G1 X96.995 Y93.779 E10.16835
G1 X97.605 Y93.072 E10.23823
G0 F6000 X98.059 Y93.465
G1 F600 X98.711 Y92.834 E10.30613
G1 X99.362 Y92.303 E10.369
G1 X99.682 Y92.063 E10.39894
G1 X99.917 Y91.892 E10.42069
G1 X100.125 Y91.745 E10.43975
G1 X100.889 Y91.254 E10.50771
G1 X101.693 Y90.832 E10.57566
G1 X102.53 Y90.483 E10.64353
G1 X103.395 Y90.209 E10.71143
G1 X104.281 Y90.012 E10.77935
G1 X105.561 Y89.869 E10.87574
G1 X106.426 Y89.827 E10.94055
G1 X107.08 Y89.806 E10.98951
G1 X109.731 Y89.643 E11.18828
G1 X110.172 Y89.626 E11.2213
G1 X110.819 Y89.614 E11.26973
G1 X111.235 Y89.614 E11.30086
G1 X111.418 Y89.618 E11.31456
G1 X112.324 Y89.678 E11.38251
G1 X113.07 Y89.788 E11.43894
G1 X114.258 Y90.008 E11.52936
G1 X116.845 Y90.452 E11.72578
G1 X118.009 Y90.636 E11.81397
G1 X118.899 Y90.817 E11.88194
G1 X119.768 Y91.076 E11.9498
G1 X120.612 Y91.411 E12.01775
G1 X121.423 Y91.818 E12.08566
G1 X122.306 Y92.372 E12.16367
G1 X122.713 Y92.657 E12.20085
G1 X123.466 Y93.238 E12.27203
G1 X123.604 Y93.355 E12.28557
G1 X124.27 Y93.971 E12.35346
G1 X124.878 Y94.644 E12.42133
G1 X125.426 Y95.368 E12.48928
G1 X125.967 Y96.246 E12.56646
G1 X126.084 Y96.458 E12.58458
G1 X127.396 Y98.764 E12.78313
G1 X127.597 Y99.097 E12.81223
G1 X128.201 Y100.126 E12.90152
G1 X128.625 Y100.928 E12.96941
G1 X129.058 Y101.989 E13.05517
G1 X129.197 Y102.393 E13.08714
G1 X129.296 Y102.698 E13.11114
G1 X129.436 Y103.153 E13.14677
G1 X130.139 Y105.536 E13.3327
G1 X130.8 Y107.552 E13.49147
G1 X131.01 Y108.225 E13.54423
G1 X131.242 Y109.102 E13.61212
G1 X131.396 Y109.997 E13.68008
G1 X131.471 Y110.901 E13.74796
G1 X131.465 Y111.809 E13.81591
G1 X131.38 Y112.712 E13.88379
G1 X131.215 Y113.605 E13.95175
G1 X131.023 Y114.319 E14.00708
G1 X130.881 Y114.781 E14.04325
G1 X130.781 Y115.089 E14.06748
G1 X130.634 Y115.508 E14.10071
G1 X130.138 Y116.834 E14.20666
G1 X130.057 Y117.041 E14.22329
G1 X129.206 Y119.428 E14.41294
G1 X129.069 Y119.827 E14.44451
G1 X128.737 Y120.671 E14.51238
G1 X128.332 Y121.484 E14.58035
G1 X127.858 Y122.257 E14.64821
G1 X127.317 Y122.986 E14.71615
G1 X126.714 Y123.664 E14.78405
G1 X126.054 Y124.287 E14.85197
G1 X125.637 Y124.629 E14.89233
G1 X123.563 Y126.238 E15.08877
G1 X121.476 Y127.956 E15.29106
G1 X121.123 Y128.234 E15.32468
G1 X120.743 Y128.52 E15.36027
G1 X120.494 Y128.701 E15.38331
G1 X120.286 Y128.848 E15.40237
G1 X119.522 Y129.339 E15.47034
G1 X118.718 Y129.761 E15.53829
G1 X117.881 Y130.11 E15.60615
G1 X117.016 Y130.384 E15.67405
G1 X116.13 Y130.581 E15.74198
G1 X115.483 Y130.673 E15.79088
G1 X112.699 Y131.008 E16.00073
G1 X111.19 Y131.235 E16.11492
G1 X110.496 Y131.329 E16.16733
G1 X109.592 Y131.41 E16.23526
G1 X108.734 Y131.414 E16.29947
G1 X108.286 Y131.397 E16.33302
G1 X107.99 Y131.381 E16.3552
G1 X107.676 Y131.36 E16.37875
G1 X106.774 Y131.26 E16.44667
G1 X105.884 Y131.08 E16.51462
G1 X105.014 Y130.823 E16.58251
G1 X104.542 Y130.648 E16.62018
G1 X103.365 Y130.178 E16.71502
G1 X101.097 Y129.308 E16.89681
G1 X100.156 Y128.961 E16.97186
G1 X99.32 Y128.61 E17.03972
G1 X98.517 Y128.186 E17.10767
G1 X97.802 Y127.727 E17.17125
G1 X97.386 Y127.435 E17.20929
G1 X97.052 Y127.191 E17.24024
G1 X96.925 Y127.094 E17.2522
G1 X96.229 Y126.511 E17.32015
G1 X95.586 Y125.87 E17.38809
G1 X95.125 Y125.331 E17.44117
G1 X95.018 Y125.197 E17.454
G1 X93.382 Y123.205 E17.64691
G1 X91.971 Y121.578 E17.80807
G1 X91.777 Y121.348 E17.83059
G1 X91.223 Y120.629 E17.89852
G1 X90.734 Y119.864 E17.96646
G1 X90.315 Y119.06 E18.03431
G1 X89.928 Y118.11 E18.11107
G1 X89.804 Y117.743 E18.14006
G1 X89.718 Y117.472 E18.16134
G1 X89.628 Y117.17 E18.18492
G1 X89.507 Y116.744 E18.21807
G1 X89.298 Y115.861 E18.28597
G1 X89.149 Y114.76 E18.36912
G1 X89.081 Y113.91 E18.43293
G1 X88.985 Y112.464 E18.54138
G1 X88.798 Y110.44 E18.69349
G1 X88.732 Y109.791 E18.74231
G1 X88.679 Y108.885 E18.81023
G1 X88.706 Y107.978 E18.87813
G1 X88.813 Y107.077 E18.94603
G1 X89 Y106.189 E19.01394
G1 X89.129 Y105.726 E19.04991
G1 X89.272 Y105.259 E19.08646
G1 X89.539 Y104.496 E19.14696
G1 X89.61 Y104.316 E19.16144
G1 X89.98 Y103.487 E19.22937
G1 X90.422 Y102.694 E19.29731
G1 X90.931 Y101.943 E19.36521
G1 X91.492 Y101.253 E19.43176
G1 X91.885 Y100.813 E19.47591
G1 X93.018 Y99.57 E19.60177
G1 X94.693 Y97.625 E19.79386
G1 X96.273 Y95.683 E19.98121
G1 X96.93 Y94.827 E20.06197
G1 X97.465 Y94.151 E20.12648
G1 X98.059 Y93.465 E20.19439
G0 F6000 X111.487 Y101.785
G1 F600 X111.615 Y101.856 E20.20534
G1 X111.908 Y102.226 E20.24066
G1 X111.774 Y102.399 E20.25704
G1 X111.63 Y102.714 E20.28296
G1 X111.584 Y102.94 E20.30022
G1 X111.176 Y102.719 E20.33494
G1 X111.025 Y102.658 E20.34713
G1 X111.175 Y102.476 E20.36478
G1 X111.362 Y102.185 E20.39067
G1 X111.479 Y101.86 E20.41651
G1 X111.487 Y101.785 E20.42216
G0 F6000 X110.913 Y101.605
G1 F600 X110.873 Y101.243 E20.44941
G1 X110.763 Y100.905 E20.47601
G1 X110.837 Y100.805 E20.48532
G1 X110.96 Y100.805 E20.49453
G1 X112.01 Y101.389 E20.58444
G1 X112.699 Y102.257 E20.66738
G1 X112.414 Y102.547 E20.6978
G1 X112.257 Y102.764 E20.71785
G1 X112.171 Y103.017 E20.73785
G1 X112.162 Y103.284 E20.75784
G1 X112.233 Y103.542 E20.77786
G1 X112.377 Y103.768 E20.79792
G1 X112.58 Y103.942 E20.81793
G1 X112.826 Y104.048 E20.83797
G1 X113.161 Y104.072 E20.86311
G1 X114.368 Y103.93 E20.95405
G1 X114.626 Y103.859 E20.97408
G1 X114.852 Y103.716 E20.99409
G1 X115.065 Y103.445 E21.01989
G1 X115.753 Y102.097 E21.13315
G1 X116.132 Y101.709 E21.17374
G1 X116.159 Y101.729 E21.17625
G1 X115.514 Y102.949 E21.27952
G1 X115.447 Y103.116 E21.29299
G1 X114.99 Y104.668 E21.41406
G1 X114.953 Y104.933 E21.43409
G1 X114.996 Y105.197 E21.45411
G1 X115.08 Y105.383 E21.46938
G1 X115.854 Y106.682 E21.58254
G1 X116.023 Y106.889 E21.60254
G1 X116.246 Y107.037 E21.62256
G1 X116.503 Y107.112 E21.6426
G1 X116.771 Y107.109 E21.66266
G1 X117.025 Y107.028 E21.68261
G1 X117.306 Y106.812 E21.70913
G1 X118.074 Y105.931 E21.7966
G1 X118.551 Y105.89 E21.83242
G1 X118.584 Y105.948 E21.83742
G1 X118.488 Y106.209 E21.85823
G1 X117.418 Y107.123 E21.96354
G1 X117.243 Y107.325 E21.98354
G1 X117.135 Y107.57 E22.00358
G1 X117.103 Y107.835 E22.02355
G1 X117.12 Y107.982 E22.03463
G1 X117.394 Y109.368 E22.14036
G1 X117.484 Y109.619 E22.16031
G1 X117.722 Y109.902 E22.18798
G1 X119.07 Y110.957 E22.31608
G1 X119.35 Y111.105 E22.33978
G1 X120.166 Y111.367 E22.40392
G1 X119.97 Y111.485 E22.42104
G1 X118.992 Y111.541 E22.49435
G1 X118.245 Y110.752 E22.57566
G1 X118.034 Y110.587 E22.5957
G1 X117.784 Y110.492 E22.61572
G1 X117.517 Y110.474 E22.63574
G1 X117.257 Y110.536 E22.65575
G1 X117.026 Y110.671 E22.67577
G1 X116.845 Y110.868 E22.69579
G1 X116.743 Y111.073 E22.71293
G1 X116.193 Y112.642 E22.83735
G1 X115.921 Y113.479 E22.90321
G1 X115.877 Y113.743 E22.92324
G1 X115.913 Y114.008 E22.94325
G1 X116.025 Y114.251 E22.96328
G1 X116.203 Y114.45 E22.98326
G1 X116.434 Y114.589 E23.00343
G1 X118.049 Y115.255 E23.13416
G1 X118.541 Y115.749 E23.18634
G1 X118.585 Y115.883 E23.19689
G1 X118.504 Y115.983 E23.20652
G1 X117.588 Y115.15 E23.29918
G1 X117.365 Y115.002 E23.31921
G1 X117.059 Y114.919 E23.34294
G1 X116.369 Y114.86 E23.39476
G1 X116.102 Y114.877 E23.41478
G1 X115.881 Y114.957 E23.43237
G1 X114.706 Y115.561 E23.53124
G1 X114.294 Y115.526 E23.56218
G1 X114.19 Y115.412 E23.57373
G1 X115.278 Y114.856 E23.66517
G1 X115.495 Y114.7 E23.68517
G1 X115.657 Y114.487 E23.70519
G1 X115.765 Y114.131 E23.73303
G1 X115.926 Y112.231 E23.87573
G1 X116.577 Y110.667 E24.00251
G1 X117.062 Y110.138 E24.05622
G1 X117.212 Y109.916 E24.07627
G1 X117.289 Y109.66 E24.09627
G1 X117.276 Y109.326 E24.12129
G1 X117.126 Y108.678 E24.17106
G1 X117.027 Y108.429 E24.19111
G1 X116.86 Y108.22 E24.21113
G1 X116.61 Y108.057 E24.23347
G1 X116.072 Y107.821 E24.27743
G1 X115.642 Y106.758 E24.36324
G1 X115.556 Y106.594 E24.3771
G1 X114.953 Y105.694 E24.45817
G1 X114.464 Y104.862 E24.53039
G1 X114.296 Y104.654 E24.5504
G1 X114.074 Y104.505 E24.57041
G1 X113.924 Y104.449 E24.58239
G1 X112.287 Y104.005 E24.70933
G1 X110.889 Y103.246 E24.82837
G1 X110.638 Y103.155 E24.84835
G1 X110.371 Y103.141 E24.86836
G1 X110.111 Y103.207 E24.88843
G1 X109.927 Y103.312 E24.90429
G1 X109.602 Y103.551 E24.93448
G1 X107.978 Y103.699 E25.05651
G1 X107.499 Y103.694 E25.09236
G1 X107.234 Y103.731 E25.11238
G1 X106.977 Y103.854 E25.13371
G1 X105.687 Y104.748 E25.25116
G1 X104.919 Y104.939 E25.31038
G1 X104.672 Y105.041 E25.33038
G1 X104.466 Y105.211 E25.35037
G1 X104.319 Y105.435 E25.37042
G1 X104.236 Y105.8 E25.39843
G1 X104.217 Y107.135 E25.49835
G1 X103.874 Y108.465 E25.60114
G1 X102.959 Y109.714 E25.717
G1 X102.835 Y109.951 E25.73702
G1 X102.786 Y110.214 E25.75704
G1 X102.816 Y110.48 E25.77707
G1 X102.868 Y110.623 E25.78846
G1 X103.449 Y111.882 E25.89223
G1 X103.638 Y113.229 E25.99402
G1 X103.714 Y113.486 E26.01407
G1 X103.886 Y113.734 E26.03666
G1 X104.373 Y114.231 E26.08873
G1 X104.587 Y114.392 E26.10877
G1 X104.762 Y114.464 E26.12293
G1 X106.2 Y114.887 E26.23511
G1 X107.348 Y115.671 E26.33914
G1 X108.636 Y116.706 E26.46279
G1 X108.796 Y116.892 E26.48115
G1 X108.998 Y117.067 E26.50115
G1 X109.243 Y117.175 E26.52119
G1 X109.509 Y117.206 E26.54123
G1 X109.668 Y117.186 E26.55322
G1 X111.14 Y116.869 E26.66591
G1 X111.865 Y116.675 E26.72207
G1 X113.092 Y117.342 E26.82658
G1 X113.928 Y118.762 E26.9499
G1 X114.129 Y119.435 E27.00246
G1 X114.075 Y119.53 E27.01064
G1 X113.88 Y119.519 E27.02525
G1 X113.829 Y119.482 E27.02997
G1 X113.534 Y118.334 E27.11867
G1 X113.429 Y118.087 E27.13876
G1 X113.158 Y117.807 E27.16792
G1 X112.154 Y117.143 E27.258
G1 X111.912 Y117.031 E27.27795
G1 X111.647 Y116.994 E27.29798
G1 X111.476 Y117.013 E27.31085
G1 X109.966 Y117.324 E27.42623
G1 X109.715 Y117.416 E27.44623
G1 X109.502 Y117.578 E27.46626
G1 X109.405 Y117.697 E27.47775
G1 X108.847 Y118.512 E27.55166
G1 X108.731 Y118.752 E27.57161
G1 X108.69 Y119.043 E27.5936
G1 X108.72 Y120.211 E27.68104
G1 X108.647 Y120.186 E27.68681
G1 X108.413 Y119.049 E27.77369
G1 X108.73 Y117.708 E27.87681
G1 X108.752 Y117.442 E27.89678
G1 X108.695 Y117.18 E27.91685
G1 X108.563 Y116.947 E27.93689
G1 X108.382 Y116.772 E27.95573
G1 X106.892 Y115.693 E28.0934
G1 X106.252 Y115.285 E28.1502
G1 X106.008 Y115.177 E28.17017
G1 X105.742 Y115.145 E28.19022
G1 X105.479 Y115.193 E28.21022
G1 X105.241 Y115.317 E28.23031
G1 X105.05 Y115.504 E28.25031
G1 X104.923 Y115.74 E28.27037
G1 X104.871 Y116.002 E28.29035
G1 X104.907 Y116.299 E28.31274
G1 X105.115 Y117.006 E28.36789
G1 X104.674 Y117.75 E28.43262
G1 X103.989 Y118.398 E28.50318
G1 X103.918 Y118.307 E28.51182
G1 X104.069 Y117.872 E28.54628
G1 X104.507 Y117.491 E28.58972
G1 X104.68 Y117.287 E28.60974
G1 X104.786 Y117.041 E28.62979
G1 X104.815 Y116.775 E28.64981
G1 X104.797 Y116.627 E28.66097
G1 X104.46 Y115.021 E28.78377
G1 X104.367 Y114.77 E28.8038
G1 X104.204 Y114.558 E28.82381
G1 X103.986 Y114.403 E28.84383
G1 X103.732 Y114.319 E28.86385
G1 X103.569 Y114.306 E28.87609
G1 X103.208 Y114.31 E28.90311
G1 X103.088 Y114.222 E28.91424
G1 X102.793 Y113.673 E28.96088
G1 X102.632 Y113.459 E28.98092
G1 X102.416 Y113.301 E29.00095
G1 X102.163 Y113.214 E29.02097
