;FLAVOR:Marlin
;TIME:4185
;Filament used: 2.11006m
;Layer height: 0.2
;MINX:79.615
;MINY:79.622
;MINZ:0.3
;MAXX:140.378
;MAXY:140.386
;MAXZ:16.1
;Generated with Cura_SteamEngine 4.12.1
M140 S80
M105
M190 S80
M104 S220
M105
M109 S220
M82 ;absolute extrusion mode
; Ender 3 Custom Start G-code
G92 E0 ; Reset Extruder
G28 ; Home all axes
G1 Z2.0 F3000 ; Move Z Axis up little to prevent scratching of Heat Bed
G1 X0.1 Y20 Z0.3 F5000.0 ; Move to start position
G1 X0.1 Y200.0 Z0.3 F1500.0 E15 ; Draw the first line
G1 X0.4 Y200.0 Z0.3 F5000.0 ; Move to side a little
G1 X0.4 Y20 Z0.3 F1500.0 E30 ; Draw the second line
G92 E0 ; Reset Extruder
G1 Z2.0 F3000 ; Move Z Axis up little to prevent scratching of Heat Bed
G1 X5 Y20 Z0.3 F5000.0 ; Move over to prevent blob squish
G92 E0
G92 E0
G1 F1500 E-6.5
;LAYER_COUNT:80
;LAYER:0
M107
G0 F6000 X88.46 Y88.569 Z0.3
;TYPE:SKIRT
G1 F1500 E0
G1 F600 X89.144 Y87.933 E0.0699
G1 X89.708 Y87.482 E0.12394
G1 X90.162 Y87.144 E0.1663
G1 X92.229 Y85.554 E0.36145
G1 X92.915 Y84.999 E0.42748
G1 X93.38 Y84.635 E0.47168
G1 X94.139 Y84.092 E0.54152
G1 X94.64 Y83.783 E0.58557
G1 X94.799 Y83.691 E0.59931
G1 X96.003 Y83.091 E0.69998
G1 X96.453 Y82.902 E0.73651
G1 X98.402 Y82.114 E0.89383
G1 X99.716 Y81.547 E1.00093
G1 X100.299 Y81.289 E1.04864
G1 X101.286 Y80.909 E1.12779
G1 X101.51 Y80.835 E1.14544
G1 X102.408 Y80.581 E1.21528
G1 X103.461 Y80.384 E1.29545
G1 X103.851 Y80.331 E1.3249
G1 X104.1 Y80.3 E1.34368
G1 X104.945 Y80.205 E1.40732
G1 X107.151 Y79.881 E1.57417
G1 X108.29 Y79.724 E1.66022
G1 X109.527 Y79.625 E1.75308
G1 X109.657 Y79.622 E1.76282
G1 X110.747 Y79.651 E1.84441
G1 X110.993 Y79.67 E1.86288
G1 X111.677 Y79.745 E1.91437
G1 X112.632 Y79.88 E1.98655
G1 X115.89 Y80.274 E2.23214
G1 X116.325 Y80.332 E2.26498
G1 X117.244 Y80.495 E2.33483
G1 X117.783 Y80.628 E2.37638
G1 X117.957 Y80.676 E2.38988
G1 X119.265 Y81.129 E2.49347
G1 X120.562 Y81.672 E2.5987
G1 X120.795 Y81.773 E2.6177
G1 X122.335 Y82.391 E2.74188
G1 X122.468 Y82.451 E2.7528
G1 X123.591 Y82.897 E2.84323
G1 X124.443 Y83.279 E2.9131
G1 X125.245 Y83.723 E2.9817
G1 X125.463 Y83.856 E3.00081
G1 X126.485 Y84.563 E3.09381
G1 X127.288 Y85.189 E3.17001
G1 X129.459 Y86.834 E3.37385
G1 X129.748 Y87.043 E3.40054
G1 X129.953 Y87.195 E3.41963
G1 X130.231 Y87.406 E3.44575
G1 X130.95 Y88.001 E3.51559
G1 X131.526 Y88.562 E3.57576
G1 X131.694 Y88.738 E3.59397
G1 X132.543 Y89.742 E3.69237
G1 X132.806 Y90.094 E3.72525
G1 X134.479 Y92.265 E3.93036
G1 X135.301 Y93.299 E4.02922
G1 X136.047 Y94.363 E4.12646
G1 X136.153 Y94.535 E4.14158
G1 X136.609 Y95.35 E4.21147
G1 X136.939 Y96.07 E4.27074
G1 X137.089 Y96.431 E4.3
G1 X137.906 Y98.45 E4.46299
G1 X138.524 Y99.881 E4.57964
G1 X138.749 Y100.39 E4.62129
G1 X139.089 Y101.26 E4.69119
G1 X139.357 Y102.171 E4.76225
G1 X139.404 Y102.361 E4.7769
G1 X139.636 Y103.6 E4.87123
G1 X139.803 Y104.919 E4.97073
G1 X139.841 Y105.251 E4.99573
G1 X140.09 Y106.939 E5.12342
G1 X140.276 Y108.287 E5.22526
G1 X140.375 Y109.527 E5.31835
G1 X140.378 Y109.658 E5.32815
G1 X140.349 Y110.747 E5.40968
G1 X140.33 Y110.993 E5.42814
G1 X140.255 Y111.677 E5.47964
G1 X140.12 Y112.632 E5.55182
G1 X139.729 Y115.868 E5.79574
G1 X139.674 Y116.287 E5.82737
G1 X139.413 Y117.624 E5.92931
G1 X139.367 Y117.8 E5.94293
G1 X139.092 Y118.693 E6.01285
G1 X138.878 Y119.247 E6.05729
G1 X138.35 Y120.508 E6.1596
G1 X138.235 Y120.772 E6.18115
G1 X137.078 Y123.653 E6.41349
G1 X136.692 Y124.503 E6.48335
G1 X136.312 Y125.193 E6.5423
G1 X136.204 Y125.373 E6.55801
G1 X135.477 Y126.436 E6.65438
G1 X134.536 Y127.65 E6.76933
G1 X134.465 Y127.739 E6.77785
G1 X133.478 Y129.056 E6.90101
G1 X133.414 Y129.135 E6.90862
G1 X132.643 Y130.167 E7.00502
G1 X132.053 Y130.891 E7.07492
G1 X131.422 Y131.544 E7.14287
G1 X131.257 Y131.701 E7.15992
G1 X130.263 Y132.539 E7.25721
G1 X129.862 Y132.838 E7.29464
G1 X127.788 Y134.433 E7.49044
G1 X127.258 Y134.863 E7.54152
G1 X126.623 Y135.362 E7.60195
G1 X125.864 Y135.906 E7.67184
G1 X125.399 Y136.193 E7.71273
G1 X125.238 Y136.287 E7.72668
G1 X124.412 Y136.723 E7.79658
G1 X123.967 Y136.922 E7.83306
G1 X123.547 Y137.097 E7.86711
G1 X121.598 Y137.885 E8.02443
G1 X120.303 Y138.444 E8.12999
G1 X119.715 Y138.705 E8.17813
G1 X118.698 Y139.097 E8.2597
G1 X118.476 Y139.17 E8.27718
G1 X117.577 Y139.423 E8.34707
G1 X116.539 Y139.616 E8.42608
G1 X116.149 Y139.669 E8.45554
G1 X115.9 Y139.7 E8.47432
G1 X115.055 Y139.795 E8.53795
G1 X112.842 Y140.12 E8.70534
G1 X111.639 Y140.285 E8.79621
G1 X110.71 Y140.372 E8.86603
G1 X110.082 Y140.386 E8.91304
G1 X109.938 Y140.385 E8.92382
G1 X109.006 Y140.338 E8.99365
G1 X108.497 Y140.279 E9.032
G1 X107.363 Y140.12 E9.11769
G1 X104.11 Y139.726 E9.36291
G1 X103.675 Y139.668 E9.39575
G1 X102.756 Y139.505 E9.4656
G1 X102.217 Y139.372 E9.50715
G1 X102.043 Y139.324 E9.52065
G1 X100.735 Y138.871 E9.62424
G1 X99.438 Y138.328 E9.72947
G1 X99.205 Y138.227 E9.74847
G1 X97.665 Y137.609 E9.87265
G1 X97.532 Y137.549 E9.88357
G1 X96.409 Y137.103 E9.97399
G1 X95.557 Y136.721 E10.04387
G1 X94.755 Y136.277 E10.11247
G1 X94.537 Y136.144 E10.13158
G1 X93.515 Y135.437 E10.22458
G1 X92.712 Y134.811 E10.30078
G1 X90.541 Y133.166 E10.50462
G1 X90.252 Y132.957 E10.53131
G1 X90.047 Y132.805 E10.5504
G1 X89.769 Y132.594 E10.57652
G1 X89.05 Y131.999 E10.64636
G1 X88.474 Y131.438 E10.70653
G1 X88.306 Y131.262 E10.72474
G1 X87.457 Y130.258 E10.82314
G1 X87.194 Y129.906 E10.85602
G1 X85.521 Y127.735 E11.06113
G1 X84.699 Y126.701 E11.15998
G1 X83.923 Y125.589 E11.26146
G1 X83.817 Y125.415 E11.27671
G1 X83.366 Y124.597 E11.34661
G1 X83.084 Y123.983 E11.39717
G1 X82.918 Y123.585 E11.42945
G1 X82.127 Y121.628 E11.58741
G1 X81.384 Y119.932 E11.72598
G1 X81.201 Y119.5 E11.76109
G1 X80.757 Y118.242 E11.86092
G1 X80.591 Y117.594 E11.91098
G1 X80.529 Y117.317 E11.93222
G1 X80.353 Y116.313 E12.0085
G1 X80.194 Y115.054 E12.10347
G1 X80.158 Y114.738 E12.12727
G1 X79.908 Y113.048 E12.25512
G1 X79.715 Y111.642 E12.36132
G1 X79.628 Y110.713 E12.43115
G1 X79.615 Y110.022 E12.48287
G1 X79.617 Y109.864 E12.49469
G1 X79.723 Y108.479 E12.59864
G1 X79.88 Y107.368 E12.68261
G1 X80.271 Y104.132 E12.92654
G1 X80.326 Y103.713 E12.95816
G1 X80.596 Y102.344 E13.06259
G1 X80.646 Y102.155 E13.07722
G1 X80.923 Y101.264 E13.14704
G1 X81.13 Y100.729 E13.18997
G1 X81.65 Y99.492 E13.29039
G1 X81.765 Y99.228 E13.31194
G1 X82.924 Y96.346 E13.5444
G1 X82.929 Y96.348 E13.54481
G1 X83.22 Y95.671 E13.59995
G1 X83.728 Y94.738 E13.67945
G1 X83.834 Y94.564 E13.6947
G1 X84.53 Y93.555 E13.78643
G1 X85.484 Y92.327 E13.9028
G1 X86.586 Y90.872 E14.03939
G1 X87.332 Y89.866 E14.13312
G1 X87.92 Y89.141 E14.20297
G1 X88.324 Y88.707 E14.24735
G1 X88.46 Y88.569 E14.26184
G0 F6000 X88.888 Y88.99
G1 F600 X89.553 Y88.372 E14.32978
G1 X90.067 Y87.963 E14.37894
G1 X90.504 Y87.637 E14.41974
G1 X92.607 Y86.02 E14.61826
G1 X93.285 Y85.471 E14.68355
G1 X93.75 Y85.107 E14.72774
G1 X94.489 Y84.58 E14.79567
G1 X94.941 Y84.303 E14.83534
G1 X95.1 Y84.211 E14.84908
G1 X96.237 Y83.643 E14.9442
G1 X96.678 Y83.458 E14.97999
G1 X98.65 Y82.66 E15.13919
G1 X99.955 Y82.097 E15.24555
G1 X100.541 Y81.838 E15.29349
G1 X101.474 Y81.479 E15.36831
G1 X101.698 Y81.405 E15.38596
G1 X102.571 Y81.158 E15.45386
G1 X103.542 Y80.979 E15.52775
G1 X103.932 Y80.926 E15.5572
G1 X104.167 Y80.897 E15.57492
G1 X104.985 Y80.805 E15.63652
G1 X107.233 Y80.475 E15.80655
G1 X108.372 Y80.318 E15.8926
G1 X109.54 Y80.225 E15.98028
G1 X109.67 Y80.222 E15.99001
G1 X110.701 Y80.25 E16.0672
G1 X110.947 Y80.269 E16.08566
G1 X111.593 Y80.339 E16.13429
G1 X112.526 Y80.471 E16.2048
G1 X115.81 Y80.868 E16.45235
G1 X116.245 Y80.926 E16.48519
G1 X117.139 Y81.086 E16.55316
G1 X117.623 Y81.207 E16.59049
G1 X117.797 Y81.255 E16.604
G1 X119.033 Y81.682 E16.70186
G1 X120.323 Y82.223 E16.80655
G1 X120.524 Y82.31 E16.82294
G1 X122.111 Y82.947 E16.95091
G1 X122.262 Y83.015 E16.9633
G1 X123.369 Y83.455 E17.05245
G1 X124.197 Y83.827 E17.12038
G1 X124.932 Y84.235 E17.18329
G1 X125.15 Y84.368 E17.2024
G1 X126.116 Y85.036 E17.29029
G1 X126.969 Y85.701 E17.37123
G1 X129.07 Y87.293 E17.5685
G1 X129.397 Y87.529 E17.59868
G1 X129.868 Y87.884 E17.64282
G1 X130.566 Y88.464 E17.71073
G1 X131.092 Y88.976 E17.76567
G1 X131.26 Y89.152 E17.78387
G1 X132.062 Y90.101 E17.87686
G1 X132.306 Y90.428 E17.90739
G1 X134.047 Y92.687 E18.12082
G1 X134.831 Y93.673 E18.21509
G1 X135.537 Y94.678 E18.30701
G1 X135.643 Y94.85 E18.32213
G1 X136.084 Y95.643 E18.39003
G1 X136.385 Y96.3 E18.44411
G1 X136.532 Y96.656 E18.47293
G1 X137.344 Y98.661 E18.63482
G1 X137.946 Y100.056 E18.74852
G1 X138.2 Y100.632 E18.79563
G1 X138.53 Y101.478 E18.86358
G1 X138.775 Y102.315 E18.92885
G1 X138.822 Y102.505 E18.9435
G1 X139.04 Y103.676 E19.03263
G1 X139.207 Y104.987 E19.13154
G1 X139.248 Y105.348 E19.15873
G1 X139.495 Y107.021 E19.28528
G1 X139.681 Y108.369 E19.38712
G1 X139.775 Y109.541 E19.4751
G1 X139.778 Y109.672 E19.48491
G1 X139.75 Y110.701 E19.56194
G1 X139.731 Y110.947 E19.58041
G1 X139.661 Y111.593 E19.62904
G1 X139.529 Y112.526 E19.69955
G1 X139.134 Y115.79 E19.9456
G1 X139.079 Y116.209 E19.97722
G1 X138.832 Y117.473 E20.0736
G1 X138.786 Y117.649 E20.08722
G1 X138.518 Y118.516 E20.15513
G1 X138.325 Y119.015 E20.19517
G1 X137.8 Y120.269 E20.2969
G1 X137.691 Y120.52 E20.31738
G1 X136.521 Y123.429 E20.55202
G1 X136.145 Y124.255 E20.61994
G1 X135.797 Y124.884 E20.67374
G1 X135.689 Y125.064 E20.68945
G1 X135.002 Y126.069 E20.78055
G1 X134.066 Y127.277 E20.89491
G1 X133.99 Y127.372 E20.90401
G1 X132.998 Y128.696 E21.02782
G1 X132.931 Y128.778 E21.03575
G1 X132.162 Y129.808 E21.13194
G1 X131.588 Y130.511 E21.19986
G1 X131.008 Y131.109 E21.2622
G1 X130.843 Y131.266 E21.27925
G1 X129.904 Y132.058 E21.37117
G1 X129.5 Y132.36 E21.40892
G1 X127.41 Y133.967 E21.60622
G1 X126.737 Y134.511 E21.67098
G1 X126.253 Y134.89 E21.71698
G1 X125.515 Y135.417 E21.78484
G1 X125.096 Y135.675 E21.82167
G1 X124.935 Y135.769 E21.83562
G1 X123.734 Y136.369 E21.93609
G1 X123.322 Y136.541 E21.9695
G1 X121.35 Y137.339 E22.1287
G1 X120.037 Y137.905 E22.2357
G1 X119.472 Y138.156 E22.28197
G1 X118.51 Y138.527 E22.35913
G1 X118.288 Y138.6 E22.37661
G1 X117.415 Y138.845 E22.44447
G1 X116.458 Y139.021 E22.51729
G1 X116.068 Y139.074 E22.54674
G1 X115.833 Y139.103 E22.56446
G1 X115.015 Y139.195 E22.62606
G1 X112.761 Y139.525 E22.79654
G1 X111.558 Y139.69 E22.88741
G1 X110.654 Y139.774 E22.95535
G1 X110.086 Y139.786 E22.99787
G1 X109.942 Y139.785 E23.00864
G1 X109.036 Y139.738 E23.07654
G1 X108.581 Y139.685 E23.11082
G1 X107.47 Y139.529 E23.19477
G1 X104.19 Y139.132 E23.44203
G1 X103.755 Y139.074 E23.47487
G1 X102.861 Y138.914 E23.54283
G1 X102.377 Y138.793 E23.58017
G1 X102.203 Y138.745 E23.59368
G1 X100.967 Y138.318 E23.69154
G1 X99.677 Y137.777 E23.79622
G1 X99.476 Y137.69 E23.81261
G1 X97.889 Y137.053 E23.94058
G1 X97.738 Y136.985 E23.95298
G1 X96.631 Y136.545 E24.04212
G1 X95.803 Y136.173 E24.11005
G1 X95.068 Y135.765 E24.17296
G1 X94.85 Y135.632 E24.19207
G1 X93.884 Y134.964 E24.27997
G1 X93.031 Y134.299 E24.36091
G1 X90.93 Y132.707 E24.55818
G1 X90.603 Y132.471 E24.58835
G1 X90.132 Y132.116 E24.63249
G1 X89.434 Y131.536 E24.70041
G1 X88.908 Y131.024 E24.75534
G1 X88.74 Y130.848 E24.77355
G1 X87.938 Y129.899 E24.86653
G1 X87.694 Y129.572 E24.89706
G1 X85.953 Y127.313 E25.1105
G1 X85.169 Y126.327 E25.20477
G1 X84.436 Y125.277 E25.3006
G1 X84.33 Y125.103 E25.31584
G1 X83.892 Y124.308 E25.38377
G1 X83.637 Y123.75 E25.42968
G1 X83.474 Y123.36 E25.46131
G1 X82.683 Y121.402 E25.61935
G1 X81.937 Y119.698 E25.75855
G1 X81.754 Y119.266 E25.79366
G1 X81.334 Y118.078 E25.88796
G1 X81.177 Y117.463 E25.93546
G1 X81.115 Y117.186 E25.9567
G1 X80.949 Y116.237 E26.0288
G1 X80.79 Y114.987 E26.1231
G1 X80.751 Y114.64 E26.14923
G1 X80.503 Y112.967 E26.27579
G1 X80.31 Y111.561 E26.382
G1 X80.226 Y110.657 E26.44994
G1 X80.215 Y110.03 E26.49687
G1 X80.217 Y109.872 E26.5087
G1 X80.317 Y108.563 E26.60694
G1 X80.471 Y107.474 E26.68925
G1 X80.866 Y104.21 E26.93529
G1 X80.921 Y103.791 E26.96692
G1 X81.176 Y102.498 E27.06554
G1 X81.226 Y102.309 E27.08017
G1 X81.496 Y101.442 E27.14813
G1 X81.684 Y100.961 E27.18678
G1 X82.2 Y99.731 E27.2866
G1 X82.309 Y99.48 E27.30707
G1 X83.48 Y96.57 E27.54181
G1 X83.485 Y96.572 E27.54222
G1 X83.783 Y95.886 E27.59819
G1 X84.241 Y95.05 E27.66953
G1 X84.347 Y94.876 E27.68477
G1 X85.004 Y93.923 E27.7714
G1 X85.946 Y92.71 E27.88633
G1 X87.124 Y91.155 E28.03232
G1 X87.814 Y90.224 E28.11904
G1 X88.386 Y89.519 E28.18698
G1 X88.752 Y89.128 E28.22706
G1 X88.888 Y88.99 E28.24156
G1 F1500 E21.74156
;MESH:CrownGear.stl
G0 F6000 X105.4 Y109.114
G0 X103.65 Y108.932
G0 X104.429 Y111.912
G0 X104.905 Y112.954
G0 X105.282 Y113.48
G0 X106.74 Y115.353
;TYPE:WALL-INNER
G1 F1500 E28.24156
G1 F600 X115.331 Y113.302 E28.90254
G1 X115.637 Y112.697 E28.95327
G1 X115.691 Y112.581 E28.96285
G1 X115.799 Y112.327 E28.9835
G1 X115.846 Y112.209 E28.99301
G1 X115.939 Y111.945 E29.01396
G1 X115.976 Y111.824 E29.02343
G1 X116.051 Y111.559 E29.04404
G1 X116.082 Y111.434 E29.05367
G1 X116.14 Y111.161 E29.07456
G1 X116.162 Y111.037 E29.08398
G1 X116.202 Y110.766 E29.10448
G1 X116.216 Y110.639 E29.11405
G1 X116.239 Y110.363 E29.13477
G1 X116.245 Y110.232 E29.14459
G1 X116.249 Y109.957 E29.16517
G1 X116.247 Y109.829 E29.17475
G1 X116.232 Y109.544 E29.19611
G1 X116.192 Y109.154 E29.22544
G1 X116.172 Y109.024 E29.23529
G1 X116.123 Y108.745 E29.25649
G1 X116.029 Y108.35 E29.28687
G1 X115.945 Y108.085 E29.30768
G1 X115.914 Y107.974 E29.3163
G1 X115.767 Y107.588 E29.34721
G1 X115.599 Y107.22 E29.37748
G1 X115.407 Y106.865 E29.40769
G1 X115.193 Y106.521 E29.438
G1 X114.957 Y106.193 E29.46824
G1 X114.7 Y105.879 E29.49861
G1 X114.423 Y105.584 E29.52889
G1 X114.128 Y105.308 E29.55912
G1 X113.818 Y105.052 E29.58921
G1 X113.26 Y104.647 E29.64081
G1 X104.669 Y106.698 E30.30179
G1 X104.363 Y107.303 E30.35252
G1 X104.309 Y107.419 E30.3621
G1 X104.201 Y107.673 E30.38275
G1 X104.154 Y107.791 E30.39226
G1 X104.061 Y108.055 E30.41321
G1 X104.024 Y108.176 E30.42268
G1 X103.949 Y108.441 E30.44329
G1 X103.918 Y108.566 E30.45292
G1 X103.86 Y108.839 E30.47381
G1 X103.838 Y108.963 E30.48323
G1 X103.798 Y109.234 E30.50373
G1 X103.784 Y109.361 E30.5133
G1 X103.761 Y109.637 E30.53402
G1 X103.755 Y109.768 E30.54384
G1 X103.751 Y110.043 E30.56442
G1 X103.753 Y110.171 E30.574
G1 X103.768 Y110.456 E30.59536
G1 X103.808 Y110.846 E30.62469
G1 X103.828 Y110.976 E30.63454
G1 X103.877 Y111.255 E30.65574
G1 X103.971 Y111.65 E30.68612
G1 X104.048 Y111.895 E30.70534
G1 X104.086 Y112.027 E30.71562
G1 X104.233 Y112.412 E30.74646
G1 X104.401 Y112.78 E30.77673
G1 X104.593 Y113.135 E30.80694
G1 X104.807 Y113.479 E30.83725
G1 X105.043 Y113.807 E30.86749
G1 X105.3 Y114.121 E30.89786
G1 X105.577 Y114.416 E30.92814
G1 X105.872 Y114.692 E30.95837
G1 X106.182 Y114.948 E30.98846
G1 X106.74 Y115.353 E31.04006
G0 F6000 X106.869 Y114.705
;TYPE:WALL-OUTER
G1 F600 X114.921 Y112.783 E31.65956
G1 X115.097 Y112.435 E31.68875
G1 X115.143 Y112.336 E31.69692
G1 X115.244 Y112.1 E31.71613
G1 X115.283 Y112 E31.72416
G1 X115.369 Y111.756 E31.74352
G1 X115.401 Y111.653 E31.75159
G1 X115.471 Y111.406 E31.7708
G1 X115.497 Y111.3 E31.77897
G1 X115.551 Y111.048 E31.79826
G1 X115.569 Y110.942 E31.8063
G1 X115.607 Y110.688 E31.82552
G1 X115.619 Y110.581 E31.83358
G1 X115.64 Y110.325 E31.8528
G1 X115.645 Y110.214 E31.86112
G1 X115.649 Y109.958 E31.88028
G1 X115.647 Y109.85 E31.88836
G1 X115.634 Y109.59 E31.90784
G1 X115.597 Y109.231 E31.93485
G1 X115.58 Y109.122 E31.94311
G1 X115.535 Y108.867 E31.96248
G1 X115.45 Y108.51 E31.98995
G1 X115.373 Y108.265 E32.00917
G1 X115.344 Y108.163 E32.0171
G1 X115.213 Y107.82 E32.04458
G1 X115.061 Y107.487 E32.07197
G1 X114.888 Y107.166 E32.09926
G1 X114.694 Y106.855 E32.12669
G1 X114.481 Y106.558 E32.15404
G1 X114.249 Y106.275 E32.18143
G1 X113.999 Y106.009 E32.20875
G1 X113.732 Y105.759 E32.23612
G1 X113.451 Y105.527 E32.26339
G1 X113.131 Y105.295 E32.29297
G1 X105.079 Y107.217 E32.91247
G1 X104.903 Y107.565 E32.94165
G1 X104.857 Y107.664 E32.94982
G1 X104.756 Y107.9 E32.96903
G1 X104.717 Y108 E32.97707
G1 X104.631 Y108.244 E32.99643
G1 X104.599 Y108.347 E33.0045
G1 X104.529 Y108.594 E33.02371
