;FLAVOR:Marlin
;TIME:5148
;Filament used: 2.76448m
;Layer height: 0.2
;MINX:87.796
;MINY:53.589
;MINZ:0.3
;MAXX:138.188
;MAXY:166.41
;MAXZ:17.9
;Generated with Cura_SteamEngine 4.12.1
M140 S80
M105
M190 S80
M104 S220
M105
M109 S220
M82 ;absolute extrusion mode
; Ender 3 Custom Start G-code
G92 E0 ; Reset Extruder
G28 ; Home all axes
G1 Z2.0 F3000 ; Move Z Axis up little to prevent scratching of Heat Bed
G1 X0.1 Y20 Z0.3 F5000.0 ; Move to start position
G1 X0.1 Y200.0 Z0.3 F1500.0 E15 ; Draw the first line
G1 X0.4 Y200.0 Z0.3 F5000.0 ; Move to side a little
G1 X0.4 Y20 Z0.3 F1500.0 E30 ; Draw the second line
G92 E0 ; Reset Extruder
G1 Z2.0 F3000 ; Move Z Axis up little to prevent scratching of Heat Bed
G1 X5 Y20 Z0.3 F5000.0 ; Move over to prevent blob squish
G92 E0
G92 E0
G1 F1500 E-6.5
;LAYER_COUNT:89
;LAYER:0
M107
G0 F6000 X89.281 Y58.585 Z0.3
;TYPE:SKIRT
G1 F1500 E0
G1 F600 X89.783 Y57.829 E0.06791
G1 X90.349 Y57.12 E0.1358
G1 X90.976 Y56.464 E0.20371
G1 X91.658 Y55.865 E0.27164
G1 X92.39 Y55.329 E0.33954
G1 X93.167 Y54.859 E0.40749
G1 X93.982 Y54.46 E0.4754
G1 X94.829 Y54.134 E0.54332
G1 X95.701 Y53.883 E0.61123
G1 X96.592 Y53.711 E0.67914
G1 X97.843 Y53.602 E0.77311
G1 X98.237 Y53.592 E0.8026
G1 X98.5 Y53.589 E0.82229
G1 X123.469 Y53.594 E2.69085
G1 X124.131 Y53.603 E2.74039
G1 X125.037 Y53.655 E2.80831
G1 X125.935 Y53.787 E2.87623
G1 X126.818 Y53.997 E2.94415
G1 X127.679 Y54.285 E3.0121
G1 X128.511 Y54.647 E3.08
G1 X129.308 Y55.08 E3.14787
G1 X130.064 Y55.583 E3.21583
G1 X130.773 Y56.15 E3.28377
G1 X131.429 Y56.777 E3.35168
G1 X132.027 Y57.459 E3.41956
G1 X132.563 Y58.191 E3.48745
G1 X133.032 Y58.968 E3.55537
G1 X133.432 Y59.783 E3.62331
G1 X133.757 Y60.63 E3.6912
G1 X133.977 Y61.377 E3.74948
G1 X134.218 Y62.33 E3.82304
G1 X134.263 Y62.515 E3.83729
G1 X137.477 Y76.294 E4.89612
G1 X137.717 Y77.397 E4.9806
G1 X137.775 Y77.687 E5.00273
G1 X137.83 Y77.98 E5.02504
G1 X137.884 Y78.291 E5.04866
G1 X137.948 Y78.701 E5.07972
G1 X137.989 Y78.993 E5.10178
G1 X138.022 Y79.253 E5.1214
G1 X138.056 Y79.56 E5.14451
G1 X138.104 Y80.057 E5.18188
G1 X138.131 Y80.391 E5.20695
G1 X138.146 Y80.626 E5.22458
G1 X138.161 Y80.918 E5.24646
G1 X138.177 Y81.37 E5.2803
G1 X138.184 Y81.825 E5.31436
G1 X138.182 Y82.175 E5.34055
G1 X138.168 Y82.763 E5.38457
G1 X138.154 Y83.108 E5.4104
G1 X138.142 Y83.317 E5.42607
G1 X138.123 Y83.59 E5.44655
G1 X138.086 Y84.03 E5.47959
G1 X138.058 Y84.313 E5.50088
G1 X138.028 Y84.581 E5.52106
G1 X137.987 Y84.901 E5.5452
G1 X137.923 Y85.346 E5.57884
G1 X137.87 Y85.676 E5.60386
G1 X137.836 Y85.868 E5.61845
G1 X137.783 Y86.144 E5.63948
G1 X137.454 Y87.738 E5.76128
G1 X137.307 Y88.395 E5.81166
G1 X136.818 Y90.909 E6.00333
G1 X136.403 Y93.416 E6.19349
G1 X136.06 Y95.927 E6.38315
G1 X135.788 Y98.458 E6.57365
G1 X135.589 Y100.971 E6.7623
G1 X135.461 Y103.503 E6.95202
G1 X135.399 Y106.868 E7.20389
G1 X135.399 Y113.096 E7.66996
G1 X135.436 Y115.699 E7.86478
G1 X135.544 Y118.259 E8.05652
G1 X135.722 Y120.759 E8.24409
G1 X135.973 Y123.297 E8.43495
G1 X136.297 Y125.826 E8.62575
G1 X136.686 Y128.3 E8.81317
G1 X137.154 Y130.821 E9.00505
G1 X137.488 Y132.351 E9.12225
G1 X137.618 Y132.994 E9.17134
G1 X137.742 Y133.593 E9.21711
G1 X137.798 Y133.887 E9.23951
G1 X137.89 Y134.407 E9.27903
G1 X137.94 Y134.714 E9.30231
G1 X137.967 Y134.899 E9.3163
G1 X138.006 Y135.192 E9.33842
G1 X138.071 Y135.749 E9.38039
G1 X138.103 Y136.065 E9.40415
G1 X138.119 Y136.252 E9.4182
G1 X138.139 Y136.545 E9.44018
G1 X138.166 Y137.02 E9.47578
G1 X138.18 Y137.353 E9.50072
G1 X138.185 Y137.557 E9.51599
G1 X138.188 Y137.865 E9.53904
G1 X138.185 Y138.412 E9.57998
G1 X138.179 Y138.711 E9.60236
G1 X138.17 Y138.972 E9.6219
G1 X138.155 Y139.28 E9.64498
G1 X138.129 Y139.683 E9.6752
G1 X138.106 Y139.975 E9.69712
G1 X138.083 Y140.222 E9.71569
G1 X138.047 Y140.547 E9.74016
G1 X137.985 Y141.042 E9.77749
G1 X137.92 Y141.495 E9.81174
G1 X137.859 Y141.858 E9.83928
G1 X137.773 Y142.319 E9.87438
G1 X137.713 Y142.619 E9.89727
G1 X137.438 Y143.878 E9.99371
G1 X134.207 Y157.728 E11.05801
G1 X133.997 Y158.575 E11.12331
G1 X133.739 Y159.445 E11.19122
G1 X133.406 Y160.289 E11.25912
G1 X132.999 Y161.101 E11.3271
G1 X132.523 Y161.873 E11.39497
G1 X131.981 Y162.601 E11.46289
G1 X131.376 Y163.278 E11.53083
G1 X130.715 Y163.899 E11.59871
G1 X130.001 Y164.46 E11.66666
G1 X129.241 Y164.955 E11.73453
G1 X128.44 Y165.382 E11.80246
G1 X127.605 Y165.736 E11.87033
G1 X126.741 Y166.016 E11.9383
G1 X125.857 Y166.219 E12.00618
G1 X124.957 Y166.343 E12.07417
G1 X124.211 Y166.385 E12.13008
G1 X123.227 Y166.405 E12.20373
G1 X123.02 Y166.407 E12.21923
G1 X98.663 Y166.41 E14.04199
G1 X97.959 Y166.4 E14.09468
G1 X97.053 Y166.347 E14.1626
G1 X96.155 Y166.215 E14.23052
G1 X95.272 Y166.004 E14.29846
G1 X94.412 Y165.716 E14.36633
G1 X93.58 Y165.354 E14.43423
G1 X92.783 Y164.919 E14.50218
G1 X92.027 Y164.417 E14.57009
G1 X91.319 Y163.849 E14.63802
G1 X90.663 Y163.222 E14.70593
G1 X90.065 Y162.539 E14.77387
G1 X89.53 Y161.806 E14.84178
G1 X89.061 Y161.03 E14.90963
G1 X88.662 Y160.214 E14.97761
G1 X88.337 Y159.367 E15.0455
G1 X88.087 Y158.495 E15.11338
G1 X87.915 Y157.603 E15.18137
G1 X87.809 Y156.391 E15.27241
G1 X87.8 Y156.071 E15.29637
G1 X87.796 Y155.781 E15.31807
G1 X87.798 Y97.391 E19.68771
G1 X87.796 Y64.441 E22.15353
G1 X87.805 Y63.762 E22.20435
G1 X87.857 Y62.856 E22.27226
G1 X87.988 Y61.959 E22.3401
G1 X88.199 Y61.076 E22.40804
G1 X88.485 Y60.215 E22.47593
G1 X88.847 Y59.382 E22.5439
G1 X89.281 Y58.585 E22.61182
G1 F1500 E16.11182
;MESH:Rear_Wing1.stl
G0 F6000 X112.494 Y90.088
G0 X111.504 Y88.633
G0 X110.859 Y90.511
G0 X110.819 Y91.206
G0 X110.994 Y91.885
G0 X111.365 Y92.478
G0 X111.796 Y92.846
G0 X113.256 Y93.631
;TYPE:WALL-INNER
G1 F1500 E22.61182
G1 F600 X113.658 Y93.576 E22.64218
G1 X114.048 Y93.46 E22.67263
G1 X114.417 Y93.285 E22.70319
G1 X114.751 Y93.057 E22.73346
G1 X115.047 Y92.783 E22.76364
G1 X115.3 Y92.465 E22.79405
G1 X115.501 Y92.106 E22.82484
G1 X115.644 Y91.727 E22.85516
G1 X115.726 Y91.332 E22.88535
G1 X115.75 Y90.928 E22.91563
G1 X115.711 Y90.524 E22.94601
G1 X115.61 Y90.13 E22.97645
G1 X115.45 Y89.757 E23.00682
G1 X115.234 Y89.413 E23.03722
G1 X114.97 Y89.106 E23.06752
G1 X114.659 Y88.841 E23.09809
G1 X114.315 Y88.629 E23.12833
G1 X113.941 Y88.471 E23.15872
G1 X113.546 Y88.372 E23.18919
G1 X113.146 Y88.334 E23.21926
G1 X112.741 Y88.356 E23.24961
G1 X112.343 Y88.442 E23.28009
G1 X111.961 Y88.59 E23.31074
G1 X111.611 Y88.791 E23.34095
G1 X111.295 Y89.043 E23.37119
G1 X111.017 Y89.343 E23.4018
G1 X110.792 Y89.681 E23.43219
G1 X110.621 Y90.045 E23.46228
G1 X110.505 Y90.436 E23.49281
G1 X110.452 Y90.837 E23.52308
G1 X110.459 Y91.242 E23.55339
G1 X110.53 Y91.643 E23.58386
G1 X110.661 Y92.029 E23.61437
G1 X110.852 Y92.389 E23.64487
G1 X111.091 Y92.713 E23.675
G1 X111.378 Y93 E23.70537
G1 X111.708 Y93.241 E23.73595
G1 X112.068 Y93.425 E23.76621
G1 X112.453 Y93.555 E23.79662
G1 X112.853 Y93.623 E23.82698
G1 X113.256 Y93.631 E23.85714
G0 F6000 X113.221 Y93.03
;TYPE:WALL-OUTER
G1 F600 X113.531 Y92.988 E23.88055
G1 X113.832 Y92.898 E23.90407
G1 X114.117 Y92.763 E23.92767
G1 X114.376 Y92.586 E23.95114
G1 X114.606 Y92.374 E23.97455
G1 X114.8 Y92.129 E23.99794
G1 X114.956 Y91.852 E24.02173
G1 X115.066 Y91.559 E24.04515
G1 X115.13 Y91.253 E24.06854
G1 X115.148 Y90.94 E24.09201
G1 X115.118 Y90.628 E24.11546
G1 X115.04 Y90.324 E24.13895
G1 X114.917 Y90.036 E24.16238
G1 X114.75 Y89.77 E24.18589
G1 X114.546 Y89.533 E24.20929
G1 X114.305 Y89.328 E24.23297
G1 X114.039 Y89.164 E24.25635
G1 X113.75 Y89.042 E24.27983
G1 X113.444 Y88.965 E24.30344
G1 X113.134 Y88.936 E24.32674
G1 X112.821 Y88.953 E24.3502
G1 X112.515 Y89.019 E24.37363
G1 X112.22 Y89.133 E24.39729
G1 X111.949 Y89.289 E24.42069
G1 X111.704 Y89.484 E24.44413
G1 X111.49 Y89.715 E24.46769
G1 X111.316 Y89.977 E24.49123
G1 X111.183 Y90.259 E24.51456
G1 X111.094 Y90.561 E24.53812
G1 X111.053 Y90.872 E24.5616
G1 X111.058 Y91.184 E24.58495
G1 X111.113 Y91.493 E24.60844
G1 X111.214 Y91.791 E24.63198
G1 X111.361 Y92.069 E24.65552
G1 X111.547 Y92.321 E24.67896
G1 X111.769 Y92.543 E24.70245
G1 X112.023 Y92.728 E24.72597
G1 X112.302 Y92.871 E24.74943
G1 X112.6 Y92.971 E24.77295
G1 X112.91 Y93.024 E24.79649
G1 X113.221 Y93.03 E24.81977
G0 F6000 X113.259 Y93.688
G1 F1500 E18.31977
G0 F6000 X113.17 Y92.065
G0 X113.118 Y127.902
G0 X113.15 Y126.142
G0 X114.715 Y127.363
G0 X115.13 Y127.925
G0 X115.355 Y128.587
G0 X115.368 Y129.284
G0 X115.174 Y129.953
G0 X114.782 Y130.537
G0 X113.256 Y131.631
;TYPE:WALL-INNER
G1 F1500 E24.81977
G1 F600 X113.658 Y131.576 E24.85013
G1 X114.048 Y131.46 E24.88058
G1 X114.417 Y131.285 E24.91114
G1 X114.751 Y131.057 E24.94141
G1 X115.047 Y130.783 E24.97159
G1 X115.3 Y130.465 E25.002
G1 X115.501 Y130.106 E25.03279
G1 X115.644 Y129.727 E25.06311
G1 X115.726 Y129.332 E25.0933
G1 X115.75 Y128.928 E25.12358
G1 X115.711 Y128.524 E25.15396
G1 X115.61 Y128.13 E25.1844
G1 X115.45 Y127.757 E25.21477
G1 X115.234 Y127.413 E25.24517
G1 X114.97 Y127.106 E25.27547
G1 X114.659 Y126.841 E25.30604
G1 X114.315 Y126.629 E25.33628
G1 X113.941 Y126.471 E25.36667
G1 X113.546 Y126.372 E25.39714
G1 X113.146 Y126.334 E25.42721
G1 X112.741 Y126.356 E25.45756
G1 X112.343 Y126.442 E25.48803
G1 X111.961 Y126.59 E25.51869
G1 X111.611 Y126.791 E25.5489
G1 X111.295 Y127.043 E25.57914
G1 X111.017 Y127.343 E25.60975
G1 X110.792 Y127.681 E25.64014
G1 X110.621 Y128.045 E25.67023
G1 X110.505 Y128.436 E25.70075
G1 X110.452 Y128.837 E25.73102
G1 X110.459 Y129.242 E25.76134
G1 X110.53 Y129.643 E25.79181
G1 X110.661 Y130.029 E25.82232
G1 X110.852 Y130.389 E25.85282
G1 X111.091 Y130.713 E25.88295
G1 X111.378 Y131 E25.91332
G1 X111.708 Y131.241 E25.9439
G1 X112.068 Y131.425 E25.97416
G1 X112.453 Y131.555 E26.00456
G1 X112.853 Y131.623 E26.03493
G1 X113.256 Y131.631 E26.06509
G0 F6000 X113.221 Y131.03
;TYPE:WALL-OUTER
G1 F600 X113.531 Y130.988 E26.0885
G1 X113.832 Y130.898 E26.11201
G1 X114.117 Y130.763 E26.13561
G1 X114.376 Y130.586 E26.15909
G1 X114.606 Y130.374 E26.1825
G1 X114.8 Y130.129 E26.20589
G1 X114.956 Y129.852 E26.22968
G1 X115.066 Y129.559 E26.2531
G1 X115.13 Y129.253 E26.27649
G1 X115.148 Y128.94 E26.29995
G1 X115.118 Y128.628 E26.32341
G1 X115.04 Y128.324 E26.3469
G1 X114.917 Y128.036 E26.37033
G1 X114.75 Y127.77 E26.39384
G1 X114.546 Y127.533 E26.41724
G1 X114.305 Y127.328 E26.44092
G1 X114.039 Y127.164 E26.4643
G1 X113.75 Y127.042 E26.48778
G1 X113.444 Y126.965 E26.51139
G1 X113.134 Y126.936 E26.53469
G1 X112.821 Y126.953 E26.55815
G1 X112.515 Y127.019 E26.58158
G1 X112.22 Y127.133 E26.60524
G1 X111.949 Y127.289 E26.62864
G1 X111.704 Y127.484 E26.65208
G1 X111.49 Y127.715 E26.67564
G1 X111.316 Y127.977 E26.69918
G1 X111.183 Y128.259 E26.72251
G1 X111.094 Y128.561 E26.74607
G1 X111.053 Y128.872 E26.76955
G1 X111.058 Y129.184 E26.7929
G1 X111.113 Y129.493 E26.81639
G1 X111.214 Y129.791 E26.83993
G1 X111.361 Y130.069 E26.86347
G1 X111.547 Y130.321 E26.88691
G1 X111.769 Y130.543 E26.9104
G1 X112.023 Y130.728 E26.93392
G1 X112.302 Y130.871 E26.95738
G1 X112.6 Y130.971 E26.9809
G1 X112.91 Y131.024 E27.00444
G1 X113.221 Y131.03 E27.02772
G0 F6000 X113.259 Y131.688
G1 F1500 E20.52772
G0 F6000 X112.405 Y131.74
G0 X112.679 Y129.981
G0 X97.432 Y131.739
G0 X99.187 Y131.738
G0 X98.996 Y155.211
;TYPE:WALL-INNER
G1 F1500 E27.02772
G1 F600 X98.998 Y97.416 E31.35282
G1 X98.995 Y64.789 E33.79447
G1 X123.294 Y64.793 E35.6129
G1 X126.7 Y79.391 E36.73468
G1 X126.836 Y80.06 E36.78577
G1 X126.929 Y80.725 E36.83602
G1 X126.981 Y81.373 E36.88467
G1 X126.995 Y82.034 E36.93415
G1 X126.968 Y82.711 E36.98485
G1 X126.903 Y83.371 E37.03448
G1 X126.8 Y84.015 E37.08329
G1 X126.651 Y84.686 E37.13473
G1 X126.474 Y85.304 E37.18283
G1 X126.253 Y85.931 E37.23259
G1 X125.997 Y86.542 E37.28216
G1 X125.392 Y87.767 E37.38441
G1 X125.115 Y88.409 E37.43673
G1 X124.875 Y89.064 E37.48894
G1 X124.67 Y89.732 E37.54123
G1 X124.501 Y90.41 E37.59352
G1 X124.369 Y91.097 E37.64587
G1 X124.275 Y91.79 E37.6982
G1 X124.218 Y92.485 E37.75039
G1 X124.199 Y93.172 E37.80182
G1 X124.199 Y126.797 E40.31816
G1 X124.218 Y127.484 E40.36959
G1 X124.275 Y128.182 E40.422
G1 X124.37 Y128.873 E40.4742
G1 X124.501 Y129.561 E40.52661
G1 X124.671 Y130.241 E40.57906
G1 X124.876 Y130.908 E40.63128
G1 X125.116 Y131.564 E40.68356
G1 X125.394 Y132.207 E40.73598
G1 X125.996 Y133.422 E40.83745
G1 X126.26 Y134.05 E40.88843
G1 X126.478 Y134.671 E40.93769
G1 X126.655 Y135.289 E40.9858
G1 X126.808 Y135.978 E41.03861
G1 X126.906 Y136.592 E41.08514
G1 X126.973 Y137.257 E41.13516
G1 X127 Y137.943 E41.18654
G1 X126.986 Y138.599 E41.23564
G1 X126.935 Y139.252 E41.28466
G1 X126.841 Y139.911 E41.33447
G1 X126.707 Y140.578 E41.38538
G1 X123.294 Y155.207 E42.50955
G1 X98.996 Y155.211 E44.3279
G0 F6000 X98.395 Y155.811
;TYPE:WALL-OUTER
G1 F600 X98.397 Y153.649 E44.48969
G1 X98.396 Y110.851 E47.69249
G1 X98.398 Y97.415 E48.69798
G1 X98.395 Y64.189 E51.18446
G1 X123.77 Y64.193 E53.0834
G1 X127.288 Y79.272 E54.24215
G1 X127.427 Y79.958 E54.29453
G1 X127.526 Y80.659 E54.34751
G1 X127.581 Y81.346 E54.39909
G1 X127.596 Y82.045 E54.45141
G1 X127.568 Y82.743 E54.50369
G1 X127.497 Y83.456 E54.55731
G1 X127.39 Y84.129 E54.6083
G1 X127.234 Y84.828 E54.6619
G1 X127.047 Y85.483 E54.71288
G1 X126.815 Y86.143 E54.76523
G1 X126.54 Y86.798 E54.81839
G1 X125.937 Y88.019 E54.9203
G1 X125.673 Y88.631 E54.97018
G1 X125.444 Y89.256 E55.01999
G1 X125.248 Y89.893 E55.06987
G1 X125.087 Y90.539 E55.11969
G1 X124.961 Y91.194 E55.16961
G1 X124.872 Y91.855 E55.21952
G1 X124.817 Y92.518 E55.26931
G1 X124.799 Y93.18 E55.31887
G1 X124.799 Y126.789 E57.834
G1 X124.817 Y127.451 E57.88356
G1 X124.872 Y128.117 E57.93357
G1 X124.962 Y128.776 E57.98335
G1 X125.087 Y129.432 E58.03332
G1 X125.249 Y130.08 E58.08331
G1 X125.445 Y130.716 E58.13311
G1 X125.674 Y131.342 E58.183
G1 X125.939 Y131.955 E58.23297
G1 X126.541 Y133.171 E58.33451
G1 X126.819 Y133.832 E58.38818
G1 X127.051 Y134.492 E58.44053
G1 X127.238 Y135.147 E58.49151
G1 X127.394 Y135.847 E58.54518
G1 X127.502 Y136.52 E58.59619
G1 X127.573 Y137.233 E58.64981
G1 X127.601 Y137.932 E58.70216
G1 X127.586 Y138.624 E58.75396
G1 X127.531 Y139.319 E58.80613
G1 X127.433 Y140.013 E58.85858
G1 X127.295 Y140.697 E58.9108
G1 X123.77 Y155.807 E60.07192
G1 X98.395 Y155.811 E61.97087
G0 F6000 X98.665 Y155.541
G0 X99.107 Y154.62
G0 X99.586 Y154.621
;TYPE:SKIN
G1 F600 X99.588 Y93.168 E66.56972
G1 X99.585 Y65.379 E68.64932
G1 X122.826 Y65.383 E70.38857
G1 X126.122 Y79.509 E71.47409
G1 X126.258 Y80.178 E71.52518
G1 X126.342 Y80.781 E71.57074
G1 X126.391 Y81.385 E71.61609
G1 X126.405 Y82.011 E71.66295
G1 X126.38 Y82.654 E71.7111
G1 X126.315 Y83.314 E71.76073
G1 X126.224 Y83.887 E71.80415
G1 X126.08 Y84.539 E71.85412
G1 X125.917 Y85.108 E71.89841
G1 X125.702 Y85.719 E71.94688
G1 X125.462 Y86.293 E71.99344
G1 X124.857 Y87.519 E72.09575
G1 X124.566 Y88.191 E72.15056
G1 X124.316 Y88.876 E72.20513
G1 X124.102 Y89.574 E72.25976
G1 X123.925 Y90.282 E72.31437
G1 X123.787 Y91.001 E72.36916
G1 X123.689 Y91.727 E72.42399
G1 X123.628 Y92.453 E72.47851
G1 X123.609 Y93.164 E72.53174
G1 X123.609 Y126.805 E75.04927
G1 X123.628 Y127.516 E75.1025
G1 X123.689 Y128.247 E75.15739
G1 X123.788 Y128.969 E75.21193
G1 X123.925 Y129.687 E75.26663
G1 X124.103 Y130.4 E75.32162
G1 X124.317 Y131.096 E75.37612
G1 X124.568 Y131.782 E75.43078
G1 X124.859 Y132.455 E75.48565
G1 X125.459 Y133.667 E75.58686
G1 X125.709 Y134.262 E75.63516
G1 X125.921 Y134.866 E75.68306
G1 X126.083 Y135.434 E75.72726
G1 X126.232 Y136.106 E75.77877
G1 X126.321 Y136.668 E75.82135
G1 X126.384 Y137.298 E75.86874
G1 X126.41 Y137.966 E75.91876
G1 X126.396 Y138.577 E75.9645
G1 X126.349 Y139.185 E76.01014
G1 X126.259 Y139.817 E76.05791
G1 X126.133 Y140.444 E76.10577
G1 X122.826 Y154.617 E77.1949
G1 X99.586 Y154.621 E78.93407
G1 F1500 E72.43407
G0 F6000 X99.107 Y154.62
G0 X99.187 Y131.334
G0 X97.432 Y131.335
G0 X112.179 Y129.554
G0 X110.69 Y130.491
G0 X111.65 Y131.336
G1 F1500 E78.93407
G0 F6000 X111.398 Y131.745
G1 F600 X111.838 Y131.97 E78.97105
G1 X112.308 Y132.129 E79.00818
G1 X112.798 Y132.212 E79.04538
G1 X113.29 Y132.221 E79.0822
G1 X113.782 Y132.154 E79.11936
