;FLAVOR:Marlin
;TIME:3196
;Filament used: 1.43021m
;Layer height: 0.2
;MINX:84.476
;MINY:64.99
;MINZ:0.3
;MAXX:134.8
;MAXY:124.665
;MAXZ:8.9
;Generated with Cura_SteamEngine 4.12.1
M140 S80
M105
M190 S80
M104 S220
M105
M109 S220
M82 ;absolute extrusion mode
; Ender 3 Custom Start G-code
G92 E0 ; Reset Extruder
G28 ; Home all axes
G1 Z2.0 F3000 ; Move Z Axis up little to prevent scratching of Heat Bed
G1 X0.1 Y20 Z0.3 F5000.0 ; Move to start position
G1 X0.1 Y200.0 Z0.3 F1500.0 E15 ; Draw the first line
G1 X0.4 Y200.0 Z0.3 F5000.0 ; Move to side a little
G1 X0.4 Y20 Z0.3 F1500.0 E30 ; Draw the second line
G92 E0 ; Reset Extruder
G1 Z2.0 F3000 ; Move Z Axis up little to prevent scratching of Heat Bed
G1 X5 Y20 Z0.3 F5000.0 ; Move over to prevent blob squish
G92 E0
G92 E0
G1 F1500 E-6.5
;LAYER_COUNT:44
;LAYER:0
M107
;MESH:Front_SuspensionBottomRight.stl
G0 F6000 X99.213 Y90.855 Z0.3
;TYPE:WALL-INNER
G1 F1500 E0
G1 F600 X120.583 Y69.363 E2.26812
G1 X119.956 Y68.19 E2.36765
G1 X98.1 Y72.441 E4.0339
G1 X98.1 Y90.396 E5.37757
G1 X99.213 Y90.855 E5.46767
G0 F6000 X99.071 Y90.147
;TYPE:WALL-OUTER
G1 F600 X119.845 Y69.255 E7.6725
G1 X119.636 Y68.864 E7.70568
G1 X98.7 Y72.936 E9.30179
G1 X98.7 Y89.994 E10.57833
G1 X99.071 Y90.147 E10.60836
G1 F1500 E4.10836
G0 F6000 X99.282 Y90.359
G0 X110.278 Y79.996
G0 X111.265 Y80.975
G0 X101.745 Y90.531
G0 X102.019 Y91.187
G0 X121.9 Y91.554
;TYPE:WALL-INNER
G1 F1500 E10.60836
G1 F600 X121.9 Y71.32 E12.12258
G1 X120.787 Y70.861 E12.21268
G1 X101.312 Y90.445 E14.27955
G1 X101.774 Y91.554 E14.36946
G1 X121.9 Y91.554 E15.87559
G0 F6000 X121.3 Y90.954
;TYPE:WALL-OUTER
G1 F600 X121.3 Y71.722 E17.31483
G1 X120.929 Y71.569 E17.34486
G1 X102.02 Y90.584 E19.35167
G1 X102.174 Y90.954 E19.38166
G1 X121.3 Y90.954 E20.81296
G1 F1500 E14.31296
G0 F6000 X121.6 Y90.954
G0 X102.019 Y91.187
G0 X101.083 Y90.399
G0 X97.11 Y90.399
G0 X96.9 Y91.554
;TYPE:WALL-INNER
G1 F1500 E20.81296
G1 F600 X96.9 Y74.754 E22.0702
G1 X88.75 Y74.754 E22.68011
G1 X88.749 Y73.037 E22.8086
G1 X122.084 Y66.554 E25.34997
G1 X131.25 Y66.554 E26.03591
G1 X131.251 Y67.754 E26.12571
G1 X123.1 Y67.754 E26.7357
G1 X123.1 Y91.554 E28.51678
G1 X132.638 Y91.554 E29.23056
G1 X132.639 Y92.754 E29.32036
G1 X87.362 Y92.754 E32.70868
G1 X87.361 Y91.554 E32.79848
G1 X96.9 Y91.554 E33.51233
G0 F6000 X96.3 Y90.954
;TYPE:WALL-OUTER
G1 F600 X96.3 Y75.354 E34.67976
G1 X88.15 Y75.354 E35.28967
G1 X88.149 Y72.542 E35.50011
G1 X122.026 Y65.954 E38.0828
G1 X131.85 Y65.954 E38.81798
G1 X131.851 Y68.354 E38.99758
G1 X123.7 Y68.354 E39.60757
G1 X123.7 Y90.954 E41.29884
G1 X133.238 Y90.954 E42.01262
G1 X133.239 Y93.354 E42.19223
G1 X86.762 Y93.354 E45.67035
G1 X86.761 Y90.954 E45.84995
G1 X96.3 Y90.954 E46.56381
G0 F6000 X96.6 Y90.954
G0 X97.01 Y90.791
G0 X97.51 Y90.791
;TYPE:SKIN
G1 F600 X99.353 Y91.551 E46.71299
G1 X121.309 Y69.469 E49.04334
G1 X120.271 Y67.527 E49.20813
G1 X97.51 Y71.955 E50.94339
G1 X97.51 Y90.791 E52.35299
G0 F6000 X97.01 Y90.791
G0 X97.082 Y91.736
G0 X87.543 Y91.736
G0 X87.544 Y92.572
G0 X97.49 Y92.644
G0 X97.49 Y92.144
G1 F600 X97.49 Y74.164 E53.69853
G1 X89.34 Y74.164 E54.30844
G1 X89.339 Y73.523 E54.3564
G1 X122.139 Y67.144 E56.85699
G1 X130.66 Y67.144 E57.49466
G1 X130.661 Y67.164 E57.49616
G1 X122.51 Y67.164 E58.10614
G1 X122.51 Y92.144 E59.97553
G1 X132.048 Y92.144 E60.68931
G1 X132.049 Y92.164 E60.69081
G1 X87.952 Y92.164 E63.99082
G1 X87.951 Y92.144 E63.99232
G1 X97.49 Y92.144 E64.70617
G1 F1500 E58.20617
G0 F6000 X97.49 Y92.644
G0 X100.265 Y92.544
G0 X99.26 Y91.084
G0 X100.265 Y89.955
G1 F1500 E64.70617
G0 F6000 X100.616 Y90.308
G1 F600 X101.381 Y92.144 E64.85502
G1 X122.49 Y92.144 E66.43472
G1 X122.49 Y70.925 E68.02265
G1 X120.647 Y70.165 E68.17184
G1 X100.616 Y90.308 E70.29772
G1 F1500 E63.79772
G0 F6000 X100.265 Y89.955
G0 X98.601 Y90.809
G0 X98.601 Y92.544
G0 X97.843 Y92.644
G1 F1500 E70.29772
G0 F6000 X97.843 Y91.904
G1 F600 X97.749 Y91.809 E70.30772
G0 F6000 X98.106 Y91.318
G1 F600 X98.692 Y91.904 E70.36973
G0 F6000 X99.453 Y91.817
G1 F600 X99.54 Y91.904 E70.37894
G0 F6000 X99.876 Y91.391
G1 F600 X100.389 Y91.904 E70.43323
G0 F6000 X100.828 Y91.494
G1 F600 X100.299 Y90.965 E70.48922
G1 F1500 E63.98922
G0 F6000 X99.779 Y90.444
G0 X99.125 Y90.422
G0 X98.467 Y90.15
G0 X97.91 Y74.644
G0 X97.11 Y74.644
G0 X96.814 Y74.644
G1 F1500 E70.48922
G0 F6000 X96.814 Y73.903
G1 F600 X95.499 Y72.588 E70.62839
G0 F6000 X96.209 Y72.45
G1 F600 X97.249 Y73.491 E70.73851
G0 F6000 X97.249 Y72.642
G1 F600 X96.919 Y72.312 E70.77344
G0 F6000 X96.779 Y71.587
G0 X88.929 Y73.185
G0 X88.932 Y74.572
G0 X95.965 Y74.644
G0 X95.965 Y73.903
G1 F600 X94.789 Y72.727 E70.89789
G0 F6000 X94.078 Y72.865
G1 F600 X95.117 Y73.903 E71.0078
G0 F6000 X94.268 Y73.903
G1 F600 X93.367 Y73.003 E71.10311
G0 F6000 X92.657 Y73.141
G1 F600 X93.42 Y73.903 E71.1838
G0 F6000 X92.571 Y73.903
G1 F600 X91.947 Y73.279 E71.24984
G0 F6000 X91.723 Y73.903
G1 F600 X91.237 Y73.418 E71.30122
G0 F6000 X90.874 Y73.903
G1 F600 X90.526 Y73.556 E71.338
G0 F6000 X90.026 Y73.903
G1 F600 X89.816 Y73.694 E71.36017
G1 F1500 E64.86017
G0 F6000 X89.677 Y72.968
G0 X120.086 Y67.156
G0 X120.06 Y67.972
G0 X120.404 Y68.795
G1 F1500 E71.36017
G0 F6000 X121.056 Y68.447
G1 F600 X122.248 Y69.64 E71.48638
G0 F6000 X121.451 Y69.691
G1 F600 X122.248 Y70.488 E71.57073
G0 F6000 X122.99 Y70.488
G0 X122.99 Y68.791
G0 X122.248 Y68.791
G1 F600 X121.072 Y67.615 E71.69519
G0 F6000 X121.783 Y67.477
G1 F600 X122.248 Y67.943 E71.74445
G0 F6000 X123.076 Y67.73
G1 F1500 E65.24445
;MESH:Front_SuspensionBottomLeft.stl
G0 F6000 X122.918 Y91.736
G0 X132.456 Y91.736
G0 X132.457 Y92.572
G0 X120.787 Y93.134
G0 X120.787 Y94.319
G0 X119.544 Y99.51
G0 X119.054 Y102.038
G0 X121.53 Y103.091
G0 X121.533 Y120.496
G0 X120.787 Y121.201
;TYPE:WALL-INNER
G1 F1500 E71.74445
G1 F600 X121.9 Y120.742 E71.83455
G1 X121.9 Y102.786 E73.17829
G1 X100.044 Y98.536 E74.84453
G1 X99.417 Y99.709 E74.94407
G1 X120.787 Y121.201 E77.21218
G0 F6000 X120.929 Y120.493
;TYPE:WALL-OUTER
G1 F600 X121.3 Y120.34 E77.24222
G1 X121.3 Y103.281 E78.51883
G1 X100.364 Y99.21 E80.11493
G1 X100.155 Y99.601 E80.14811
G1 X120.929 Y120.493 E82.35294
G1 F1500 E75.85294
G0 F6000 X120.716 Y120.703
G0 X109.724 Y110.344
G0 X108.739 Y111.325
G0 X118.255 Y120.877
G0 X117.981 Y121.533
G0 X98.1 Y121.9
;TYPE:WALL-INNER
G1 F1500 E82.35294
G1 F600 X118.226 Y121.9 E83.85907
G1 X118.688 Y120.791 E83.94898
G1 X99.213 Y101.207 E86.01585
G1 X98.1 Y101.666 E86.10595
G1 X98.1 Y121.9 E87.62017
G0 F6000 X98.7 Y121.3
;TYPE:WALL-OUTER
G1 F600 X117.826 Y121.3 E89.05147
G1 X117.98 Y120.93 E89.08146
G1 X99.071 Y101.915 E91.08827
G1 X98.7 Y102.068 E91.11831
G1 X98.7 Y121.3 E92.55754
G1 F1500 E86.05754
G0 F6000 X98.4 Y121.3
G0 X97.91 Y121.9
G0 X97.11 Y121.9
G0 X96.9 Y121.9
;TYPE:WALL-INNER
G1 F1500 E92.55754
G1 F600 X96.9 Y98.1 E94.33862
G1 X88.75 Y98.1 E94.94853
G1 X88.749 Y96.9 E95.03833
G1 X97.916 Y96.9 E95.72434
G1 X131.25 Y103.381 E98.26562
G1 X131.25 Y105.1 E98.39426
G1 X123.1 Y105.1 E99.00417
G1 X123.1 Y121.9 E100.2614
G1 X132.638 Y121.9 E100.97518
G1 X132.639 Y123.1 E101.06498
G1 X87.362 Y123.1 E104.4533
G1 X87.361 Y121.9 E104.5431
G1 X96.9 Y121.9 E105.25696
G0 F6000 X96.3 Y121.3
;TYPE:WALL-OUTER
G1 F600 X96.3 Y98.7 E106.94823
G1 X88.15 Y98.7 E107.55814
G1 X88.149 Y96.3 E107.73775
G1 X97.974 Y96.3 E108.473
G1 X131.85 Y102.886 E111.05559
G1 X131.85 Y105.7 E111.26618
G1 X123.7 Y105.7 E111.87608
G1 X123.7 Y121.3 E113.04351
G1 X133.238 Y121.3 E113.75729
G1 X133.239 Y123.7 E113.9369
G1 X86.762 Y123.7 E117.41502
G1 X86.761 Y121.3 E117.59462
G1 X96.3 Y121.3 E118.30848
G0 F6000 X96.6 Y121.3
G0 X97.007 Y122.075
G0 X87.543 Y122.082
G0 X87.544 Y122.918
G0 X97.49 Y122.99
G0 X97.49 Y122.49
;TYPE:SKIN
G1 F600 X97.49 Y97.51 E120.17786
G1 X89.34 Y97.51 E120.78777
G1 X89.339 Y97.49 E120.78927
G1 X97.861 Y97.49 E121.42702
G1 X130.66 Y103.867 E123.9275
G1 X130.66 Y104.51 E123.97562
G1 X122.51 Y104.51 E124.58553
G1 X122.51 Y122.49 E125.93107
G1 X132.048 Y122.49 E126.64485
G1 X132.049 Y122.51 E126.64634
G1 X87.952 Y122.51 E129.94636
G1 X87.951 Y122.49 E129.94786
G1 X97.49 Y122.49 E130.66171
G0 F6000 X97.51 Y122.49
G1 F600 X118.619 Y122.49 E132.24141
G1 X119.384 Y120.654 E132.39026
G1 X99.353 Y100.511 E134.51613
G1 X97.51 Y101.271 E134.66532
G1 X97.51 Y122.49 E136.25325
G1 F1500 E129.75325
G0 F6000 X97.51 Y122.99
G0 X99.271 Y122.89
G0 X99.271 Y124.665
G0 X108.975 Y113.244
G0 X110.801 Y111.427
G0 X99.271 Y99.719
G1 F1500 E136.25325
G0 F6000 X98.691 Y99.815
G1 F600 X120.647 Y121.897 E138.5836
G1 X122.49 Y121.137 E138.73279
G1 X122.49 Y102.3 E140.14246
G1 X99.729 Y97.873 E141.87771
G1 X98.691 Y99.815 E142.04249
G1 F1500 E135.54249
G0 F6000 X99.271 Y99.719
G0 X119.663 Y120.34
G0 X118.917 Y120.745
G0 X118.526 Y121.468
G1 F1500 E142.04249
G0 F6000 X119.206 Y121.752
G1 F600 X119.703 Y122.249 E142.09509
G0 F6000 X120.552 Y122.249
G1 F600 X119.456 Y121.153 E142.21109
G1 F1500 E135.71109
G0 F6000 X118.776 Y120.869
G0 X119.481 Y120.185
G0 X120.849 Y121.295
G1 F1500 E142.21109
G0 F6000 X121.13 Y121.978
G1 F600 X121.401 Y122.249 E142.23977
G0 F6000 X121.731 Y121.731
G1 F600 X122.249 Y122.249 E142.29459
G1 F1500 E135.79459
G0 F6000 X122.249 Y122.99
G0 X132.457 Y122.918
G0 X132.456 Y122.082
G0 X122.918 Y122.082
G0 X122.917 Y104.99
G1 F1500 E142.29459
G0 F6000 X122.917 Y104.25
G1 F600 X122.749 Y104.081 E142.31242
G0 F6000 X122.749 Y103.233
G1 F600 X123.766 Y104.25 E142.42005
G0 F6000 X124.614 Y104.25
G1 F600 X123.008 Y102.643 E142.59007
G0 F6000 X123.149 Y101.919
G0 X124.202 Y102.123
G0 X124.061 Y102.847
M104 S210
G1 F600 X125.463 Y104.25 E142.73851
G0 F6000 X126.311 Y104.25
G1 F600 X125.114 Y103.053 E142.86519
G0 F6000 X125.255 Y102.328
G0 X126.31 Y102.533
G0 X126.168 Y103.258
G1 F600 X127.16 Y104.25 E142.97017
G0 F6000 X127.221 Y103.463
G1 F600 X128.008 Y104.25 E143.05346
G0 F6000 X128.275 Y103.668
G1 F600 X128.857 Y104.25 E143.11506
G0 F6000 X129.329 Y103.873
G1 F600 X129.706 Y104.25 E143.15496
G1 F1500 E136.65496
G0 F6000 X129.706 Y104.99
G0 X131.068 Y104.918
G0 X131.07 Y103.529
G0 X100.067 Y97.513
G0 X99.94 Y98.318
G0 X99.838 Y98.688
G1 F1500 E143.15496
G0 F6000 X99.185 Y98.337
G1 F600 X98.782 Y97.934 E143.19761
G0 F6000 X98.89 Y98.89
G1 F600 X97.749 Y97.749 E143.31836
G0 F6000 X97.749 Y98.598
G1 F600 X98.594 Y99.443 E143.40779
G0 F6000 X97.749 Y99.446
G1 F600 X98.771 Y100.468 E143.51596
G0 F6000 X98.171 Y100.716
G1 F600 X97.749 Y100.295 E143.56056
G0 F6000 X97.1 Y100.295
G1 F1500 E137.06056
;MESH:NONMESH
G0 F300 X97.1 Y100.295 Z0.5
G0 F6000 X97.01 Y100.295
G0 X97.082 Y97.918
G0 X88.932 Y97.918
G0 X88.931 Y97.082
G0 X97.956 Y96.519
G0 X98.181 Y95.357
G0 X99.26 Y94.319
G0 X99.26 Y91.084
G0 X99.142 Y90.501
;TIME_ELAPSED:221.783458
;LAYER:1
M140 S65
M106 S63.8
;TYPE:WALL-INNER
;MESH:Front_SuspensionBottomRight.stl
G1 F1500 E143.56056
G1 F900 X120.214 Y69.31 E144.55453
G1 X119.797 Y68.527 E144.58403
G1 X98.4 Y72.688 E145.30903
G1 X98.4 Y90.195 E145.89132
G1 X99.142 Y90.501 E145.91801
G0 F7000 X99.047 Y90.029
;TYPE:WALL-OUTER
G1 F900 X119.722 Y69.237 E146.89326
G1 X119.583 Y68.976 E146.90309
G1 X98.8 Y73.018 E147.60729
G1 X98.8 Y89.927 E148.16969
G1 X99.047 Y90.029 E148.17857
G1 F1500 E141.67857
G0 F7000 X99.258 Y90.241
G0 X110.08 Y79.799
G0 X111.058 Y80.773
G0 X101.863 Y90.555
G0 X102.086 Y91.087
G0 X121.6 Y91.254
;TYPE:WALL-INNER
G1 F1500 E148.17857
G1 F900 X121.6 Y71.521 E148.8349
G1 X120.858 Y71.215 E148.86159
G1 X101.666 Y90.516 E149.76689
G1 X101.975 Y91.254 E149.7935
G1 X121.6 Y91.254 E150.44623
G0 F7000 X121.2 Y90.854
;TYPE:WALL-OUTER
G1 F900 X121.2 Y71.789 E151.08034
G1 X120.953 Y71.687 E151.08923
G1 X102.138 Y90.608 E151.97672
G1 X102.241 Y90.854 E151.98559
G1 X121.2 Y90.854 E152.61617
G1 F1500 E146.11617
G0 F7000 X121.5 Y90.854
G0 X102.086 Y91.087
G0 X101.863 Y90.555
G0 X102.952 Y88.981
G0 X103.97 Y89.992
G0 X95.347 Y90.001
G0 X96.81 Y90.471
G0 X96.6 Y91.254
;TYPE:WALL-INNER
G1 F1500 E152.61617
G1 F900 X96.6 Y75.054 E153.15498
G1 X88.2 Y75.054 E153.43437
G1 X88.199 Y72.838 E153.50807
G1 X122.057 Y66.254 E154.65529
G1 X131.8 Y66.254 E154.97934
G1 X131.801 Y68.054 E155.03921
G1 X123.4 Y68.054 E155.31863
G1 X123.4 Y91.254 E156.09027
G1 X133.142 Y91.254 E156.41429
G1 X133.143 Y93.054 E156.47415
G1 X86.858 Y93.054 E158.0136
G1 X86.857 Y91.254 E158.07347
G1 X96.6 Y91.254 E158.39752
G0 F7000 X96.2 Y90.854
;TYPE:WALL-OUTER
G1 F900 X96.2 Y75.454 E158.90973
G1 X87.8 Y75.454 E159.18911
G1 X87.799 Y72.508 E159.2871
G1 X122.017 Y65.854 E160.44651
G1 X132.2 Y65.854 E160.7852
G1 X132.201 Y68.454 E160.87167
G1 X123.8 Y68.454 E161.15109
G1 X123.8 Y90.854 E161.89612
G1 X133.542 Y90.854 E162.22014
G1 X133.543 Y93.454 E162.30662
G1 X86.458 Y93.454 E163.87267
G1 X86.457 Y90.854 E163.95915
G1 X96.2 Y90.854 E164.2832
G0 F7000 X96.5 Y90.854
G0 X96.74 Y91.394
G0 X96.99 Y91.644
;TYPE:SKIN
G1 F900 X96.99 Y74.664 E164.84796
G1 X88.59 Y74.664 E165.12734
G1 X88.589 Y73.159 E165.1774
G1 X122.095 Y66.644 E166.31268
G1 X131.41 Y66.644 E166.6225
G1 X131.411 Y67.664 E166.65643
G1 X123.01 Y67.664 E166.93585
G1 X123.01 Y91.644 E167.73342
G1 X132.752 Y91.644 E168.05744
G1 X132.753 Y92.664 E168.09137
G1 X87.248 Y92.664 E169.60487
G1 X87.247 Y91.644 E169.6388
G1 X96.99 Y91.644 E169.96285
G1 F1500 E163.46285
G0 F7000 X96.71 Y91.394
G0 X96.81 Y90.281
G0 X98.21 Y90.281
G1 F1500 E169.96285
G0 F7000 X98.01 Y90.456
G1 F900 X99.234 Y90.961 E170.00689
G1 X120.694 Y69.381 E171.01913
G1 X120.006 Y68.089 E171.06781
G1 X98.01 Y72.366 E171.81311
G1 X98.01 Y90.456 E172.41478
G1 F1500 E165.91478
G0 F7000 X98.29 Y90.281
G0 X99.101 Y90.304
G0 X100.478 Y89.455
G0 X101.457 Y90.429
G1 F1500 E172.41478
G0 F7000 X101.206 Y90.426
G1 F900 X101.716 Y91.644 E172.4587
G1 X121.99 Y91.644 E173.13302
G1 X121.99 Y71.26 E173.81099
G1 X120.766 Y70.755 E173.85503
G1 X101.206 Y90.426 E174.77769
G1 F1500 E168.27769
G0 F7000 X101.527 Y90.499
G0 X103.347 Y88.557
G0 X104.378 Y89.581
G0 X95.335 Y88.557
G0 X96.81 Y88.557
G0 X96.782 Y74.872
G0 X88.993 Y74.808
G0 X88.309 Y73.602
G1 F1500 E174.77769
G0 F7000 X88.748 Y73.602
G1 F900 X89.138 Y73.213 E174.79601
G0 F7000 X89.84 Y73.076
G1 F900 X88.749 Y74.167 E174.84733
G0 F7000 X88.978 Y74.504
G1 F900 X90.542 Y72.94 E174.92089
G0 F7000 X91.245 Y72.803
G1 F900 X89.544 Y74.504 E175.0009
G0 F7000 X90.11 Y74.504
G1 F900 X91.947 Y72.667 E175.08731
G0 F7000 X92.649 Y72.53
G1 F900 X90.675 Y74.504 E175.18016
G0 F7000 X91.241 Y74.504
G1 F900 X93.351 Y72.394 E175.27941
G0 F7000 X94.053 Y72.257
G1 F900 X91.807 Y74.504 E175.38508
G0 F7000 X92.372 Y74.504
G1 F900 X94.755 Y72.121 E175.49716
G0 F7000 X95.458 Y71.984
G1 F900 X92.938 Y74.504 E175.6157
G0 F7000 X93.504 Y74.504
G1 F900 X96.16 Y71.848 E175.74063
G0 F7000 X96.862 Y71.711
G1 F900 X94.069 Y74.504 E175.872
G0 F7000 X94.635 Y74.504
G1 F900 X97.565 Y71.574 E176.00982
G0 F7000 X98.267 Y71.438
G1 F900 X95.201 Y74.504 E176.15404
G0 F7000 X95.767 Y74.504
G1 F900 X97.849 Y72.421 E176.25199
G0 F7000 X98.082 Y72.188
G1 F900 X98.969 Y71.301 E176.29371
G0 F7000 X99.671 Y71.165
G1 F900 X98.784 Y72.052 E176.33543
G0 F7000 X99.487 Y71.915
G1 F900 X100.373 Y71.028 E176.37713
G0 F7000 X101.075 Y70.892
G1 F900 X100.189 Y71.779 E176.41883
G0 F7000 X100.891 Y71.642
G1 F900 X101.778 Y70.755 E176.46055
G0 F7000 X102.48 Y70.619
G1 F900 X101.593 Y71.506 E176.50227
G0 F7000 X102.295 Y71.369
G1 F900 X103.182 Y70.482 E176.54399
G0 F7000 X103.884 Y70.346
G1 F900 X102.997 Y71.233 E176.58572
G0 F7000 X103.7 Y71.096
G1 F900 X104.586 Y70.21 E176.62739
G0 F7000 X105.288 Y70.073
G1 F900 X104.402 Y70.959 E176.66907
G0 F7000 X105.105 Y70.823
G1 F900 X105.991 Y69.937 E176.71074
G0 F7000 X106.693 Y69.799
G1 F900 X105.807 Y70.686 E176.75244
G0 F7000 X106.509 Y70.55
G1 F900 X107.396 Y69.663 E176.79416
G0 F7000 X108.098 Y69.526
G1 F900 X107.211 Y70.413 E176.83588
G0 F7000 X107.913 Y70.277
G1 F900 X108.8 Y69.39 E176.8776
G0 F7000 X109.502 Y69.254
G1 F900 X108.615 Y70.14 E176.9193
G0 F7000 X109.318 Y70.004
G1 F900 X110.204 Y69.117 E176.961
G0 F7000 X110.906 Y68.981
G1 F900 X110.02 Y69.867 E177.00268
G0 F7000 X110.723 Y69.73
G1 F900 X111.609 Y68.844 E177.04435
G0 F7000 X112.311 Y68.708
G1 F900 X111.425 Y69.594 E177.08602
