;FLAVOR:Marlin
;TIME:682
;Filament used: 0.276855m
;Layer height: 0.2
;MINX:97.53
;MINY:105.7
;MINZ:0.3
;MAXX:113.3
;MAXY:114.3
;MAXZ:10.1
;Generated with Cura_SteamEngine 4.12.1
M140 S80
M105
M190 S80
M104 S220
M105
M109 S220
M82 ;absolute extrusion mode
; Ender 3 Custom Start G-code
G92 E0 ; Reset Extruder
G28 ; Home all axes
G1 Z2.0 F3000 ; Move Z Axis up little to prevent scratching of Heat Bed
G1 X0.1 Y20 Z0.3 F5000.0 ; Move to start position
G1 X0.1 Y200.0 Z0.3 F1500.0 E15 ; Draw the first line
G1 X0.4 Y200.0 Z0.3 F5000.0 ; Move to side a little
G1 X0.4 Y20 Z0.3 F1500.0 E30 ; Draw the second line
G92 E0 ; Reset Extruder
G1 Z2.0 F3000 ; Move Z Axis up little to prevent scratching of Heat Bed
G1 X5 Y20 Z0.3 F5000.0 ; Move over to prevent blob squish
G92 E0
G92 E0
G1 F1500 E-6.5
;LAYER_COUNT:50
;LAYER:0
M107
;MESH:Front_WheelLock.stl(1)
G0 F6000 X101.069 Y112.341 Z0.3
;TYPE:WALL-INNER
G1 F1500 E0
G1 F600 X101.51 Y112.252 E0.03367
G1 X101.93 Y112.08 E0.06763
G1 X102.308 Y111.832 E0.10146
G1 X102.63 Y111.515 E0.13528
G1 X102.885 Y111.144 E0.16897
G1 X103.067 Y110.73 E0.20281
G1 X103.165 Y110.287 E0.23677
G1 X103.176 Y109.836 E0.27053
G1 X103.102 Y109.392 E0.30421
G1 X102.945 Y108.967 E0.33812
G1 X102.708 Y108.584 E0.37182
G1 X102.404 Y108.251 E0.40557
G1 X102.04 Y107.982 E0.43944
G1 X101.631 Y107.788 E0.47331
G1 X101.2 Y107.678 E0.5066
G1 X100.885 Y107.649 E0.53027
G1 X100.442 Y107.679 E0.5635
G1 X100.006 Y107.796 E0.59728
G1 X99.6 Y107.994 E0.63109
G1 X99.238 Y108.267 E0.66502
G1 X98.937 Y108.603 E0.69878
G1 X98.704 Y108.991 E0.73265
G1 X98.551 Y109.417 E0.76652
G1 X98.481 Y109.861 E0.80016
G1 X98.498 Y110.313 E0.83401
G1 X98.602 Y110.754 E0.86792
G1 X98.786 Y111.167 E0.90175
G1 X99.047 Y111.536 E0.93557
G1 X99.373 Y111.846 E0.96924
G1 X99.752 Y112.092 E1.00305
G1 X100.172 Y112.259 E1.03688
G1 X100.617 Y112.342 E1.07075
G1 X101.069 Y112.341 E1.10458
G0 F6000 X101.008 Y111.741
;TYPE:WALL-OUTER
G1 F600 X101.336 Y111.675 E1.12962
G1 X101.649 Y111.547 E1.15492
G1 X101.929 Y111.363 E1.18
G1 X102.168 Y111.128 E1.20508
G1 X102.358 Y110.851 E1.23022
G1 X102.494 Y110.542 E1.25548
G1 X102.567 Y110.214 E1.28063
G1 X102.575 Y109.878 E1.30578
G1 X102.52 Y109.547 E1.33089
G1 X102.403 Y109.232 E1.35604
G1 X102.227 Y108.947 E1.3811
G1 X102 Y108.699 E1.40626
G1 X101.73 Y108.499 E1.43141
G1 X101.426 Y108.355 E1.45658
G1 X101.098 Y108.271 E1.48192
G1 X100.878 Y108.251 E1.49845
G1 X100.541 Y108.274 E1.52373
G1 X100.217 Y108.361 E1.54884
G1 X99.915 Y108.508 E1.57397
G1 X99.646 Y108.711 E1.59919
G1 X99.422 Y108.961 E1.62431
G1 X99.249 Y109.249 E1.64945
G1 X99.135 Y109.566 E1.67466
G1 X99.083 Y109.897 E1.69974
G1 X99.095 Y110.232 E1.72482
G1 X99.173 Y110.561 E1.75013
G1 X99.31 Y110.869 E1.77535
G1 X99.503 Y111.142 E1.80037
G1 X99.746 Y111.373 E1.82546
G1 X100.029 Y111.556 E1.85068
G1 X100.34 Y111.68 E1.87574
G1 X100.672 Y111.742 E1.90101
G1 X101.008 Y111.741 E1.92616
G0 F6000 X101.074 Y112.397
G0 X103.227 Y110.867
G0 X103.245 Y112.432
G0 X102.6 Y112.909
G0 X101.287 Y113.57
;TYPE:WALL-INNER
G1 F600 X101.024 Y113.593 E1.94592
G1 X100.762 Y113.599 E1.96553
G1 X100.497 Y113.584 E1.98539
G1 X100.244 Y113.551 E2.00449
G1 X99.981 Y113.498 E2.02456
G1 X99.732 Y113.428 E2.04392
G1 X99.488 Y113.34 E2.06333
G1 X99.242 Y113.23 E2.0835
G1 X99.01 Y113.106 E2.10318
G1 X98.789 Y112.966 E2.12276
G1 X98.58 Y112.81 E2.14228
G1 X98.38 Y112.637 E2.16207
G1 X98.23 Y112.488 E2.17789
G1 X98.23 Y110.754 E2.30765
G1 X98.23 Y109.861 E2.35116
G1 X98.23 Y108.991 E2.39056
G1 X98.231 Y107.514 E2.50109
G1 X98.293 Y107.447 E2.50792
G1 X98.498 Y107.257 E2.52884
G1 X98.687 Y107.107 E2.5469
G1 X98.911 Y106.954 E2.5672
G1 X99.132 Y106.827 E2.58627
G1 X99.382 Y106.705 E2.60709
G1 X99.614 Y106.612 E2.62579
G1 X99.862 Y106.532 E2.64529
G1 X100.126 Y106.47 E2.66559
G1 X100.373 Y106.43 E2.68431
G1 X100.635 Y106.407 E2.704
G1 X100.898 Y106.401 E2.72368
G1 X101.163 Y106.416 E2.74355
G1 X101.416 Y106.449 E2.76264
G1 X101.679 Y106.502 E2.78272
G1 X101.922 Y106.57 E2.8016
G1 X102.169 Y106.659 E2.82125
G1 X102.423 Y106.772 E2.84205
G1 X102.65 Y106.894 E2.86134
G1 X102.865 Y107.03 E2.88038
G1 X103.069 Y107.182 E2.89941
G1 X103.282 Y107.364 E2.92038
G1 X103.43 Y107.512 E2.93604
G1 X103.43 Y109.392 E3.07673
G1 X103.43 Y110.287 E3.11791
G1 X103.43 Y111.144 E3.15885
G1 X103.429 Y112.486 E3.25928
G1 X103.367 Y112.553 E3.26611
G1 X103.168 Y112.737 E3.28639
G1 X102.967 Y112.896 E3.30557
G1 X102.76 Y113.039 E3.3244
G1 X102.528 Y113.173 E3.34445
G1 X102.278 Y113.295 E3.36526
G1 X102.046 Y113.388 E3.38397
G1 X101.8 Y113.467 E3.40331
G1 X101.534 Y113.53 E3.42376
G1 X101.287 Y113.57 E3.44249
G0 F6000 X101.353 Y114.167
;TYPE:WALL-OUTER
G1 F600 X101.06 Y114.193 E3.4645
G1 X100.755 Y114.199 E3.48733
G1 X100.439 Y114.182 E3.51101
G1 X100.148 Y114.144 E3.53297
G1 X99.836 Y114.081 E3.55679
G1 X99.551 Y114.001 E3.57895
G1 X99.267 Y113.898 E3.60155
G1 X98.977 Y113.769 E3.62531
G1 X98.706 Y113.624 E3.64831
G1 X98.449 Y113.461 E3.67108
G1 X98.206 Y113.279 E3.6938
G1 X97.974 Y113.079 E3.71672
G1 X97.763 Y112.869 E3.739
G1 X97.63 Y112.72 E3.75395
G1 X97.631 Y107.279 E4.16113
G1 X97.868 Y107.022 E4.18729
G1 X98.101 Y106.807 E4.21102
G1 X98.341 Y106.617 E4.23392
G1 X98.593 Y106.445 E4.25676
G1 X98.848 Y106.298 E4.27878
G1 X99.132 Y106.159 E4.30244
G1 X99.415 Y106.046 E4.32525
G1 X99.703 Y105.953 E4.3479
G1 X100.004 Y105.882 E4.37104
G1 X100.307 Y105.833 E4.39401
G1 X100.599 Y105.807 E4.41595
G1 X100.905 Y105.801 E4.43885
G1 X101.221 Y105.818 E4.46253
G1 X101.512 Y105.856 E4.4845
G1 X101.824 Y105.919 E4.50832
G1 X102.106 Y105.998 E4.53023
G1 X102.392 Y106.101 E4.55298
G1 X102.683 Y106.231 E4.57683
G1 X102.954 Y106.376 E4.59983
G1 X103.2 Y106.532 E4.62163
G1 X103.447 Y106.716 E4.64468
G1 X103.686 Y106.921 E4.66825
G1 X103.895 Y107.129 E4.69031
G1 X104.03 Y107.28 E4.70547
G1 X104.029 Y112.721 E5.11265
G1 X103.792 Y112.978 E5.13881
G1 X103.559 Y113.193 E5.16254
G1 X103.328 Y113.376 E5.18459
G1 X103.074 Y113.551 E5.20767
G1 X102.812 Y113.702 E5.2303
G1 X102.528 Y113.841 E5.25397
G1 X102.245 Y113.954 E5.27677
G1 X101.96 Y114.046 E5.29918
G1 X101.656 Y114.118 E5.32256
G1 X101.353 Y114.167 E5.34553
G0 F6000 X101.272 Y113.513
G0 X101.22 Y112.984
;TYPE:SKIN
G1 F600 X100.782 Y113.009 E5.37836
G1 X100.337 Y112.968 E5.4118
G1 X99.913 Y112.866 E5.44444
G1 X99.508 Y112.703 E5.47711
G1 X99.116 Y112.474 E5.51109
G1 X98.82 Y112.238 E5.53942
G1 X98.82 Y112.135 E5.54712
G1 X99.006 Y112.312 E5.56634
G1 X99.48 Y112.619 E5.6086
G1 X100.007 Y112.829 E5.65105
G1 X100.564 Y112.932 E5.69344
G1 X101.128 Y112.931 E5.73565
G1 X101.681 Y112.819 E5.77788
G1 X102.206 Y112.605 E5.8203
G1 X102.68 Y112.294 E5.86273
G1 X102.839 Y112.137 E5.87945
G1 X102.839 Y112.238 E5.88701
G1 X102.62 Y112.419 E5.90827
G1 X102.261 Y112.646 E5.94006
G1 X102.023 Y112.762 E5.95987
G1 X101.633 Y112.901 E5.99085
G1 X101.22 Y112.984 E6.02238
G0 F6000 X101.295 Y113.457
G0 X102.448 Y113.022
G0 X103.245 Y112.432
G0 X103.227 Y110.867
G0 X102.742 Y111.548
G0 X102.864 Y111.632
;TYPE:SKIN
G1 F600 X103.169 Y111.937 E6.03314
G0 F6000 X103.169 Y111.654
G1 F600 X102.979 Y111.464 E6.03984
G0 F6000 X103.094 Y111.296
G1 F600 X103.169 Y111.371 E6.04249
G0 F6000 X103.319 Y111.371
G0 X103.227 Y110.867
G0 X101.761 Y111.76
G0 X101.032 Y111.98
G0 X100.603 Y111.942
G0 X99.001 Y111.646
G0 X98.823 Y111.833
G1 F600 X98.49 Y111.5 E6.05424
G0 F6000 X98.49 Y111.783
G1 F600 X98.624 Y111.918 E6.05898
G0 F6000 X98.34 Y111.918
G0 X98.432 Y110.868
G0 X99.162 Y108.185
G0 X98.837 Y107.831
;TYPE:SKIN
G1 F600 X98.821 Y107.763 E6.06421
G1 X99.038 Y107.582 E6.08535
G1 X99.403 Y107.352 E6.11764
G1 X99.637 Y107.238 E6.13712
G1 X100.029 Y107.098 E6.16827
G1 X100.44 Y107.016 E6.19963
G1 X100.878 Y106.991 E6.23246
G1 X101.323 Y107.032 E6.26591
G1 X101.741 Y107.132 E6.29807
G1 X102.162 Y107.301 E6.33202
G1 X102.541 Y107.523 E6.36489
G1 X102.84 Y107.762 E6.39354
G1 X102.84 Y107.854 E6.40042
G1 X102.801 Y107.811 E6.40476
G1 X102.345 Y107.473 E6.44724
G1 X101.832 Y107.23 E6.48972
G1 X101.3 Y107.094 E6.53081
G1 X100.892 Y107.057 E6.56147
G1 X100.345 Y107.095 E6.60251
G1 X99.798 Y107.241 E6.64487
G1 X99.29 Y107.489 E6.68718
G1 X98.837 Y107.831 E6.72966
G0 F6000 X98.572 Y107.905
;TYPE:SKIN
G1 F600 X98.531 Y107.864 E6.7311
G0 F6000 X98.49 Y108.107
G1 F600 X98.659 Y108.276 E6.73706
G0 F6000 X98.678 Y108.295
G1 F600 X98.776 Y108.393 E6.74052
G0 F6000 X98.91 Y108.243
G1 F600 X98.84 Y108.173 E6.74299
G0 F6000 X98.49 Y108.39
G1 F600 X98.66 Y108.559 E6.74897
G0 F6000 X98.49 Y108.673
G1 F600 X98.554 Y108.736 E6.75121
G0 F6000 X98.681 Y108.813
G0 X100.133 Y108.136
G0 X100.88 Y108.011
G0 X102.62 Y108.324
G0 X102.793 Y108.167
G1 F600 X103.17 Y108.544 E6.76451
G0 F6000 X103.17 Y108.261
G1 F600 X102.997 Y108.088 E6.77061
G0 F6000 X103.23 Y108.088
G1 F1500 E0.27061
;MESH:Front_WheelLock.stl
G0 F6000 X103.32 Y108.088
G0 X103.81 Y112.338
G0 X107.02 Y112.34
G0 X107.602 Y110.868
G0 X108.002 Y111.284
G0 X110.238 Y112.341
;TYPE:WALL-INNER
G1 F1500 E6.77061
G1 F600 X110.681 Y112.252 E6.80443
G1 X111.101 Y112.08 E6.83839
G1 X111.477 Y111.832 E6.8721
G1 X111.801 Y111.515 E6.90602
G1 X112.055 Y111.144 E6.93967
G1 X112.237 Y110.73 E6.97351
G1 X112.335 Y110.287 E7.00747
G1 X112.346 Y109.837 E7.04115
G1 X112.274 Y109.391 E7.07496
G1 X112.114 Y108.966 E7.10894
G1 X111.878 Y108.584 E7.14255
G1 X111.573 Y108.251 E7.17634
G1 X111.209 Y107.982 E7.21021
G1 X110.801 Y107.788 E7.24402
G1 X110.37 Y107.678 E7.27731
G1 X110.055 Y107.649 E7.30098
G1 X109.613 Y107.679 E7.33413
G1 X109.176 Y107.796 E7.36799
G1 X108.77 Y107.994 E7.40179
G1 X108.408 Y108.267 E7.43572
G1 X108.106 Y108.604 E7.46959
G1 X107.877 Y108.989 E7.50311
G1 X107.721 Y109.415 E7.53706
G1 X107.651 Y109.861 E7.57085
G1 X107.668 Y110.313 E7.6047
G1 X107.772 Y110.754 E7.6386
G1 X107.956 Y111.166 E7.67237
G1 X108.217 Y111.536 E7.70625
G1 X108.543 Y111.846 E7.73992
G1 X108.922 Y112.092 E7.77373
G1 X109.342 Y112.259 E7.80756
G1 X109.787 Y112.342 E7.84143
G1 X110.238 Y112.341 E7.87518
G0 F6000 X110.178 Y111.741
;TYPE:WALL-OUTER
G1 F600 X110.507 Y111.675 E7.9003
G1 X110.819 Y111.547 E7.92553
G1 X111.098 Y111.363 E7.95054
G1 X111.339 Y111.127 E7.97579
G1 X111.528 Y110.851 E8.00082
G1 X111.664 Y110.542 E8.02608
G1 X111.737 Y110.214 E8.05123
G1 X111.745 Y109.878 E8.07638
G1 X111.691 Y109.546 E8.10155
G1 X111.573 Y109.232 E8.12666
G1 X111.397 Y108.947 E8.15172
G1 X111.17 Y108.699 E8.17688
G1 X110.899 Y108.499 E8.20209
G1 X110.596 Y108.355 E8.2272
G1 X110.268 Y108.271 E8.25253
G1 X110.048 Y108.251 E8.26907
G1 X109.712 Y108.274 E8.29427
G1 X109.387 Y108.361 E8.31945
G1 X109.085 Y108.508 E8.34458
G1 X108.816 Y108.711 E8.3698
G1 X108.592 Y108.961 E8.39492
G1 X108.421 Y109.248 E8.41992
G1 X108.305 Y109.566 E8.44525
G1 X108.253 Y109.897 E8.47033
G1 X108.265 Y110.232 E8.49541
G1 X108.343 Y110.561 E8.52072
G1 X108.48 Y110.868 E8.54588
G1 X108.673 Y111.142 E8.57096
G1 X108.916 Y111.373 E8.59605
G1 X109.199 Y111.556 E8.62127
G1 X109.51 Y111.68 E8.64632
G1 X109.842 Y111.742 E8.6716
G1 X110.178 Y111.741 E8.69674
G0 F6000 X110.244 Y112.397
G0 X112.397 Y110.867
G0 X112.415 Y112.432
G0 X111.631 Y113.015
G0 X111.089 Y113.211
G0 X109.932 Y113.599
;TYPE:WALL-INNER
G1 F600 X109.667 Y113.584 E8.71661
G1 X109.414 Y113.551 E8.7357
G1 X109.151 Y113.498 E8.75578
G1 X108.901 Y113.428 E8.77521
G1 X108.663 Y113.342 E8.79414
G1 X108.412 Y113.23 E8.81471
G1 X108.18 Y113.106 E8.8344
G1 X107.962 Y112.968 E8.85371
G1 X107.754 Y112.813 E8.87312
G1 X107.55 Y112.637 E8.89328
G1 X107.4 Y112.488 E8.9091
G1 X107.4 Y110.754 E9.03887
G1 X107.4 Y109.861 E9.08759
G1 X107.4 Y108.989 E9.13579
G1 X107.401 Y107.514 E9.24617
G1 X107.463 Y107.447 E9.253
G1 X107.662 Y107.263 E9.27329
G1 X107.853 Y107.112 E9.29151
G1 X108.091 Y106.948 E9.31314
G1 X108.295 Y106.831 E9.33074
G1 X108.552 Y106.705 E9.35216
G1 X108.784 Y106.612 E9.37086
G1 X109.032 Y106.532 E9.39036
G1 X109.296 Y106.47 E9.41066
G1 X109.543 Y106.43 E9.42938
G1 X109.806 Y106.407 E9.44914
G1 X110.068 Y106.401 E9.46875
G1 X110.333 Y106.416 E9.48861
G1 X110.586 Y106.449 E9.50771
G1 X110.849 Y106.502 E9.52778
G1 X111.092 Y106.57 E9.54667
G1 X111.339 Y106.659 E9.56632
G1 X111.593 Y106.772 E9.58712
G1 X111.82 Y106.894 E9.60641
G1 X112.035 Y107.03 E9.62544
G1 X112.246 Y107.187 E9.64513
G1 X112.45 Y107.363 E9.66529
G1 X112.6 Y107.512 E9.68111
G1 X112.6 Y109.391 E9.82173
G1 X112.6 Y110.287 E9.86286
G1 X112.6 Y111.144 E9.9114
G1 X112.599 Y112.486 E10.01183
G1 X112.537 Y112.553 E10.01866
G1 X112.338 Y112.737 E10.03895
G1 X112.147 Y112.888 E10.05717
G1 X111.909 Y113.052 E10.0788
G1 X111.705 Y113.169 E10.0964
G1 X111.448 Y113.295 E10.11782
G1 X111.216 Y113.388 E10.13652
G1 X110.97 Y113.467 E10.15586
G1 X110.704 Y113.53 E10.17631
G1 X110.457 Y113.57 E10.19504
G1 X110.194 Y113.593 E10.21479
G1 X109.932 Y113.599 E10.23441
G0 F6000 X109.925 Y114.199
;TYPE:WALL-OUTER
G1 F600 X109.609 Y114.182 E10.25809
G1 X109.318 Y114.144 E10.28005
G1 X109.006 Y114.081 E10.30387
G1 X108.724 Y114.002 E10.32579
G1 X108.437 Y113.898 E10.34863
G1 X108.147 Y113.769 E10.37238
G1 X107.876 Y113.624 E10.39538
G1 X107.627 Y113.466 E10.41745
G1 X107.376 Y113.279 E10.44088
G1 X107.144 Y113.079 E10.4638
G1 X106.933 Y112.869 E10.48608
G1 X106.8 Y112.72 E10.50102
G1 X106.801 Y107.279 E10.9082
G1 X107.038 Y107.022 E10.93436
G1 X107.271 Y106.807 E10.95809
G1 X107.502 Y106.624 E10.98014
G1 X107.764 Y106.444 E11.00393
G1 X108.018 Y106.298 E11.02586
G1 X108.302 Y106.159 E11.04952
G1 X108.585 Y106.046 E11.07232
G1 X108.873 Y105.953 E11.09497
G1 X109.174 Y105.882 E11.11812
G1 X109.477 Y105.833 E11.14109
G1 X109.77 Y105.807 E11.1631
G1 X110.075 Y105.801 E11.18593
G1 X110.391 Y105.818 E11.20961
G1 X110.682 Y105.856 E11.23157
G1 X110.994 Y105.919 E11.25539
G1 X111.276 Y105.998 E11.27731
G1 X111.562 Y106.101 E11.30006
G1 X111.853 Y106.231 E11.32391
G1 X112.124 Y106.376 E11.34691
G1 X112.37 Y106.532 E11.36871
G1 X112.624 Y106.721 E11.3924
G1 X112.856 Y106.921 E11.41532
G1 X113.065 Y107.129 E11.43739
G1 X113.2 Y107.28 E11.45255
G1 X113.199 Y112.721 E11.85973
G1 X112.962 Y112.978 E11.88589
G1 X112.729 Y113.193 E11.90961
G1 X112.498 Y113.376 E11.93167
G1 X112.236 Y113.556 E11.95546
G1 X111.982 Y113.702 E11.97738
G1 X111.698 Y113.841 E12.00104
G1 X111.415 Y113.954 E12.02385
G1 X111.13 Y114.046 E12.04626
G1 X110.826 Y114.118 E12.06964
G1 X110.523 Y114.167 E12.09261
G1 X110.23 Y114.193 E12.11462
G1 X109.925 Y114.199 E12.13745
G0 F6000 X109.936 Y113.54
G0 X110.161 Y113.003
M104 S210
;TYPE:SKIN
G1 F600 X109.709 Y112.994 E12.17128
G1 X109.291 Y112.925 E12.20299
G1 X108.881 Y112.793 E12.23522
G1 X108.462 Y112.587 E12.27016
G1 X108.121 Y112.35 E12.30124
G1 X107.99 Y112.237 E12.31419
G1 X107.99 Y112.135 E12.32182
G1 X108.176 Y112.312 E12.34103
G1 X108.65 Y112.619 E12.38329
G1 X109.177 Y112.829 E12.42575
G1 X109.734 Y112.932 E12.46814
G1 X110.297 Y112.931 E12.51027
G1 X110.852 Y112.819 E12.55264
G1 X111.378 Y112.605 E12.59514
G1 X111.849 Y112.294 E12.63738
G1 X112.009 Y112.137 E12.65415
G1 X112.009 Y112.238 E12.66171
G1 X111.799 Y112.412 E12.68212
G1 X111.421 Y112.651 E12.71559
G1 X111.035 Y112.826 E12.7473
G1 X110.589 Y112.951 E12.78197
G1 X110.161 Y113.003 E12.81423
G0 F6000 X110.172 Y113.484
G0 X111.376 Y113.14
G0 X112.226 Y112.608
G0 X112.424 Y112.42
G0 X112.397 Y110.867
G0 X111.88 Y111.593
G0 X111.983 Y111.7
;TYPE:SKIN
G1 F600 X112.203 Y111.92 E12.82199
G0 F6000 X112.338 Y111.773
G1 F600 X112.1 Y111.534 E12.83041
G0 F6000 X112.215 Y111.366
G1 F600 X112.338 Y111.49 E12.83476
G0 F6000 X112.489 Y111.49
G0 X112.397 Y110.867
G0 X110.931 Y111.76
G0 X110.202 Y111.98
G0 X109.588 Y111.925
G0 X108.117 Y111.587
G0 X107.995 Y111.672
G1 F600 X107.659 Y111.336 E12.84662
G0 F6000 X107.659 Y111.619
G1 F600 X107.909 Y111.869 E12.85544
G0 F6000 X107.71 Y111.953
G1 F600 X107.659 Y111.902 E12.85723
G0 F6000 X107.51 Y111.902
G0 X107.602 Y110.868
G0 X108.332 Y108.185
G0 X108.007 Y107.831
;TYPE:SKIN
G1 F600 X107.991 Y107.762 E12.86254
G1 X108.201 Y107.588 E12.88294
G1 X108.58 Y107.348 E12.91652
G1 X108.965 Y107.174 E12.94813
G1 X109.41 Y107.049 E12.98272
G1 X109.839 Y106.997 E13.01506
G1 X110.048 Y106.991 E13.03071
G1 X110.493 Y107.032 E13.06415
