;FLAVOR:Marlin
;TIME:955
;Filament used: 0.394557m
;Layer height: 0.2
;MINX:97.7
;MINY:80.541
;MINZ:0.3
;MAXX:122.3
;MAXY:119.588
;MAXZ:3.1
;Generated with Cura_SteamEngine 4.12.1
M140 S80
M105
M190 S80
M104 S220
M105
M109 S220
M82 ;absolute extrusion mode
; Ender 3 Custom Start G-code
G92 E0 ; Reset Extruder
G28 ; Home all axes
G1 Z2.0 F3000 ; Move Z Axis up little to prevent scratching of Heat Bed
G1 X0.1 Y20 Z0.3 F5000.0 ; Move to start position
G1 X0.1 Y200.0 Z0.3 F1500.0 E15 ; Draw the first line
G1 X0.4 Y200.0 Z0.3 F5000.0 ; Move to side a little
G1 X0.4 Y20 Z0.3 F1500.0 E30 ; Draw the second line
G92 E0 ; Reset Extruder
G1 Z2.0 F3000 ; Move Z Axis up little to prevent scratching of Heat Bed
G1 X5 Y20 Z0.3 F5000.0 ; Move over to prevent blob squish
G92 E0
G92 E0
G1 F1500 E-6.5
;LAYER_COUNT:15
;LAYER:0
M107
;MESH:Front_HubCap.stl(1)
G0 F6000 X103.903 Y87.397 Z0.3
;TYPE:WALL-INNER
G1 F1500 E0
G1 F600 X103.745 Y87.169 E0.02076
G1 X103.425 Y86.813 E0.05658
G1 X103.058 Y86.508 E0.09229
G1 X102.679 Y86.266 E0.12594
G1 X102.305 Y86.095 E0.15672
G1 X102.451 Y85.975 E0.15727
G1 X102.731 Y85.67 E0.17968
G1 X102.866 Y85.484 E0.19687
G1 X103.123 Y85.059 E0.23404
G1 X103.28 Y84.817 E0.25563
G1 X103.465 Y84.554 E0.27969
G1 X103.638 Y84.326 E0.30111
G1 X103.821 Y84.103 E0.3227
G1 X104.04 Y83.855 E0.34746
G1 X104.22 Y83.664 E0.3671
G1 X104.451 Y83.44 E0.39118
G1 X104.679 Y83.233 E0.41423
G1 X104.902 Y83.045 E0.43605
G1 X105.127 Y82.869 E0.45743
G1 X105.378 Y82.688 E0.48059
G1 X105.619 Y82.527 E0.50228
G1 X105.882 Y82.365 E0.52539
G1 X106.132 Y82.223 E0.54691
G1 X106.394 Y82.086 E0.56904
G1 X106.674 Y81.954 E0.5922
G1 X106.949 Y81.837 E0.61457
G1 X107.214 Y81.734 E0.63584
G1 X107.513 Y81.631 E0.65951
G1 X107.776 Y81.551 E0.68008
G1 X108.073 Y81.472 E0.70308
G1 X108.367 Y81.407 E0.72561
G1 X108.67 Y81.35 E0.74869
G1 X108.967 Y81.305 E0.77117
G1 X109.249 Y81.275 E0.79239
G1 X109.536 Y81.253 E0.81393
G1 X109.867 Y81.241 E0.83872
G1 X110.133 Y81.241 E0.85862
G1 X110.464 Y81.253 E0.88341
G1 X110.751 Y81.275 E0.90495
G1 X111.033 Y81.305 E0.92617
G1 X111.33 Y81.35 E0.94865
G1 X111.633 Y81.407 E0.97172
G1 X111.927 Y81.472 E0.99426
G1 X112.224 Y81.551 E1.01726
G1 X112.487 Y81.631 E1.03783
G1 X112.786 Y81.734 E1.06149
G1 X113.051 Y81.837 E1.08277
G1 X113.326 Y81.954 E1.10514
G1 X113.606 Y82.086 E1.1283
G1 X113.868 Y82.223 E1.15043
G1 X114.118 Y82.365 E1.17194
G1 X114.381 Y82.527 E1.19506
G1 X114.622 Y82.688 E1.21675
G1 X114.873 Y82.869 E1.23991
G1 X115.098 Y83.045 E1.26128
G1 X115.321 Y83.233 E1.28311
G1 X115.563 Y83.453 E1.30759
G1 X115.76 Y83.643 E1.32807
G1 X115.96 Y83.855 E1.34988
G1 X116.166 Y84.088 E1.37315
G1 X116.363 Y84.327 E1.39633
G1 X116.53 Y84.547 E1.417
G1 X116.702 Y84.79 E1.43928
G1 X116.877 Y85.059 E1.4633
G1 X117.14 Y85.494 E1.50134
G1 X117.4 Y85.824 E1.53278
G1 X117.662 Y86.071 E1.55972
G1 X117.308 Y86.237 E1.57391
G1 X116.907 Y86.497 E1.60968
G1 X116.564 Y86.791 E1.64349
G1 X116.244 Y87.143 E1.67909
G1 X116.088 Y87.373 E1.69988
G1 X116.038 Y87.22
G1 X115.932 Y86.938 E1.71174
G1 X115.829 Y86.697 E1.73136
G1 X115.68 Y86.391 E1.75683
G1 X115.555 Y86.161 E1.77642
G1 X115.398 Y85.9 E1.79921
G1 X115.204 Y85.616 E1.82495
G1 X115.024 Y85.376 E1.8474
G1 X114.857 Y85.172 E1.86713
G1 X114.629 Y84.921 E1.89251
G1 X114.443 Y84.732 E1.91235
G1 X114.188 Y84.502 E1.93805
G1 X113.988 Y84.335 E1.95755
G1 X113.716 Y84.129 E1.98308
G1 X113.497 Y83.979 E2.00295
G1 X113.206 Y83.801 E2.02847
G1 X112.98 Y83.676 E2.0478
G1 X112.708 Y83.54 E2.07056
G1 X112.393 Y83.404 E2.09624
G1 X112.147 Y83.31 E2.11594
G1 X111.861 Y83.217 E2.13845
G1 X111.569 Y83.135 E2.16115
G1 X111.237 Y83.061 E2.1866
G1 X110.978 Y83.014 E2.2063
G1 X110.68 Y82.976 E2.22878
G1 X110.377 Y82.95 E2.25154
G1 X110.031 Y82.94 E2.27744
G1 X109.731 Y82.945 E2.2999
G1 X109.47 Y82.961 E2.31947
G1 X109.167 Y82.994 E2.34228
G1 X108.831 Y83.048 E2.36774
G1 X108.531 Y83.11 E2.39067
G1 X108.238 Y83.187 E2.41334
G1 X107.954 Y83.276 E2.43561
G1 X107.706 Y83.365 E2.45533
G1 X107.392 Y83.496 E2.48079
G1 X107.153 Y83.608 E2.50054
G1 X106.853 Y83.767 E2.52595
G1 X106.627 Y83.9 E2.54558
G1 X106.371 Y84.067 E2.56845
G1 X106.093 Y84.271 E2.59425
G1 X105.862 Y84.459 E2.61654
G1 X105.664 Y84.63 E2.63612
G1 X105.445 Y84.844 E2.65904
G1 X105.213 Y85.092 E2.68445
G1 X105.044 Y85.291 E2.70399
G1 X104.857 Y85.53 E2.7267
G1 X104.661 Y85.811 E2.75234
G1 X104.521 Y86.032 E2.77191
G1 X104.37 Y86.296 E2.79467
G1 X104.217 Y86.6 E2.82014
G1 X104.108 Y86.841 E2.83994
G1 X103.983 Y87.16 E2.85687
G1 X103.903 Y87.397 E2.86145
G0 F6000 X104.025 Y89.145
G0 X103.902 Y91.284
G1 F600 X104.013 Y91.6 E2.88652
G1 X104.11 Y91.843 E2.9061
G1 X104.253 Y92.156 E2.93185
G1 X104.392 Y92.422 E2.95431
G1 X104.522 Y92.65 E2.97395
G1 X104.709 Y92.941 E2.99984
G1 X104.885 Y93.185 E3.02235
G1 X105.045 Y93.39 E3.04181
G1 X105.268 Y93.648 E3.06733
G1 X105.449 Y93.839 E3.08703
G1 X105.668 Y94.051 E3.10984
G1 X105.927 Y94.275 E3.13546
G1 X106.161 Y94.46 E3.15778
G1 X106.373 Y94.613 E3.17735
G1 X106.629 Y94.781 E3.20026
G1 X106.925 Y94.952 E3.22585
G1 X107.157 Y95.074 E3.24546
G1 X107.468 Y95.216 E3.27105
G1 X107.709 Y95.315 E3.29055
G1 X107.993 Y95.417 E3.31313
G1 X108.281 Y95.505 E3.33566
G1 X108.578 Y95.581 E3.35861
G1 X108.913 Y95.646 E3.38414
G1 X109.17 Y95.686 E3.40361
G1 X109.472 Y95.718 E3.42633
G1 X109.776 Y95.736 E3.44912
G1 X110.12 Y95.738 E3.47487
G1 X110.421 Y95.725 E3.49741
G1 X110.68 Y95.704 E3.51686
G1 X110.981 Y95.664 E3.53958
G1 X111.32 Y95.602 E3.56537
G1 X111.612 Y95.533 E3.58783
G1 X111.863 Y95.463 E3.60733
G1 X112.152 Y95.367 E3.63012
G1 X112.471 Y95.243 E3.65573
G1 X112.748 Y95.12 E3.67841
G1 X112.982 Y95.002 E3.69802
G1 X113.278 Y94.836 E3.72342
G1 X113.503 Y94.697 E3.74321
G1 X113.782 Y94.502 E3.76869
G1 X113.993 Y94.342 E3.7885
G1 X114.254 Y94.122 E3.81405
G1 X114.448 Y93.942 E3.83385
G1 X114.685 Y93.698 E3.85931
G1 X114.86 Y93.504 E3.87886
G1 X115.077 Y93.236 E3.90467
G1 X115.255 Y92.993 E3.92721
G1 X115.4 Y92.776 E3.94674
G1 X115.557 Y92.516 E3.96947
G1 X115.719 Y92.212 E3.99525
G1 X115.83 Y91.979 E4.01456
G1 X115.949 Y91.7 E4.03726
G1 X116.066 Y91.379 E4.06283
G1 X116.104 Y91.258 E4.07232
G1 X116.262 Y91.486 E4.08069
G1 X116.567 Y91.819 E4.11448
G1 X116.93 Y92.128 E4.15016
G1 X117.334 Y92.383 E4.18591
G1 X117.722 Y92.562 E4.21789
G1 X117.549 Y92.704 E4.22033
G1 X117.261 Y93.017 E4.25216
G1 X117.044 Y93.341 E4.28135
G1 X116.877 Y93.62 E4.30568
G1 X116.72 Y93.862 E4.32727
G1 X116.537 Y94.122 E4.35106
G1 X116.362 Y94.353 E4.37275
G1 X116.179 Y94.576 E4.39434
G1 X115.963 Y94.821 E4.41878
G1 X115.78 Y95.015 E4.43874
G1 X115.553 Y95.235 E4.46239
G1 X115.328 Y95.44 E4.48517
G1 X115.098 Y95.634 E4.50769
G1 X114.873 Y95.81 E4.52907
G1 X114.627 Y95.987 E4.55175
G1 X114.375 Y96.157 E4.57449
G1 X114.129 Y96.308 E4.5961
G1 X113.868 Y96.456 E4.61855
G1 X113.606 Y96.593 E4.64067
G1 X113.326 Y96.725 E4.66384
G1 X113.055 Y96.842 E4.68593
G1 X112.785 Y96.946 E4.70758
G1 X112.487 Y97.048 E4.73115
G1 X112.224 Y97.128 E4.75173
G1 X111.927 Y97.207 E4.77472
G1 X111.633 Y97.272 E4.79726
G1 X111.33 Y97.329 E4.82033
G1 X111.033 Y97.374 E4.84281
G1 X110.751 Y97.404 E4.86403
G1 X110.464 Y97.426 E4.88557
G1 X110.133 Y97.438 E4.91036
G1 X109.867 Y97.438 E4.93027
G1 X109.536 Y97.426 E4.95505
G1 X109.249 Y97.404 E4.97659
G1 X108.967 Y97.374 E4.99782
G1 X108.67 Y97.329 E5.0203
G1 X108.367 Y97.272 E5.04337
G1 X108.073 Y97.207 E5.0659
G1 X107.776 Y97.128 E5.0889
G1 X107.513 Y97.048 E5.10947
G1 X107.215 Y96.946 E5.13304
G1 X106.945 Y96.842 E5.1547
G1 X106.674 Y96.725 E5.17679
G1 X106.394 Y96.593 E5.19995
G1 X106.132 Y96.456 E5.22208
G1 X105.871 Y96.308 E5.24453
G1 X105.625 Y96.157 E5.26613
G1 X105.373 Y95.987 E5.28888
G1 X105.127 Y95.81 E5.31156
G1 X104.902 Y95.634 E5.33294
G1 X104.672 Y95.44 E5.35545
G1 X104.447 Y95.235 E5.37823
G1 X104.22 Y95.015 E5.40189
G1 X104.037 Y94.821 E5.42185
G1 X103.821 Y94.576 E5.44629
G1 X103.638 Y94.353 E5.46788
G1 X103.463 Y94.122 E5.48957
G1 X103.28 Y93.862 E5.51336
G1 X103.133 Y93.636 E5.53354
G1 X102.866 Y93.193 E5.57224
G1 X102.601 Y92.856 E5.60433
G1 X102.313 Y92.583 E5.63402
G1 X102.702 Y92.399 E5.65067
G1 X103.081 Y92.156 E5.68436
G1 X103.447 Y91.845 E5.7203
G1 X103.748 Y91.507 E5.746
G1 X103.902 Y91.284 E5.75079
G1 F1500 E-0.74921
G0 F6000 X102.444 Y92.004
G0 X101.338 Y92.42
G1 F1500 E5.75079
G0 F6000 X101.304 Y92.223
;TYPE:WALL-OUTER
G1 F600 X101.672 Y92.16 E5.77873
G1 X102.051 Y92.043 E5.80842
G1 X102.411 Y91.873 E5.83821
G1 X102.723 Y91.673 E5.86594
G1 X103.027 Y91.415 E5.89578
G1 X103.275 Y91.136 E5.92372
G1 X103.5 Y90.81 E5.95336
G1 X103.677 Y90.455 E5.98305
G1 X103.783 Y90.146 E6.00749
G1 X103.876 Y89.711 E6.04078
G1 X103.899 Y89.34 E6.0686
G1 X103.872 Y88.943 E6.09838
G1 X103.791 Y88.554 E6.12811
G1 X103.668 Y88.203 E6.15595
G1 X103.487 Y87.849 E6.1857
G1 X103.274 Y87.542 E6.21366
G1 X103.008 Y87.247 E6.24339
G1 X102.703 Y86.993 E6.27309
G1 X102.391 Y86.794 E6.30078
G1 X102.027 Y86.627 E6.33075
G1 X101.671 Y86.519 E6.3586
G1 X101.279 Y86.452 E6.38836
G1 X101.081 Y86.441 E6.4032
G1 X100.709 Y86.454 E6.43105
G1 X100.316 Y86.52 E6.46087
G1 X99.938 Y86.64 E6.49055
G1 X99.6 Y86.799 E6.51851
G1 X99.266 Y87.016 E6.54831
G1 X98.983 Y87.257 E6.57613
G1 X98.717 Y87.551 E6.6058
G1 X98.494 Y87.881 E6.63561
G1 X98.328 Y88.212 E6.66332
G1 X98.199 Y88.59 E6.69321
G1 X98.127 Y88.956 E6.72112
G1 X98.1 Y89.353 E6.7509
G1 X98.127 Y89.724 E6.77874
G1 X98.205 Y90.113 E6.80843
G1 X98.338 Y90.489 E6.83827
G1 X98.483 Y90.774 E6.8622
G1 X98.613 Y90.988 E6.88094
G1 X98.861 Y91.298 E6.91065
G1 X99.129 Y91.555 E6.93844
G1 X99.451 Y91.792 E6.96836
G1 X99.779 Y91.969 E6.99625
G1 X100.147 Y92.112 E7.0258
G1 X100.536 Y92.202 E7.05568
G1 X100.906 Y92.238 E7.0835
G1 X101.304 Y92.223 E7.1133
G1 F1500 E0.6133
G0 F6000 X101.338 Y92.42
G0 X103.842 Y91.685
G0 X105.069 Y93.707
G0 X108.406 Y95.061
G0 X109.784 Y95.335
G1 F1500 E7.1133
G0 F6000 X109.795 Y95.136
G1 F600 X110.109 Y95.138 E7.1368
G1 X110.383 Y95.126 E7.15732
G1 X110.616 Y95.107 E7.17482
G1 X110.888 Y95.071 E7.19535
G1 X111.197 Y95.015 E7.21885
G1 X111.462 Y94.952 E7.23924
G1 X111.687 Y94.889 E7.25672
G1 X111.949 Y94.802 E7.27738
G1 X112.24 Y94.689 E7.30074
G1 X112.491 Y94.577 E7.32131
G1 X112.701 Y94.472 E7.33888
G1 X112.973 Y94.319 E7.36224
G1 X113.173 Y94.195 E7.37985
G1 X113.429 Y94.017 E7.40318
G1 X113.617 Y93.874 E7.42086
G1 X113.856 Y93.672 E7.44428
G1 X114.029 Y93.512 E7.46191
G1 X114.247 Y93.288 E7.4853
G1 X114.404 Y93.114 E7.50284
G1 X114.601 Y92.87 E7.52631
G1 X114.763 Y92.649 E7.54681
G1 X114.893 Y92.454 E7.56435
G1 X115.035 Y92.219 E7.5849
G1 X115.183 Y91.942 E7.6084
G1 X115.283 Y91.732 E7.62581
G1 X115.391 Y91.479 E7.6464
G1 X115.498 Y91.185 E7.66981
G1 X115.569 Y90.962 E7.68732
G1 X115.639 Y90.697 E7.70783
G1 X115.697 Y90.43 E7.72828
G1 X115.742 Y90.157 E7.74899
G1 X115.777 Y89.846 E7.77241
G1 X115.794 Y89.613 E7.78989
G1 X115.8 Y89.34 E7.81033
G1 X115.794 Y89.065 E7.83091
G1 X115.77 Y88.753 E7.85433
G1 X115.736 Y88.481 E7.87484
G1 X115.688 Y88.21 E7.89544
G1 X115.639 Y87.982 E7.91289
G1 X115.569 Y87.716 E7.93347
G1 X115.472 Y87.419 E7.95686
G1 X115.375 Y87.162 E7.97741
G1 X115.283 Y86.946 E7.99498
G1 X115.147 Y86.666 E8.01828
G1 X115.034 Y86.459 E8.03593
G1 X114.893 Y86.224 E8.05643
G1 X114.716 Y85.965 E8.07991
G1 X114.552 Y85.746 E8.10039
G1 X114.403 Y85.564 E8.11799
G1 X114.193 Y85.333 E8.14135
G1 X114.028 Y85.165 E8.15897
G1 X113.795 Y84.955 E8.18245
G1 X113.615 Y84.805 E8.19998
G1 X113.365 Y84.616 E8.22343
G1 X113.171 Y84.483 E8.24104
G1 X112.904 Y84.32 E8.26445
G1 X112.7 Y84.207 E8.2819
G1 X112.455 Y84.084 E8.30241
G1 X112.167 Y83.96 E8.32588
G1 X111.947 Y83.876 E8.3435
G1 X111.687 Y83.791 E8.36397
G1 X111.423 Y83.717 E8.38449
G1 X111.118 Y83.649 E8.40788
G1 X110.887 Y83.607 E8.42545
G1 X110.616 Y83.573 E8.44589
G1 X110.342 Y83.549 E8.46647
G1 X110.028 Y83.54 E8.48998
G1 X109.754 Y83.545 E8.51049
G1 X109.521 Y83.559 E8.52795
G1 X109.247 Y83.589 E8.54858
G1 X108.939 Y83.638 E8.57192
G1 X108.669 Y83.694 E8.59256
G1 X108.404 Y83.764 E8.61307
G1 X108.144 Y83.845 E8.63345
G1 X107.923 Y83.924 E8.65101
G1 X107.635 Y84.045 E8.67439
G1 X107.421 Y84.145 E8.69206
G1 X107.146 Y84.291 E8.71536
G1 X106.943 Y84.41 E8.73297
G1 X106.713 Y84.56 E8.75352
G1 X106.46 Y84.746 E8.77702
G1 X106.248 Y84.918 E8.79745
G1 X106.071 Y85.072 E8.81501
G1 X105.874 Y85.264 E8.8356
G1 X105.661 Y85.492 E8.85895
G1 X105.509 Y85.67 E8.87646
G1 X105.34 Y85.887 E8.89705
G1 X105.16 Y86.144 E8.92053
G1 X105.035 Y86.341 E8.93799
G1 X104.899 Y86.58 E8.95856
G1 X104.758 Y86.859 E8.98196
G1 X104.661 Y87.074 E8.99961
G1 X104.547 Y87.365 E9.023
G1 X104.46 Y87.625 E9.04352
G1 X104.395 Y87.85 E9.06104
G1 X104.331 Y88.115 E9.08144
G1 X104.279 Y88.384 E9.10195
G1 X104.24 Y88.658 E9.12266
G1 X104.213 Y88.969 E9.14602
G1 X104.202 Y89.203 E9.16355
G1 X104.202 Y89.477 E9.18406
G1 X104.218 Y89.791 E9.20758
G1 X104.245 Y90.064 E9.22811
G1 X104.286 Y90.335 E9.24863
G1 X104.34 Y90.603 E9.26908
G1 X104.395 Y90.83 E9.28656
G1 X104.471 Y91.093 E9.30705
G1 X104.575 Y91.389 E9.33053
G1 X104.662 Y91.607 E9.34809
G1 X104.792 Y91.892 E9.37154
G1 X104.919 Y92.135 E9.39206
G1 X105.035 Y92.339 E9.40962
G1 X105.205 Y92.603 E9.43312
G1 X105.365 Y92.825 E9.45359
G1 X105.509 Y93.009 E9.47108
G1 X105.713 Y93.246 E9.49448
G1 X105.875 Y93.417 E9.51211
G1 X106.073 Y93.608 E9.5327
G1 X106.309 Y93.812 E9.55604
G1 X106.523 Y93.981 E9.57645
G1 X106.714 Y94.119 E9.59408
G1 X106.944 Y94.27 E9.61467
G1 X107.214 Y94.426 E9.63801
G1 X107.422 Y94.535 E9.65558
G1 X107.707 Y94.666 E9.67905
G1 X107.924 Y94.755 E9.69661
G1 X108.182 Y94.847 E9.7171
G1 X108.443 Y94.927 E9.73753
G1 X108.71 Y94.995 E9.75815
G1 X109.017 Y95.055 E9.78156
G1 X109.248 Y95.091 E9.79906
G1 X109.521 Y95.12 E9.8196
G1 X109.795 Y95.136 E9.84014
G0 F6000 X109.774 Y95.795
G1 F1500 E3.34014
G0 F6000 X114.809 Y93.815
G0 X116.166 Y91.66
G0 X116.51 Y91.929
G0 X119.098 Y92.401
G1 F1500 E9.84014
G0 F6000 X119.105 Y92.202
G1 F600 X119.501 Y92.16 E9.86994
G1 X119.862 Y92.073 E9.89773
G1 X120.233 Y91.929 E9.92751
G1 X120.56 Y91.746 E9.95556
G1 X120.879 Y91.513 E9.98512
G1 X121.163 Y91.235 E10.01486
G1 X121.393 Y90.942 E10.04274
G1 X121.595 Y90.599 E10.07252
G1 X121.74 Y90.253 E10.1006
G1 X121.845 Y89.871 E10.13025
G1 X121.895 Y89.478 E10.15989
G1 X121.894 Y89.105 E10.18781
G1 X121.839 Y88.712 E10.2175
G1 X121.74 Y88.353 E10.24537
G1 X121.583 Y87.985 E10.27531
G1 X121.379 Y87.645 E10.30499
G1 X121.148 Y87.355 E10.33273
G1 X120.86 Y87.078 E10.36264
G1 X120.56 Y86.86 E10.39039
G1 X120.21 Y86.668 E10.42026
G1 X119.839 Y86.528 E10.44994
G1 X119.478 Y86.443 E10.47769
G1 X119.081 Y86.405 E10.50754
G1 X118.709 Y86.418 E10.53539
G1 X118.316 Y86.484 E10.56521
G1 X117.938 Y86.604 E10.59489
G1 X117.6 Y86.763 E10.62285
G1 X117.267 Y86.979 E10.65255
G1 X116.983 Y87.222 E10.68052
G1 X116.717 Y87.515 E10.71014
G1 X116.493 Y87.845 E10.73998
G1 X116.328 Y88.176 E10.76766
G1 X116.199 Y88.554 E10.79755
G1 X116.126 Y88.92 E10.82548
G1 X116.1 Y89.316 E10.85518
G1 X116.126 Y89.688 E10.88309
G1 X116.205 Y90.077 E10.91279
G1 X116.337 Y90.453 E10.94261
G1 X116.505 Y90.783 E10.97032
G1 X116.732 Y91.111 E11.00018
G1 X116.984 Y91.386 E11.02809
G1 X117.287 Y91.644 E11.05787
G1 X117.621 Y91.855 E11.08744
G1 X117.96 Y92.011 E11.11536
G1 X118.34 Y92.128 E11.14512
G1 X118.711 Y92.189 E11.17325
G1 X119.105 Y92.202 E11.20275
G1 F1500 E4.70275
G0 F6000 X119.098 Y92.401
G0 X118.45 Y92.632
G0 X116.231 Y94.244
G0 X115.219 Y95.309
G0 X114.045 Y96.159
G0 X113.301 Y96.512
G0 X110.15 Y97.839
G1 F1500 E11.20275
G0 F6000 X110.155 Y98.038
G1 F600 X109.845 Y98.038 E11.22595
G1 X109.514 Y98.026 E11.25074
G1 X109.198 Y98.002 E11.27446
G1 X108.887 Y97.968 E11.29787
G1 X108.559 Y97.919 E11.32269
G1 X108.25 Y97.861 E11.34622
G1 X107.934 Y97.791 E11.37044
G1 X107.622 Y97.708 E11.3946
G1 X107.325 Y97.618 E11.41782
G1 X107.012 Y97.51 E11.4426
G1 X106.72 Y97.398 E11.466
G1 X106.418 Y97.268 E11.49061
G1 X106.128 Y97.131 E11.51461
G1 X105.854 Y96.988 E11.53774
G1 X105.575 Y96.83 E11.56174
G1 X105.292 Y96.656 E11.5866
G1 X105.027 Y96.478 E11.61049
G1 X104.776 Y96.297 E11.63364
G1 X104.515 Y96.093 E11.65843
