;FLAVOR:Marlin
;TIME:3087
;Filament used: 1.62665m
;Layer height: 0.2
;MINX:96.835
;MINY:75.963
;MINZ:0.3
;MAXX:123.165
;MAXY:120.165
;MAXZ:10.1
;Generated with Cura_SteamEngine 4.12.1
M140 S80
M105
M190 S80
M104 S220
M105
M109 S220
M82 ;absolute extrusion mode
; Ender 3 Custom Start G-code
G92 E0 ; Reset Extruder
G28 ; Home all axes
G1 Z2.0 F3000 ; Move Z Axis up little to prevent scratching of Heat Bed
G1 X0.1 Y20 Z0.3 F5000.0 ; Move to start position
G1 X0.1 Y200.0 Z0.3 F1500.0 E15 ; Draw the first line
G1 X0.4 Y200.0 Z0.3 F5000.0 ; Move to side a little
G1 X0.4 Y20 Z0.3 F1500.0 E30 ; Draw the second line
G92 E0 ; Reset Extruder
G1 Z2.0 F3000 ; Move Z Axis up little to prevent scratching of Heat Bed
G1 X5 Y20 Z0.3 F5000.0 ; Move over to prevent blob squish
G92 E0
G92 E0
G1 F1500 E-6.5
;LAYER_COUNT:50
;LAYER:0
M107
;MESH:RearSuspension_Hub.stl(1)
G0 F6000 X109.682 Y92.508 Z0.3
;TYPE:WALL-INNER
G1 F1500 E0
G1 F600 X110.012 Y92.513 E0.0247
G1 X110.34 Y92.507 E0.04925
G1 X110.671 Y92.482 E0.07409
G1 X110.995 Y92.444 E0.0985
G1 X111.322 Y92.392 E0.12328
G1 X111.643 Y92.324 E0.14784
G1 X111.96 Y92.243 E0.17232
G1 X112.275 Y92.147 E0.19696
G1 X112.586 Y92.036 E0.22168
G1 X112.89 Y91.911 E0.24627
G1 X113.147 Y91.794 E0.26741
G1 X113.438 Y91.646 E0.29184
G1 X113.726 Y91.483 E0.3166
G1 X114.006 Y91.307 E0.34135
G1 X114.276 Y91.118 E0.36602
G1 X114.534 Y90.92 E0.39035
G1 X114.79 Y90.707 E0.41528
G1 X115.03 Y90.484 E0.43979
G1 X115.261 Y90.253 E0.46424
G1 X115.482 Y90.009 E0.48888
G1 X115.693 Y89.754 E0.51365
G1 X115.89 Y89.49 E0.5383
G1 X116.052 Y89.254 E0.55972
G1 X116.199 Y89.02 E0.5804
G1 X116.384 Y88.701 E0.608
G1 X116.537 Y88.4 E0.63326
G1 X116.672 Y88.101 E0.65781
G1 X116.794 Y87.795 E0.68247
G1 X116.902 Y87.485 E0.70703
G1 X116.996 Y87.168 E0.73178
G1 X117.075 Y86.85 E0.7563
G1 X117.14 Y86.526 E0.78103
G1 X117.189 Y86.202 E0.80555
G1 X117.224 Y85.874 E0.83024
G1 X117.242 Y85.589 E0.85161
G1 X117.249 Y85.265 E0.87586
G1 X117.243 Y84.936 E0.90048
G1 X117.221 Y84.605 E0.92531
G1 X117.183 Y84.278 E0.94994
G1 X117.131 Y83.955 E0.97443
G1 X117.064 Y83.632 E0.99911
G1 X116.983 Y83.314 E1.02367
G1 X116.887 Y83.001 E1.04817
G1 X116.779 Y82.69 E1.07281
G1 X116.653 Y82.382 E1.09771
G1 X116.516 Y82.084 E1.12226
G1 X116.365 Y81.792 E1.14686
G1 X116.202 Y81.509 E1.1713
G1 X116.049 Y81.268 E1.19266
G1 X115.863 Y80.999 E1.21714
G1 X115.663 Y80.736 E1.24186
G1 X115.453 Y80.485 E1.26635
G1 X115.23 Y80.241 E1.29109
G1 X114.997 Y80.01 E1.31564
G1 X114.754 Y79.788 E1.34027
G1 X114.499 Y79.578 E1.365
G1 X114.239 Y79.381 E1.38941
G1 X113.967 Y79.194 E1.41411
G1 X113.685 Y79.019 E1.43895
G1 X113.4 Y78.86 E1.46337
G1 X113.148 Y78.732 E1.48452
G1 X112.854 Y78.597 E1.50873
G1 X112.598 Y78.496 E1.52932
G1 X112.558 Y78.478 E1.53261
G1 X112.231 Y78.364 E1.55852
G1 X111.916 Y78.271 E1.5831
G1 X111.597 Y78.191 E1.60771
G1 X111.275 Y78.126 E1.6323
G1 X110.953 Y78.076 E1.65668
G1 X110.623 Y78.039 E1.68153
G1 X110.294 Y78.019 E1.7062
G1 X109.965 Y78.013 E1.73082
G1 X109.637 Y78.023 E1.75538
G1 X109.31 Y78.045 E1.77991
G1 X109.026 Y78.08 E1.80132
G1 X108.704 Y78.13 E1.82571
G1 X108.382 Y78.195 E1.85029
G1 X108.061 Y78.277 E1.87508
G1 X107.745 Y78.372 E1.89978
G1 X107.436 Y78.482 E1.92432
G1 X107.13 Y78.604 E1.94898
G1 X106.832 Y78.742 E1.97355
G1 X106.541 Y78.891 E1.99802
G1 X106.253 Y79.056 E2.02286
G1 X105.975 Y79.233 E2.04752
G1 X105.707 Y79.421 E2.07202
G1 X105.448 Y79.62 E2.09646
G1 X105.229 Y79.804 E2.11787
G1 X104.986 Y80.025 E2.14245
G1 X104.759 Y80.254 E2.16658
G1 X104.533 Y80.501 E2.19163
G1 X104.322 Y80.754 E2.21629
G1 X104.123 Y81.017 E2.24097
G1 X103.937 Y81.287 E2.2655
G1 X103.763 Y81.566 E2.29011
G1 X103.601 Y81.855 E2.3149
G1 X103.454 Y82.147 E2.33937
G1 X103.32 Y82.445 E2.36382
G1 X103.198 Y82.753 E2.38861
G1 X103.091 Y83.066 E2.41337
G1 X103.011 Y83.339 E2.43465
G1 X102.931 Y83.652 E2.45883
G1 X102.864 Y83.978 E2.48374
G1 X102.814 Y84.301 E2.5082
G1 X102.777 Y84.628 E2.53282
G1 X102.756 Y84.958 E2.55757
G1 X102.75 Y85.286 E2.58212
G1 X102.759 Y85.615 E2.60675
G1 X102.781 Y85.944 E2.63143
G1 X102.821 Y86.271 E2.65608
G1 X102.873 Y86.595 E2.68064
G1 X102.942 Y86.916 E2.70521
G1 X103.011 Y87.189 E2.72628
G1 X103.105 Y87.505 E2.75095
G1 X103.211 Y87.81 E2.77512
G1 X103.337 Y88.123 E2.80037
G1 X103.474 Y88.421 E2.82491
G1 X103.623 Y88.713 E2.84944
G1 X103.787 Y88.999 E2.87411
G1 X103.962 Y89.277 E2.8987
G1 X104.151 Y89.546 E2.9233
G1 X104.35 Y89.808 E2.94792
G1 X104.564 Y90.061 E2.97272
G1 X104.787 Y90.302 E2.99729
G1 X105.021 Y90.532 E3.02185
G1 X105.23 Y90.722 E3.04298
G1 X105.481 Y90.933 E3.06752
G1 X105.744 Y91.132 E3.0922
G1 X106.008 Y91.317 E3.11633
G1 X106.294 Y91.495 E3.14154
G1 X106.581 Y91.656 E3.16616
G1 X106.873 Y91.804 E3.19066
G1 X107.173 Y91.94 E3.21531
G1 X107.479 Y92.061 E3.23994
G1 X107.79 Y92.169 E3.26457
G1 X108.107 Y92.262 E3.2893
G1 X108.426 Y92.34 E3.31387
G1 X108.747 Y92.404 E3.33837
G1 X109.029 Y92.447 E3.35971
G1 X109.35 Y92.485 E3.3839
G1 X109.682 Y92.508 E3.40881
G0 F6000 X109.708 Y91.908
;TYPE:WALL-OUTER
G1 F600 X110.011 Y91.913 E3.43149
G1 X110.312 Y91.907 E3.45402
G1 X110.614 Y91.885 E3.47668
G1 X110.913 Y91.85 E3.49921
G1 X111.212 Y91.802 E3.52187
G1 X111.506 Y91.74 E3.54435
G1 X111.798 Y91.665 E3.56692
G1 X112.087 Y91.577 E3.58952
G1 X112.371 Y91.476 E3.61208
G1 X112.651 Y91.361 E3.63473
G1 X112.886 Y91.253 E3.65409
G1 X113.155 Y91.117 E3.67664
G1 X113.418 Y90.968 E3.69927
G1 X113.674 Y90.807 E3.7219
G1 X113.921 Y90.634 E3.74446
G1 X114.16 Y90.451 E3.76699
G1 X114.393 Y90.257 E3.78968
G1 X114.613 Y90.052 E3.81218
G1 X114.826 Y89.839 E3.83473
G1 X115.028 Y89.616 E3.85724
G1 X115.221 Y89.383 E3.87988
G1 X115.402 Y89.141 E3.9025
G1 X115.55 Y88.925 E3.92209
G1 X115.685 Y88.71 E3.94109
G1 X115.857 Y88.414 E3.96671
G1 X115.996 Y88.14 E3.98971
G1 X116.12 Y87.866 E4.01221
G1 X116.232 Y87.585 E4.03485
G1 X116.331 Y87.301 E4.05736
G1 X116.417 Y87.011 E4.07999
G1 X116.489 Y86.719 E4.1025
G1 X116.549 Y86.422 E4.12518
G1 X116.594 Y86.125 E4.14765
G1 X116.626 Y85.824 E4.17031
G1 X116.642 Y85.564 E4.1898
G1 X116.649 Y85.264 E4.21226
G1 X116.643 Y84.962 E4.23486
G1 X116.623 Y84.66 E4.25751
G1 X116.588 Y84.36 E4.28012
G1 X116.541 Y84.063 E4.30262
G1 X116.479 Y83.767 E4.32525
G1 X116.405 Y83.475 E4.34779
G1 X116.317 Y83.187 E4.37033
G1 X116.218 Y82.902 E4.39291
G1 X116.103 Y82.621 E4.41563
G1 X115.977 Y82.348 E4.43813
G1 X115.838 Y82.08 E4.46072
G1 X115.688 Y81.819 E4.48325
G1 X115.549 Y81.599 E4.50273
G1 X115.378 Y81.352 E4.52521
G1 X115.194 Y81.111 E4.5479
G1 X115.001 Y80.88 E4.57042
G1 X114.797 Y80.657 E4.59304
G1 X114.583 Y80.445 E4.61558
G1 X114.36 Y80.241 E4.6382
G1 X114.127 Y80.049 E4.6608
G1 X113.888 Y79.868 E4.68323
G1 X113.638 Y79.696 E4.70594
G1 X113.381 Y79.536 E4.7286
G1 X113.118 Y79.39 E4.75111
G1 X112.886 Y79.272 E4.77059
G1 X112.619 Y79.149 E4.79259
G1 X112.379 Y79.055 E4.81187
G1 X112.338 Y79.037 E4.81523
G1 X112.047 Y78.935 E4.8383
G1 X111.758 Y78.85 E4.86084
G1 X111.465 Y78.776 E4.88346
G1 X111.17 Y78.717 E4.90597
G1 X110.873 Y78.671 E4.92846
G1 X110.571 Y78.637 E4.95121
G1 X110.27 Y78.619 E4.97377
G1 X109.968 Y78.613 E4.99638
G1 X109.667 Y78.622 E5.01891
G1 X109.367 Y78.643 E5.04142
G1 X109.108 Y78.674 E5.06094
G1 X108.81 Y78.721 E5.08352
G1 X108.515 Y78.78 E5.10603
G1 X108.222 Y78.855 E5.12866
G1 X107.932 Y78.942 E5.15132
G1 X107.648 Y79.043 E5.17388
G1 X107.368 Y79.155 E5.19645
G1 X107.095 Y79.282 E5.21898
G1 X106.826 Y79.419 E5.24157
G1 X106.564 Y79.569 E5.26416
G1 X106.309 Y79.732 E5.28681
G1 X106.062 Y79.905 E5.30938
G1 X105.824 Y80.088 E5.33185
G1 X105.624 Y80.256 E5.35139
G1 X105.401 Y80.459 E5.37396
G1 X105.193 Y80.668 E5.39603
G1 X104.985 Y80.896 E5.41912
G1 X104.792 Y81.127 E5.44165
G1 X104.61 Y81.368 E5.46425
G1 X104.439 Y81.616 E5.48679
G1 X104.279 Y81.872 E5.50938
G1 X104.131 Y82.136 E5.53203
G1 X103.996 Y82.405 E5.55456
G1 X103.873 Y82.679 E5.57703
G1 X103.761 Y82.961 E5.59974
G1 X103.663 Y83.247 E5.62237
G1 X103.59 Y83.497 E5.64186
G1 X103.516 Y83.787 E5.66425
G1 X103.455 Y84.084 E5.68694
G1 X103.409 Y84.381 E5.70943
G1 X103.375 Y84.681 E5.73203
G1 X103.356 Y84.983 E5.75467
G1 X103.35 Y85.284 E5.7772
G1 X103.358 Y85.586 E5.79981
G1 X103.379 Y85.887 E5.82239
G1 X103.415 Y86.187 E5.845
G1 X103.463 Y86.484 E5.86752
G1 X103.526 Y86.779 E5.89009
G1 X103.59 Y87.03 E5.90948
G1 X103.676 Y87.321 E5.93218
G1 X103.773 Y87.599 E5.95422
G1 X103.888 Y87.886 E5.97736
G1 X104.014 Y88.159 E5.99986
G1 X104.151 Y88.428 E6.02245
G1 X104.301 Y88.69 E6.04504
G1 X104.462 Y88.945 E6.06761
G1 X104.635 Y89.192 E6.09018
G1 X104.818 Y89.432 E6.11276
G1 X105.013 Y89.663 E6.13539
G1 X105.218 Y89.884 E6.15794
G1 X105.433 Y90.096 E6.18054
G1 X105.625 Y90.27 E6.19993
G1 X105.856 Y90.464 E6.22251
G1 X106.097 Y90.647 E6.24515
G1 X106.339 Y90.816 E6.26724
G1 X106.6 Y90.979 E6.29027
G1 X106.864 Y91.127 E6.31292
G1 X107.132 Y91.263 E6.33541
G1 X107.407 Y91.387 E6.35798
G1 X107.688 Y91.498 E6.38059
G1 X107.973 Y91.597 E6.40317
G1 X108.263 Y91.682 E6.42579
G1 X108.556 Y91.754 E6.44837
G1 X108.851 Y91.813 E6.47088
G1 X109.109 Y91.852 E6.49041
G1 X109.406 Y91.887 E6.51279
G1 X109.708 Y91.908 E6.53544
G0 F6000 X109.68 Y92.567
G1 F1500 E0.03544
G0 F6000 X113.824 Y91.646
G0 X113.824 Y93.653
G0 X121.6 Y93.863
;TYPE:WALL-INNER
G1 F1500 E6.53544
G1 F600 X98.4 Y93.863 E8.27162
G1 X98.4 Y76.663 E9.55879
G1 X121.6 Y76.663 E11.29497
G1 X121.6 Y93.863 E12.58213
G0 F6000 X122.2 Y94.463
;TYPE:WALL-OUTER
G1 F600 X97.8 Y94.463 E14.40812
G1 X97.8 Y76.063 E15.78508
G1 X122.2 Y76.063 E17.61107
G1 X122.2 Y94.463 E18.98804
G0 F6000 X121.93 Y94.193
G0 X121.49 Y93.273
G0 X121.01 Y93.273
;TYPE:SKIN
G1 F600 X98.99 Y93.273 E20.63591
G1 X98.99 Y77.253 E21.83477
G1 X121.01 Y77.253 E23.48264
G1 X121.01 Y93.273 E24.68151
G1 F1500 E18.18151
G0 F6000 X121.49 Y93.273
G0 X121.39 Y89.823
G0 X116.847 Y88.176
G0 X115.78 Y89.823
G1 F1500 E24.68151
G0 F6000 X116.157 Y90.118
G1 F600 X116.37 Y89.834 E24.70807
G1 X116.545 Y89.578 E24.73128
G1 X116.704 Y89.325 E24.75364
G1 X116.903 Y88.983 E24.78325
G1 X117.07 Y88.655 E24.8108
G1 X117.215 Y88.331 E24.83736
G1 X117.347 Y88.002 E24.86389
G1 X117.464 Y87.666 E24.89051
G1 X117.566 Y87.323 E24.91729
G1 X117.651 Y86.979 E24.94381
G1 X117.722 Y86.628 E24.97061
G1 X117.775 Y86.277 E24.99717
G1 X117.812 Y85.923 E25.02381
G1 X117.832 Y85.614 E25.04698
G1 X117.839 Y85.266 E25.07303
G1 X117.833 Y84.911 E25.0996
G1 X117.809 Y84.551 E25.1266
G1 X117.767 Y84.197 E25.15328
G1 X117.711 Y83.848 E25.17973
G1 X117.639 Y83.499 E25.2064
G1 X117.551 Y83.155 E25.23297
G1 X117.448 Y82.818 E25.25934
G1 X117.331 Y82.482 E25.28597
G1 X117.194 Y82.147 E25.31305
G1 X117.047 Y81.825 E25.33954
G1 X116.882 Y81.509 E25.36622
G1 X116.707 Y81.204 E25.39253
G1 X116.541 Y80.942 E25.41575
G1 X116.341 Y80.653 E25.44205
G1 X116.125 Y80.368 E25.46881
G1 X115.897 Y80.096 E25.49537
G1 X115.655 Y79.832 E25.52217
G1 X115.404 Y79.583 E25.54863
G1 X115.141 Y79.342 E25.57532
G1 X114.865 Y79.115 E25.60207
G1 X114.585 Y78.903 E25.62835
G1 X114.29 Y78.7 E25.65515
G1 X113.984 Y78.51 E25.6821
G1 X113.677 Y78.339 E25.7084
G1 X113.405 Y78.201 E25.73123
G1 X113.086 Y78.054 E25.75751
G1 X112.827 Y77.952 E25.77834
G1 X112.776 Y77.929 E25.78253
G1 X112.412 Y77.802 E25.81138
G1 X112.071 Y77.702 E25.83797
G1 X111.727 Y77.615 E25.86453
G1 X111.379 Y77.545 E25.89109
G1 X111.032 Y77.492 E25.91736
G1 X110.674 Y77.451 E25.94433
G1 X110.317 Y77.429 E25.97109
G1 X109.961 Y77.423 E25.99774
G1 X109.608 Y77.433 E26.02417
G1 X109.254 Y77.457 E26.05072
G1 X108.945 Y77.496 E26.07403
G1 X108.6 Y77.549 E26.10015
G1 X108.25 Y77.619 E26.12686
G1 X107.903 Y77.709 E26.15369
G1 X107.561 Y77.811 E26.18039
G1 X107.228 Y77.93 E26.20686
G1 X106.896 Y78.062 E26.23359
G1 X106.574 Y78.211 E26.26015
G1 X106.26 Y78.372 E26.28655
G1 X105.948 Y78.551 E26.31347
G1 X105.647 Y78.743 E26.34019
G1 X105.357 Y78.945 E26.36664
G1 X105.078 Y79.16 E26.393
G1 X104.841 Y79.36 E26.4162
G1 X104.577 Y79.598 E26.4428
G1 X104.332 Y79.847 E26.46894
G1 X104.089 Y80.113 E26.49591
G1 X103.86 Y80.386 E26.52257
G1 X103.645 Y80.671 E26.54929
G1 X103.443 Y80.963 E26.57586
G1 X103.255 Y81.265 E26.60248
G1 X103.08 Y81.578 E26.62932
G1 X102.921 Y81.893 E26.65572
G1 X102.777 Y82.215 E26.68212
G1 X102.644 Y82.548 E26.70895
G1 X102.528 Y82.888 E26.73584
G1 X102.442 Y83.184 E26.75891
G1 X102.356 Y83.52 E26.78486
G1 X102.284 Y83.874 E26.8119
G1 X102.23 Y84.222 E26.83825
G1 X102.189 Y84.576 E26.86492
G1 X102.166 Y84.934 E26.89176
G1 X102.16 Y85.288 E26.91826
G1 X102.169 Y85.643 E26.94484
G1 X102.193 Y85.999 E26.97154
G1 X102.237 Y86.354 E26.99831
G1 X102.293 Y86.704 E27.02483
G1 X102.368 Y87.05 E27.05133
G1 X102.442 Y87.346 E27.07416
G1 X102.543 Y87.686 E27.1007
G1 X102.658 Y88.017 E27.12693
G1 X102.795 Y88.357 E27.15436
G1 X102.943 Y88.679 E27.18088
G1 X103.104 Y88.994 E27.20735
G1 X103.281 Y89.303 E27.234
G1 X103.471 Y89.604 E27.26064
G1 X103.675 Y89.894 E27.28717
G1 X103.89 Y90.177 E27.31377
G1 X104.122 Y90.452 E27.34069
G1 X104.364 Y90.713 E27.36733
G1 X104.616 Y90.961 E27.39379
G1 X104.842 Y91.166 E27.41662
G1 X105.113 Y91.395 E27.44317
G1 X105.397 Y91.61 E27.46983
G1 X105.683 Y91.809 E27.49591
G1 X105.993 Y92.003 E27.52327
G1 X106.303 Y92.177 E27.54988
G1 X106.618 Y92.337 E27.57632
G1 X106.943 Y92.483 E27.60298
G1 X107.274 Y92.614 E27.62962
G1 X107.61 Y92.731 E27.65624
G1 X107.954 Y92.832 E27.68307
G1 X108.298 Y92.916 E27.70957
G1 X108.645 Y92.986 E27.73607
G1 X108.95 Y93.031 E27.75914
G1 X109.295 Y93.073 E27.78515
G1 X109.657 Y93.098 E27.8123
G1 X110.012 Y93.103 E27.83887
G1 X110.367 Y93.097 E27.86544
G1 X110.728 Y93.07 E27.89253
G1 X111.076 Y93.028 E27.91876
G1 X111.43 Y92.972 E27.94558
G1 X111.777 Y92.898 E27.97214
G1 X112.119 Y92.811 E27.99854
G1 X112.46 Y92.707 E28.02522
G1 X112.798 Y92.587 E28.05207
G1 X113.124 Y92.452 E28.07847
G1 X113.403 Y92.325 E28.10141
G1 X113.717 Y92.166 E28.12775
G1 X114.029 Y91.99 E28.15456
G1 X114.333 Y91.799 E28.18142
G1 X114.625 Y91.594 E28.20812
G1 X114.902 Y91.381 E28.23427
G1 X115.179 Y91.15 E28.26127
G1 X115.439 Y90.909 E28.2878
G1 X115.688 Y90.66 E28.31415
G1 X115.928 Y90.395 E28.3409
G1 X116.157 Y90.118 E28.3678
G1 F1500 E21.8678
G0 F6000 X115.78 Y89.823
G0 X116.723 Y86.771
G0 X116.85 Y85.801
G0 X116.958 Y82.623
G0 X121.39 Y82.623
G0 X121.49 Y78.323
G1 F1500 E28.3678
G0 F6000 X120.749 Y78.323
G1 F600 X119.939 Y77.513 E28.45352
G0 F6000 X119.09 Y77.513
G1 F600 X120.749 Y79.171 E28.62905
G0 F6000 X120.749 Y80.02
G1 F600 X118.242 Y77.513 E28.89437
G0 F6000 X117.393 Y77.513
G1 F600 X120.749 Y80.868 E29.2495
G0 F6000 X120.749 Y81.717
G1 F600 X116.545 Y77.513 E29.69442
G0 F6000 X115.696 Y77.513
G1 F600 X120.749 Y82.566 E30.22919
G0 F6000 X120.749 Y83.414
G1 F600 X114.848 Y77.513 E30.85371
G0 F6000 X113.999 Y77.513
G1 F600 X120.749 Y84.263 E31.56809
G0 F6000 X120.749 Y85.111
G1 F600 X117.204 Y81.566 E31.94327
G0 F6000 X116.548 Y81.906
G0 X117.061 Y83.193
G0 X117.767 Y82.978
G1 F600 X120.749 Y85.96 E32.25886
G0 F6000 X120.749 Y86.808
G1 F600 X118.009 Y84.067 E32.54889
G0 F6000 X118.093 Y85.001
G1 F600 X120.749 Y87.657 E32.82999
G0 F6000 X120.749 Y88.505
G1 F600 X118.076 Y85.832 E33.11288
G0 F6000 X117.989 Y86.593
G1 F600 X120.749 Y89.354 E33.40503
G0 F6000 X120.749 Y90.202
G1 F600 X117.84 Y87.293 E33.7129
G0 F6000 X117.641 Y87.942
G1 F600 X120.749 Y91.051 E34.04188
G0 F6000 X120.749 Y91.899
G1 F600 X117.4 Y88.55 E34.39632
G0 F6000 X117.122 Y89.12
G1 F600 X120.749 Y92.748 E34.78023
G0 F6000 X120.165 Y93.012
G1 F600 X116.804 Y89.651 E35.13593
G0 F6000 X116.455 Y90.151
G1 F600 X119.317 Y93.012 E35.43877
G0 F6000 X118.468 Y93.012
G1 F600 X116.074 Y90.618 E35.69214
G0 F6000 X115.661 Y91.054
G1 F600 X117.62 Y93.012 E35.89941
G0 F6000 X116.771 Y93.012
G1 F600 X115.215 Y91.457 E36.06404
G0 F6000 X114.74 Y91.83
G1 F600 X115.923 Y93.012 E36.18918
G0 F6000 X115.074 Y93.012
G1 F600 X114.231 Y92.169 E36.2784
G0 F6000 X113.685 Y92.472
G1 F600 X114.226 Y93.012 E36.3356
G0 F6000 X113.377 Y93.012
G1 F600 X113.105 Y92.741 E36.36434
G1 F1500 E29.86434
G0 F6000 X112.827 Y92.056
G0 X108.057 Y92.446
G0 X108.057 Y93.653
G0 X107.427 Y93.753
G1 F1500 E36.36434
G0 F6000 X107.427 Y93.002
