;FLAVOR:Marlin
;TIME:7190
;Filament used: 3.42539m
;Layer height: 0.2
;MINX:71.891
;MINY:68.966
;MINZ:0.3
;MAXX:142.928
;MAXY:144.862
;MAXZ:35.1
;Generated with Cura_SteamEngine 4.12.1
M140 S80
M105
M190 S80
M104 S220
M105
M109 S220
M82 ;absolute extrusion mode
; Ender 3 Custom Start G-code
G92 E0 ; Reset Extruder
G28 ; Home all axes
G1 Z2.0 F3000 ; Move Z Axis up little to prevent scratching of Heat Bed
G1 X0.1 Y20 Z0.3 F5000.0 ; Move to start position
G1 X0.1 Y200.0 Z0.3 F1500.0 E15 ; Draw the first line
G1 X0.4 Y200.0 Z0.3 F5000.0 ; Move to side a little
G1 X0.4 Y20 Z0.3 F1500.0 E30 ; Draw the second line
G92 E0 ; Reset Extruder
G1 Z2.0 F3000 ; Move Z Axis up little to prevent scratching of Heat Bed
G1 X5 Y20 Z0.3 F5000.0 ; Move over to prevent blob squish
G92 E0
G92 E0
G1 F1500 E-6.5
;LAYER_COUNT:175
;LAYER:0
M107
G0 F6000 X110.09 Y87.092 Z0.3
;TYPE:SKIRT
G1 F1500 E0
G1 F600 X110.191 Y87.018 E0.00937
G1 X110.307 Y87.018 E0.01805
G1 X110.408 Y87.092 E0.02742
G1 X110.445 Y87.205 E0.03632
G1 X110.408 Y87.318 E0.04522
G1 X110.307 Y87.392 E0.05459
G1 X110.191 Y87.392 E0.06327
G1 X110.09 Y87.318 E0.07264
G1 X110.053 Y87.205 E0.08154
G1 X110.09 Y87.092 E0.09043
G0 F6000 X109.58 Y86.721
G1 F600 X109.996 Y86.418 E0.12895
G1 X110.502 Y86.418 E0.16681
G1 X110.918 Y86.721 E0.20533
G1 X111.075 Y87.205 E0.24341
G1 X110.918 Y87.689 E0.28149
G1 X110.502 Y87.992 E0.32
G1 X109.996 Y87.992 E0.35787
G1 X109.58 Y87.689 E0.39638
G1 X109.423 Y87.205 E0.43446
G1 X109.58 Y86.721 E0.47254
G0 F6000 X109.07 Y86.35
G1 F600 X109.8 Y85.818 E0.54013
G1 X110.698 Y85.818 E0.60734
G1 X111.428 Y86.35 E0.67493
G1 X111.707 Y87.205 E0.74224
G1 X111.428 Y88.06 E0.80954
G1 X110.698 Y88.592 E0.87714
G1 X109.8 Y88.592 E0.94434
G1 X109.07 Y88.06 E1.01194
G1 X108.791 Y87.205 E1.07925
G1 X109.07 Y86.35 E1.14655
G0 F6000 X108.558 Y85.98
G1 F600 X109.605 Y85.218 E1.24346
G1 X110.893 Y85.218 E1.33984
G1 X111.94 Y85.98 E1.43675
G1 X112.338 Y87.205 E1.53314
G1 X111.94 Y88.43 E1.62953
G1 X110.893 Y89.192 E1.72644
G1 X109.605 Y89.192 E1.82283
G1 X108.558 Y88.43 E1.91973
G1 X108.16 Y87.205 E2.01612
G1 X108.558 Y85.98 E2.11251
G0 F6000 X108.048 Y85.61
G1 F600 X109.41 Y84.618 E2.23861
G1 X111.088 Y84.618 E2.36418
G1 X112.45 Y85.61 E2.49028
G1 X112.969 Y87.205 E2.6158
G1 X112.45 Y88.8 E2.74132
G1 X111.088 Y89.792 E2.86742
G1 X109.41 Y89.792 E2.99299
G1 X108.048 Y88.8 E3.11909
G1 X107.529 Y87.205 E3.24461
G1 X108.048 Y85.61 E3.37013
G0 F6000 X107.538 Y85.239
G1 F600 X109.215 Y84.018 E3.52537
G1 X111.283 Y84.018 E3.68013
G1 X112.96 Y85.239 E3.83537
G1 X113.6 Y87.205 E3.99009
G1 X112.96 Y89.171 E4.14482
G1 X111.283 Y90.392 E4.30006
G1 X109.215 Y90.392 E4.45482
G1 X107.538 Y89.171 E4.61006
G1 X106.898 Y87.205 E4.76478
G1 X107.538 Y85.239 E4.91951
G1 F1500 E-1.58049
;MESH:SteeringLink.stl
G0 F6000 X107.538 Y76.431
G0 X107.538 Y75.346
G0 X79.924 Y74.866
;TYPE:WALL-INNER
G1 F1500 E4.91951
G1 F600 X80.263 Y74.564 E4.95348
G1 X80.488 Y74.297 E4.97961
G1 X80.671 Y74.031 E5.00378
G1 X80.826 Y73.75 E5.02779
G1 X80.942 Y73.488 E5.04923
G1 X81.046 Y73.184 E5.07328
G1 X81.119 Y72.868 E5.09755
G1 X81.161 Y72.549 E5.12163
G1 X81.171 Y72.264 E5.14297
G1 X81.158 Y71.945 E5.16686
G1 X81.111 Y71.622 E5.19129
G1 X81.034 Y71.313 E5.21512
G1 X80.942 Y71.042 E5.23654
G1 X80.811 Y70.747 E5.26069
G1 X80.649 Y70.464 E5.28509
G1 X80.461 Y70.2 E5.30935
G1 X80.252 Y69.96 E5.33316
G1 X80.048 Y69.762 E5.35444
G1 X79.93 Y69.666 E5.36582
G1 X126.707 Y69.666 E8.86639
G1 X126.464 Y69.887 E8.89097
G1 X126.247 Y70.122 E8.91491
G1 X126.073 Y70.353 E8.93655
G1 X125.904 Y70.62 E8.9602
G1 X125.758 Y70.911 E8.98457
G1 X125.642 Y71.212 E9.00871
G1 X125.565 Y71.489 E9.03022
G1 X125.504 Y71.798 E9.05379
G1 X125.474 Y72.123 E9.07822
G1 X125.476 Y72.449 E9.10261
G1 X125.51 Y72.768 E9.12662
G1 X125.565 Y73.047 E9.1479
G1 X125.654 Y73.355 E9.17189
G1 X125.775 Y73.66 E9.19645
G1 X125.923 Y73.943 E9.22035
G1 X126.076 Y74.182 E9.24159
G1 X126.269 Y74.435 E9.2654
G1 X126.493 Y74.675 E9.28997
G1 X126.712 Y74.866 E9.31171
G1 X79.924 Y74.866 E12.81311
G1 F1500 E6.31311
G0 F6000 X78.334 Y75.17
G1 F1500 E12.81311
G0 F6000 X78.292 Y74.975
;TYPE:WALL-OUTER
G1 F600 X78.55 Y74.918 E12.83288
G1 X78.772 Y74.847 E12.85032
G1 X79.017 Y74.744 E12.87021
G1 X79.25 Y74.616 E12.89011
G1 X79.47 Y74.467 E12.90999
G1 X79.8 Y74.172 E12.94312
G1 X79.833 Y74.143 E12.9464
G1 X80.01 Y73.933 E12.96696
G1 X80.16 Y73.715 E12.98676
G1 X80.288 Y73.483 E13.00659
G1 X80.383 Y73.269 E13.02411
G1 X80.468 Y73.019 E13.04387
G1 X80.528 Y72.761 E13.06369
G1 X80.562 Y72.499 E13.08346
G1 X80.571 Y72.265 E13.10099
G1 X80.56 Y72.001 E13.12076
G1 X80.522 Y71.738 E13.14065
G1 X80.458 Y71.482 E13.1604
G1 X80.383 Y71.261 E13.17786
G1 X80.275 Y71.019 E13.19769
G1 X80.143 Y70.788 E13.2176
G1 X79.989 Y70.572 E13.23745
G1 X79.816 Y70.373 E13.25719
G1 X79.649 Y70.211 E13.2746
G1 X79.444 Y70.044 E13.29439
G1 X79.222 Y69.898 E13.31427
G1 X78.988 Y69.774 E13.33409
G1 X78.771 Y69.685 E13.35164
G1 X78.521 Y69.606 E13.37126
G1 X78.26 Y69.55 E13.39124
G1 X77.997 Y69.521 E13.41104
G1 X77.733 Y69.517 E13.4308
G1 X77.5 Y69.535 E13.44829
G1 X77.238 Y69.577 E13.46814
G1 X76.982 Y69.647 E13.48801
G1 X76.735 Y69.74 E13.50776
G1 X76.525 Y69.841 E13.52519
G1 X76.297 Y69.977 E13.54506
G1 X76.083 Y70.135 E13.56497
G1 X75.887 Y70.313 E13.58478
G1 X75.708 Y70.507 E13.60454
G1 X75.567 Y70.694 E13.62206
G1 X75.427 Y70.916 E13.6417
G1 X75.307 Y71.154 E13.66165
G1 X75.212 Y71.401 E13.68146
G1 X75.149 Y71.627 E13.69901
G1 X75.099 Y71.884 E13.71861
G1 X75.074 Y72.149 E13.73853
G1 X75.076 Y72.415 E13.75843
G1 X75.104 Y72.678 E13.77823
G1 X75.149 Y72.906 E13.79562
G1 X75.222 Y73.161 E13.81547
G1 X75.321 Y73.409 E13.83545
G1 X75.443 Y73.642 E13.85513
G1 X75.568 Y73.838 E13.87253
G1 X75.728 Y74.048 E13.89229
G1 X75.91 Y74.243 E13.91225
G1 X76.11 Y74.417 E13.93209
G1 X76.324 Y74.572 E13.95186
G1 X76.526 Y74.69 E13.96937
G1 X76.763 Y74.804 E13.98905
G1 X77.013 Y74.894 E14.00893
G1 X77.27 Y74.959 E14.02877
G1 X77.501 Y74.996 E14.04628
G1 X77.765 Y75.015 E14.06609
G1 X78.029 Y75.007 E14.08585
G1 X78.292 Y74.975 E14.10568
G1 F1500 E7.60568
G0 F6000 X78.334 Y75.17
G0 X128.75 Y75.214
G1 F1500 E14.10568
G0 F6000 X128.765 Y75.015
G1 F600 X129.029 Y75.007 E14.12544
G1 X129.292 Y74.975 E14.14527
G1 X129.55 Y74.918 E14.16504
G1 X129.772 Y74.847 E14.18249
G1 X130.017 Y74.744 E14.20237
G1 X130.25 Y74.616 E14.22227
G1 X130.47 Y74.467 E14.24215
G1 X130.8 Y74.172 E14.27528
G1 X130.833 Y74.143 E14.27857
G1 X131.01 Y73.933 E14.29912
G1 X131.16 Y73.715 E14.31892
G1 X131.288 Y73.483 E14.33875
G1 X131.383 Y73.269 E14.35627
G1 X131.468 Y73.019 E14.37603
G1 X131.528 Y72.761 E14.39586
G1 X131.562 Y72.499 E14.41563
G1 X131.571 Y72.265 E14.43315
G1 X131.56 Y72.001 E14.45293
G1 X131.522 Y71.738 E14.47281
G1 X131.458 Y71.482 E14.49256
G1 X131.383 Y71.261 E14.51002
G1 X131.275 Y71.019 E14.52986
G1 X131.143 Y70.788 E14.54977
G1 X130.989 Y70.572 E14.56962
G1 X130.816 Y70.373 E14.58935
G1 X130.649 Y70.211 E14.60676
G1 X130.444 Y70.044 E14.62655
G1 X130.222 Y69.898 E14.64643
G1 X129.988 Y69.774 E14.66625
G1 X129.771 Y69.685 E14.6838
G1 X129.521 Y69.606 E14.70343
G1 X129.26 Y69.55 E14.7234
G1 X128.997 Y69.521 E14.7432
G1 X128.733 Y69.517 E14.76296
G1 X128.5 Y69.535 E14.78045
G1 X128.238 Y69.577 E14.80031
G1 X127.982 Y69.647 E14.82017
G1 X127.735 Y69.74 E14.83992
G1 X127.525 Y69.841 E14.85736
G1 X127.297 Y69.977 E14.87723
G1 X127.083 Y70.135 E14.89713
G1 X126.887 Y70.313 E14.91695
G1 X126.708 Y70.507 E14.9367
G1 X126.567 Y70.694 E14.95423
G1 X126.427 Y70.916 E14.97387
G1 X126.307 Y71.154 E14.99381
G1 X126.212 Y71.401 E15.01362
G1 X126.149 Y71.627 E15.03118
G1 X126.099 Y71.884 E15.05077
G1 X126.074 Y72.149 E15.07069
G1 X126.076 Y72.415 E15.0906
G1 X126.104 Y72.678 E15.11039
G1 X126.149 Y72.906 E15.12778
G1 X126.222 Y73.161 E15.14763
G1 X126.321 Y73.409 E15.16761
G1 X126.443 Y73.642 E15.18729
G1 X126.568 Y73.838 E15.20469
G1 X126.728 Y74.048 E15.22445
G1 X126.91 Y74.243 E15.24441
G1 X127.11 Y74.417 E15.26425
G1 X127.324 Y74.572 E15.28402
G1 X127.526 Y74.69 E15.30153
G1 X127.763 Y74.804 E15.32121
G1 X128.013 Y74.894 E15.3411
G1 X128.27 Y74.959 E15.36093
G1 X128.501 Y74.996 E15.37844
G1 X128.765 Y75.015 E15.39825
G0 F6000 X129.081 Y75.454
G1 F600 X128.809 Y75.466 E15.41862
G1 X77.835 Y75.466 E19.23328
G1 X77.564 Y75.454 E19.25358
G1 X77.308 Y75.423 E19.27288
G1 X77.052 Y75.371 E19.29243
G1 X76.809 Y75.302 E19.31133
G1 X76.573 Y75.212 E19.33023
G1 X76.336 Y75.099 E19.34988
G1 X76.109 Y74.968 E19.36949
G1 X75.901 Y74.824 E19.38843
G1 X75.701 Y74.661 E19.40773
G1 X75.518 Y74.486 E19.42668
G1 X75.341 Y74.285 E19.44673
G1 X75.188 Y74.082 E19.46575
G1 X75.052 Y73.868 E19.48472
G1 X74.929 Y73.634 E19.50451
G1 X74.834 Y73.408 E19.52285
G1 X74.748 Y73.15 E19.5432
G1 X74.687 Y72.904 E19.56217
G1 X74.646 Y72.653 E19.5812
G1 X74.625 Y72.395 E19.60058
G1 X74.625 Y72.137 E19.61988
G1 X74.646 Y71.879 E19.63925
G1 X74.687 Y71.625 E19.65851
G1 X74.746 Y71.387 E19.67686
G1 X74.835 Y71.12 E19.69792
G1 X75.045 Y70.676 E19.73468
G1 X75.191 Y70.446 E19.75506
G1 X75.341 Y70.246 E19.77377
G1 X75.518 Y70.045 E19.79382
G1 X75.701 Y69.871 E19.81271
G1 X75.903 Y69.705 E19.83228
G1 X76.112 Y69.561 E19.85127
G1 X76.33 Y69.436 E19.87008
G1 X76.573 Y69.32 E19.89023
G1 X76.806 Y69.232 E19.90887
G1 X77.056 Y69.159 E19.92836
G1 X77.308 Y69.108 E19.9476
G1 X77.564 Y69.077 E19.9669
G1 X77.834 Y69.066 E19.98712
G1 X128.81 Y69.066 E23.80192
G1 X129.081 Y69.077 E23.82222
G1 X129.337 Y69.108 E23.84152
G1 X129.589 Y69.159 E23.86076
G1 X129.839 Y69.232 E23.88025
G1 X130.072 Y69.32 E23.89889
G1 X130.315 Y69.436 E23.91904
G1 X130.533 Y69.561 E23.93784
G1 X130.742 Y69.705 E23.95684
G1 X130.944 Y69.871 E23.9764
G1 X131.127 Y70.045 E23.9953
G1 X131.304 Y70.246 E24.01534
G1 X131.454 Y70.446 E24.03405
G1 X131.6 Y70.676 E24.05444
G1 X131.81 Y71.12 E24.0912
G1 X131.899 Y71.387 E24.11226
G1 X131.958 Y71.625 E24.13061
G1 X131.999 Y71.879 E24.14986
G1 X132.02 Y72.137 E24.16923
G1 X132.02 Y72.395 E24.18854
G1 X131.999 Y72.653 E24.20791
G1 X131.958 Y72.904 E24.22694
G1 X131.897 Y73.15 E24.24591
G1 X131.811 Y73.408 E24.26626
G1 X131.716 Y73.634 E24.28461
G1 X131.593 Y73.868 E24.30439
G1 X131.457 Y74.082 E24.32337
G1 X131.304 Y74.285 E24.34239
G1 X131.127 Y74.486 E24.36243
G1 X130.944 Y74.661 E24.38138
G1 X130.744 Y74.824 E24.40069
G1 X130.536 Y74.968 E24.41962
G1 X130.309 Y75.099 E24.43924
G1 X130.072 Y75.212 E24.45889
G1 X129.836 Y75.302 E24.47779
G1 X129.593 Y75.371 E24.49669
G1 X129.337 Y75.423 E24.51624
G1 X129.081 Y75.454 E24.53554
G0 F6000 X129.069 Y75.255
G0 X125.435 Y74.756
G0 X125.435 Y74.276
;TYPE:SKIN
G1 F600 X81.21 Y74.276 E27.84513
G1 X81.355 Y74.012 E27.86767
G1 X81.492 Y73.703 E27.89296
G1 X81.614 Y73.347 E27.92113
G1 X81.701 Y72.972 E27.94994
G1 X81.749 Y72.598 E27.97815
G1 X81.761 Y72.262 E28.00331
G1 X81.746 Y71.89 E28.03118
G1 X81.691 Y71.508 E28.06006
G1 X81.6 Y71.146 E28.08799
G1 X81.492 Y70.827 E28.11319
G1 X81.338 Y70.48 E28.1416
G1 X81.21 Y70.256 E28.16091
G1 X125.436 Y70.256 E31.47058
G1 X125.39 Y70.329 E31.47703
G1 X125.217 Y70.673 E31.50585
G1 X125.081 Y71.027 E31.53423
G1 X124.991 Y71.353 E31.55954
G1 X124.92 Y71.713 E31.587
G1 X124.884 Y72.097 E31.61586
G1 X124.886 Y72.482 E31.64467
G1 X124.926 Y72.856 E31.67282
G1 X124.991 Y73.187 E31.69806
G1 X125.095 Y73.546 E31.72603
G1 X125.238 Y73.906 E31.75502
G1 X125.412 Y74.24 E31.78321
G1 X125.435 Y74.276 E31.7864
G0 F6000 X125.435 Y74.756
G0 X126.224 Y74.671
G0 X125.64 Y70.911
G0 X124.949 Y70.643
G1 F600 X124.822 Y70.516 E31.79984
G0 F6000 X124.74 Y71.283
G1 F600 X123.973 Y70.516 E31.88102
G0 F6000 X123.124 Y70.516
G1 F600 X124.629 Y72.02 E32.04024
G0 F6000 X124.671 Y72.911
G1 F600 X122.276 Y70.516 E32.29371
G0 F6000 X121.427 Y70.516
G1 F600 X124.927 Y74.015 E32.66408
G0 F6000 X124.078 Y74.015
G1 F600 X120.579 Y70.516 E33.03439
G0 F6000 X119.73 Y70.516
G1 F600 X123.23 Y74.015 E33.40475
G0 F6000 X122.381 Y74.015
G1 F600 X118.882 Y70.516 E33.77506
G0 F6000 X118.033 Y70.516
G1 F600 X121.533 Y74.015 E34.14542
G0 F6000 X120.684 Y74.015
G1 F600 X117.185 Y70.516 E34.51573
G0 F6000 X116.336 Y70.516
G1 F600 X119.836 Y74.015 E34.8861
G0 F6000 X118.987 Y74.015
G1 F600 X115.488 Y70.516 E35.25641
G0 F6000 X114.639 Y70.516
G1 F600 X118.139 Y74.015 E35.62677
G0 F6000 X117.29 Y74.015
G1 F600 X113.791 Y70.516 E35.99708
G0 F6000 X112.942 Y70.516
G1 F600 X116.442 Y74.015 E36.36744
G0 F6000 X115.593 Y74.015
G1 F600 X112.094 Y70.516 E36.73775
G0 F6000 X111.245 Y70.516
G1 F600 X114.745 Y74.015 E37.10812
G0 F6000 X113.896 Y74.015
G1 F600 X110.397 Y70.516 E37.47843
G0 F6000 X109.548 Y70.516
G1 F600 X113.047 Y74.015 E37.84874
G0 F6000 X112.199 Y74.015
G1 F600 X108.699 Y70.516 E38.2191
G0 F6000 X107.851 Y70.516
G1 F600 X111.35 Y74.015 E38.58941
G0 F6000 X110.502 Y74.015
G1 F600 X107.002 Y70.516 E38.95977
G0 F6000 X106.154 Y70.516
G1 F600 X109.653 Y74.015 E39.33008
G0 F6000 X108.805 Y74.015
G1 F600 X105.305 Y70.516 E39.70044
G0 F6000 X104.457 Y70.516
G1 F600 X107.956 Y74.015 E40.07075
G0 F6000 X107.108 Y74.015
G1 F600 X103.608 Y70.516 E40.44112
G0 F6000 X102.76 Y70.516
G1 F600 X106.259 Y74.015 E40.81143
G0 F6000 X105.411 Y74.015
G1 F600 X101.911 Y70.516 E41.18179
G0 F6000 X101.063 Y70.516
G1 F600 X104.562 Y74.015 E41.5521
G0 F6000 X103.714 Y74.015
G1 F600 X100.214 Y70.516 E41.92246
G0 F6000 X99.366 Y70.516
G1 F600 X102.865 Y74.015 E42.29277
G0 F6000 X102.017 Y74.015
G1 F600 X98.517 Y70.516 E42.66314
G0 F6000 X97.669 Y70.516
G1 F600 X101.168 Y74.015 E43.03345
G0 F6000 X100.32 Y74.015
G1 F600 X96.82 Y70.516 E43.40381
G0 F6000 X95.972 Y70.516
G1 F600 X99.471 Y74.015 E43.77412
G0 F6000 X98.623 Y74.015
G1 F600 X95.123 Y70.516 E44.14448
G0 F6000 X94.275 Y70.516
G1 F600 X97.774 Y74.015 E44.51479
G0 F6000 X96.925 Y74.015
G1 F600 X93.426 Y70.516 E44.8851
G0 F6000 X92.577 Y70.516
G1 F600 X96.077 Y74.015 E45.25547
G0 F6000 X95.228 Y74.015
G1 F600 X91.729 Y70.516 E45.62578
G0 F6000 X90.88 Y70.516
G1 F600 X94.38 Y74.015 E45.99614
G0 F6000 X93.531 Y74.015
G1 F600 X90.032 Y70.516 E46.36645
G0 F6000 X89.183 Y70.516
G1 F600 X92.683 Y74.015 E46.73681
G0 F6000 X91.834 Y74.015
G1 F600 X88.335 Y70.516 E47.10712
G0 F6000 X87.486 Y70.516
G1 F600 X90.986 Y74.015 E47.47748
G0 F6000 X90.137 Y74.015
G1 F600 X86.638 Y70.516 E47.84779
G0 F6000 X85.789 Y70.516
G1 F600 X89.289 Y74.015 E48.21816
G0 F6000 X88.44 Y74.015
G1 F600 X84.941 Y70.516 E48.58847
G0 F6000 X84.092 Y70.516
G1 F600 X87.592 Y74.015 E48.95883
G0 F6000 X86.743 Y74.015
G1 F600 X83.244 Y70.516 E49.32914
G0 F6000 X82.395 Y70.516
G1 F600 X85.895 Y74.015 E49.6995
G0 F6000 X85.046 Y74.015
G1 F600 X81.71 Y70.679 E50.05256
G0 F6000 X81.035 Y70.978
G0 X81.268 Y71.935
G0 X81.996 Y71.813
G1 F600 X84.198 Y74.015 E50.28561
G0 F6000 X83.349 Y74.015
G1 F600 X82.001 Y72.667 E50.42827
G0 F6000 X81.87 Y73.385
G1 F600 X82.5 Y74.015 E50.49494
G0 F6000 X82.5 Y74.756
G0 X80.755 Y74.756
G0 X80.755 Y74.533
;TYPE:SKIN
G1 F600 X80.685 Y74.463 E50.49741
G0 F6000 X80.573 Y74.368
G0 X80.711 Y72.265
G0 X80.422 Y69.86
G0 X80.744 Y69.776
G0 X80.744 Y69.996
G1 F600 X80.673 Y69.925 E50.49992
G1 F1500 E43.99992
G0 F6000 X80.673 Y69.776
G0 X125.646 Y69.776
G1 F1500 E50.49992
G0 F6000 X125.646 Y69.926
G1 F600 X125.887 Y70.167 E50.50842
G0 F6000 X126.009 Y70.006
G1 F600 X125.929 Y69.926 E50.51124
G0 F6000 X125.929 Y69.776
G0 X126.225 Y69.861
G0 X125.986 Y70.161
G0 X125.93 Y74.157
G0 X125.749 Y74.272
G1 F600 X126.038 Y74.56 E50.52142
G0 F6000 X125.799 Y74.605
G1 F600 X125.65 Y74.455 E50.52669
G0 F6000 X125.65 Y74.756
G0 X126.967 Y74.924
G0 X127.1 Y75.057
G1 F600 X126.92 Y75.16 E50.53822
G0 F6000 X127.274 Y74.948
G1 F600 X127.736 Y75.127 E50.55971
G0 F6000 X127.799 Y75.19
G0 X126.621 Y74.138
G0 X126.194 Y73.467
G0 X125.966 Y72.699
G0 X125.961 Y71.865
G0 X126.179 Y71.097
G0 X126.417 Y70.713
G0 X127.156 Y69.739
G0 X127.039 Y69.622
G1 F600 X127.186 Y69.487 E50.56901
G1 X127.661 Y69.396 E50.59155
G1 F1500 E44.09155
G0 F6000 X127.717 Y69.452
G0 X79.705 Y69.522
G0 X79.614 Y69.431
G1 F1500 E50.59155
G1 F600 X79.435 Y69.535 E50.6025
G1 X79.069 Y69.453 E50.62233
G0 F6000 X78.957 Y69.341
G0 X80.099 Y70.486
G0 X80.513 Y71.21
