;FLAVOR:Marlin
;TIME:1869
;Filament used: 0.835749m
;Layer height: 0.2
;MINX:85.424
;MINY:97.339
;MINZ:0.3
;MAXX:134.576
;MAXY:122.661
;MAXZ:16.9
;Generated with Cura_SteamEngine 4.12.1
M140 S80
M105
M190 S80
M104 S220
M105
M109 S220
M82 ;absolute extrusion mode
; Ender 3 Custom Start G-code
G92 E0 ; Reset Extruder
G28 ; Home all axes
G1 Z2.0 F3000 ; Move Z Axis up little to prevent scratching of Heat Bed
G1 X0.1 Y20 Z0.3 F5000.0 ; Move to start position
G1 X0.1 Y200.0 Z0.3 F1500.0 E15 ; Draw the first line
G1 X0.4 Y200.0 Z0.3 F5000.0 ; Move to side a little
G1 X0.4 Y20 Z0.3 F1500.0 E30 ; Draw the second line
G92 E0 ; Reset Extruder
G1 Z2.0 F3000 ; Move Z Axis up little to prevent scratching of Heat Bed
G1 X5 Y20 Z0.3 F5000.0 ; Move over to prevent blob squish
G92 E0
G92 E0
G1 F1500 E-6.5
;LAYER_COUNT:85
;LAYER:0
M107
G0 F6000 X89.499 Y108.611 Z0.3
;TYPE:SKIRT
G1 F1500 E0
G1 F600 X89.544 Y108.611 E0.00337
G1 X90.402 Y109.242 E0.08307
G1 X90.703 Y109.414 E0.10901
G1 X91.074 Y109.518 E0.13785
G1 X92.828 Y109.775 E0.27051
G1 X93.213 Y109.782 E0.29933
G1 X94.672 Y109.618 E0.4092
G1 X95.328 Y109.514 E0.4589
G1 X95.288 Y109.605 E0.46634
G1 X94.52 Y110.059 E0.53311
G1 X93.323 Y110.058 E0.62269
G1 X91.823 Y110.061 E0.73494
G1 X90.361 Y109.436 E0.85393
G1 X89.46 Y108.843 E0.93465
G1 X89.427 Y108.725 E0.94382
G1 X89.499 Y108.611 E0.95391
G0 F6000 X89.304 Y108.011
G1 F600 X89.741 Y108.011 E0.98661
G1 X90.758 Y108.759 E1.08109
G1 X90.995 Y108.884 E1.10114
G1 X91.161 Y108.924 E1.11392
G1 X92.915 Y109.181 E1.24658
G1 X93.146 Y109.185 E1.26387
G1 X94.647 Y109.015 E1.37691
G1 X95.595 Y108.862 E1.44878
G1 X95.889 Y109.076 E1.47599
G1 X96.01 Y109.449 E1.50533
G1 X95.76 Y110.024 E1.55226
G1 X94.684 Y110.659 E1.64575
G1 X93.324 Y110.658 E1.74753
G1 X91.703 Y110.662 E1.86884
G1 X90.074 Y109.965 E2.00144
G1 X88.942 Y109.22 E2.10285
G1 X88.801 Y108.712 E2.1423
G1 X88.944 Y108.273 E2.17685
G1 X89.304 Y108.011 E2.21018
G0 F6000 X89.109 Y107.411
G1 F600 X89.937 Y107.411 E2.27214
G1 X91.113 Y108.276 E2.38139
G1 X91.248 Y108.331 E2.3923
G1 X93.002 Y108.588 E2.52496
G1 X93.079 Y108.589 E2.53072
G1 X94.552 Y108.423 E2.64165
G1 X95.746 Y108.23 E2.73217
G1 X96.4 Y108.706 E2.7927
G1 X96.652 Y109.478 E2.85347
G1 X96.232 Y110.442 E2.93216
G1 X94.848 Y111.259 E3.05243
G1 X93.326 Y111.258 E3.16633
G1 X91.58 Y111.262 E3.297
G1 X89.791 Y110.497 E3.4426
G1 X88.425 Y109.598 E3.56498
G1 X88.174 Y108.698 E3.6349
G1 X88.433 Y107.903 E3.69747
G1 X89.109 Y107.411 E3.76004
G1 F1500 E-2.73996
;MESH:Front_HubRight.stl
G0 F6000 X108.985 Y107.408
G0 X110.05 Y107.407
G0 X113.392 Y107.844
G0 X113.882 Y107.813
G0 X114.607 Y107.975
G0 X116.079 Y108.888
G0 X115.989 Y110.173
G0 X116.141 Y111.443
G0 X116.481 Y112.547
G0 X117.039 Y113.63
G0 X117.819 Y114.639
G0 X118.73 Y115.453
G0 X119.767 Y116.085
G0 X120.843 Y116.508
G0 X122.101 Y116.755
G0 X123.252 Y116.773
G0 X124.45 Y116.58
G0 X125.658 Y116.148
G0 X126.658 Y115.57
G0 X127.591 Y114.786
G0 X129.893 Y112.162
G0 X130.811 Y112.509
;TYPE:WALL-INNER
G1 F1500 E3.76004
G1 F600 X130.98 Y112.554 E3.77313
G1 X130.528 Y112.926 E3.80171
G1 X130.16 Y113.382 E3.84556
G1 X130.018 Y113.629 E3.86688
G1 X129.816 Y114.006 E3.89889
G1 X129.627 Y114.321 E3.92638
G1 X129.412 Y114.644 E3.95542
G1 X129.173 Y114.968 E3.98555
G1 X128.936 Y115.26 E4.01369
G1 X128.68 Y115.546 E4.04242
G1 X128.41 Y115.819 E4.07115
G1 X128.112 Y116.095 E4.10155
G1 X127.843 Y116.32 E4.12779
G1 X127.529 Y116.558 E4.15728
G1 X127.195 Y116.787 E4.18758
G1 X126.876 Y116.985 E4.21568
G1 X126.531 Y117.176 E4.24519
G1 X126.199 Y117.34 E4.2729
G1 X125.819 Y117.506 E4.30394
G1 X124.876 Y117.864 E4.37942
G1 X124.876 Y121.1 E4.62159
G1 X120.676 Y121.1 E4.9359
G1 X120.676 Y117.866 E5.17791
G1 X119.697 Y117.492 E5.25634
G1 X119.319 Y117.324 E5.2873
G1 X118.943 Y117.135 E5.31879
G1 X118.59 Y116.934 E5.34919
G1 X118.262 Y116.725 E5.37829
G1 X117.918 Y116.481 E5.40986
G1 X117.605 Y116.233 E5.43974
G1 X117.272 Y115.942 E5.47283
G1 X117.001 Y115.68 E5.50104
G1 X116.72 Y115.379 E5.53186
G1 X116.162 Y114.721 E5.59642
G1 X115.857 Y114.398 E5.62967
G1 X115.535 Y114.096 E5.6627
G1 X115.198 Y113.812 E5.69569
G1 X114.844 Y113.547 E5.72878
G1 X114.475 Y113.301 E5.76197
G1 X114.094 Y113.078 E5.795
G1 X113.701 Y112.876 E5.82807
G1 X113.296 Y112.696 E5.86124
G1 X112.884 Y112.54 E5.89421
G1 X112.464 Y112.406 E5.9272
G1 X112.035 Y112.296 E5.96034
G1 X111.602 Y112.21 E5.99338
G1 X111.162 Y112.15 E6.02661
G1 X110.725 Y112.112 E6.05944
G1 X110.55 Y112.107 E6.07254
G1 X110.55 Y110.037 E6.22745
G1 X110.549 Y107.893 E6.38789
G1 X110.74 Y107.888 E6.40219
G1 X111.189 Y107.848 E6.43593
G1 X111.632 Y107.786 E6.4694
G1 X112.045 Y107.702 E6.50094
G1 X112.472 Y107.592 E6.53394
G1 X112.892 Y107.458 E6.56693
G1 X113.295 Y107.304 E6.59922
G1 X113.708 Y107.121 E6.63302
G1 X114.093 Y106.923 E6.66542
G1 X114.473 Y106.701 E6.69835
G1 X114.842 Y106.454 E6.73158
G1 X114.932 Y106.39 E6.73985
G1 X115.204 Y106.183 E6.76543
G1 X115.536 Y105.902 E6.79798
G1 X115.635 Y105.813 E6.80794
G1 X115.859 Y105.599 E6.83112
G1 X115.955 Y105.501 E6.84139
G1 X116.167 Y105.276 E6.86452
G1 X116.725 Y104.616 E6.9292
G1 X116.996 Y104.326 E6.95891
G1 X117.302 Y104.03 E6.99077
G1 X117.613 Y103.759 E7.02164
G1 X117.919 Y103.517 E7.05083
G1 X118.259 Y103.277 E7.08198
G1 X118.584 Y103.07 E7.11081
G1 X118.971 Y102.85 E7.14413
G1 X119.311 Y102.679 E7.17261
G1 X119.709 Y102.504 E7.20514
G1 X120.676 Y102.134 E7.28263
G1 X120.676 Y98.9 E7.52464
G1 X124.876 Y98.9 E7.83895
G1 X124.876 Y102.136 E8.08112
G1 X125.849 Y102.505 E8.15899
G1 X126.193 Y102.656 E8.18711
G1 X126.555 Y102.836 E8.21736
G1 X126.89 Y103.023 E8.24607
G1 X127.218 Y103.227 E8.27498
G1 X127.553 Y103.459 E8.30547
G1 X127.848 Y103.685 E8.33328
G1 X128.16 Y103.949 E8.36387
G1 X128.447 Y104.216 E8.3932
G1 X128.695 Y104.471 E8.41982
G1 X128.976 Y104.788 E8.45153
G1 X129.209 Y105.079 E8.47942
G1 X129.447 Y105.405 E8.50963
G1 X129.652 Y105.719 E8.53769
G1 X129.85 Y106.055 E8.56688
G1 X130.06 Y106.452 E8.60049
G1 X130.359 Y106.919 E8.64199
G1 X130.783 Y107.35 E8.68723
G1 X131.007 Y107.499 E8.70736
G1 X130.533 Y107.692 E8.72872
G1 X130.04 Y108.027 E8.77332
G1 X129.816 Y108.271 E8.79811
G1 X129.714 Y107.893 E8.81066
G1 X129.553 Y107.422 E8.84791
G1 X129.412 Y107.08 E8.87559
G1 X129.194 Y106.627 E8.91322
G1 X129.016 Y106.309 E8.94049
G1 X128.791 Y105.951 E8.97213
G1 X128.741 Y105.879 E8.97869
G1 X128.493 Y105.542 E9.01
G1 X128.257 Y105.253 E9.03793
G1 X127.918 Y104.888 E9.07521
G1 X127.603 Y104.59 E9.10766
G1 X127.271 Y104.312 E9.14006
G1 X126.924 Y104.053 E9.17246
G1 X126.613 Y103.849 E9.2003
G1 X126.255 Y103.64 E9.23132
G1 X126.178 Y103.598 E9.23788
G1 X125.853 Y103.435 E9.26509
G1 X125.396 Y103.24 E9.30228
G1 X124.986 Y103.095 E9.33482
G1 X124.569 Y102.974 E9.36731
G1 X124.145 Y102.881 E9.3998
G1 X123.717 Y102.811 E9.43225
G1 X123.286 Y102.768 E9.46467
G1 X122.856 Y102.751 E9.49687
G1 X122.482 Y102.755 E9.52486
G1 X122.062 Y102.785 E9.55637
G1 X121.976 Y102.794 E9.56284
G1 X121.621 Y102.843 E9.58966
G1 X121.194 Y102.923 E9.62217
G1 X120.711 Y103.05 E9.65955
G1 X120.361 Y103.163 E9.68707
G1 X119.956 Y103.32 E9.71958
G1 X119.563 Y103.501 E9.75196
G1 X119.18 Y103.704 E9.7844
G1 X118.811 Y103.93 E9.81678
G1 X118.454 Y104.178 E9.84931
G1 X118.113 Y104.448 E9.88186
G1 X117.799 Y104.729 E9.91339
G1 X117.737 Y104.789 E9.91985
G1 X117.434 Y105.098 E9.95223
G1 X117.195 Y105.372 E9.97944
G1 X116.931 Y105.711 E10.0116
G1 X116.69 Y106.059 E10.04328
G1 X116.642 Y106.135 E10.05
G1 X116.43 Y106.498 E10.08146
G1 X116.228 Y106.886 E10.1142
G1 X116.055 Y107.28 E10.1464
G1 X115.905 Y107.688 E10.17893
G1 X115.779 Y108.103 E10.21139
G1 X115.747 Y108.235 E10.22155
G1 X115.699 Y108.17
G1 X115.242 Y107.787 E10.26617
G1 X114.786 Y107.549 E10.30467
G1 X114.404 Y107.425 E10.33472
G1 X113.903 Y107.349 E10.36681
G1 X113.312 Y107.387 E10.38498
G1 X112.809 Y107.531 E10.39775
G1 X112.28 Y107.805 E10.42561
G1 X111.83 Y108.197 E10.45486
G1 X111.521 Y108.606 E10.49322
G1 X111.338 Y108.96 E10.52305
G1 X111.179 Y109.449 E10.56153
G1 X111.124 Y110.036 E10.60565
G1 X111.183 Y110.56 E10.64511
G1 X111.372 Y111.123 E10.68955
G1 X111.683 Y111.633 E10.73425
G1 X112.037 Y112.001 E10.76659
G1 X112.36 Y112.24 E10.78486
G1 X112.811 Y112.473 E10.80209
G1 X113.384 Y112.624 E10.81278
G1 X113.905 Y112.649 E10.83423
G1 X114.495 Y112.557 E10.87892
G1 X115.05 Y112.328 E10.92385
G1 X115.479 Y112.032 E10.96285
G1 X115.744 Y111.756 E10.99149
G1 X115.778 Y111.898
G1 X115.904 Y112.312 E11.01191
G1 X116.055 Y112.719 E11.04439
G1 X116.229 Y113.115 E11.07676
G1 X116.422 Y113.491 E11.10839
G1 X116.464 Y113.566 E11.11482
G1 X116.649 Y113.877 E11.1419
G1 X116.885 Y114.225 E11.17337
G1 X116.936 Y114.295 E11.17985
G1 X117.196 Y114.63 E11.21159
G1 X117.483 Y114.954 E11.24398
G1 X117.743 Y115.218 E11.27171
G1 X118.063 Y115.509 E11.30407
G1 X118.454 Y115.822 E11.34156
G1 X118.81 Y116.069 E11.37398
G1 X119.179 Y116.295 E11.40636
G1 X119.562 Y116.498 E11.4388
G1 X119.955 Y116.679 E11.47118
G1 X120.36 Y116.836 E11.50369
G1 X120.712 Y116.95 E11.53138
G1 X121.115 Y117.057 E11.56258
G1 X121.204 Y117.078 E11.56942
G1 X121.62 Y117.156 E11.6011
G1 X121.975 Y117.205 E11.62792
G1 X122.059 Y117.214 E11.63424
G1 X122.48 Y117.245 E11.66583
G1 X122.854 Y117.249 E11.69382
G1 X123.284 Y117.233 E11.72602
G1 X123.716 Y117.19 E11.75851
G1 X124.145 Y117.12 E11.79104
G1 X124.564 Y117.027 E11.82316
G1 X124.985 Y116.906 E11.85594
G1 X125.395 Y116.761 E11.88848
G1 X125.852 Y116.566 E11.92567
G1 X126.185 Y116.4 E11.95351
G1 X126.549 Y116.191 E11.98492
G1 X126.621 Y116.146 E11.99128
G1 X126.923 Y115.948 E12.0183
G1 X127.263 Y115.695 E12.05002
G1 X127.332 Y115.639 E12.05667
G1 X127.65 Y115.368 E12.08793
G1 X127.919 Y115.11 E12.11583
G1 X128.213 Y114.795 E12.14807
G1 X128.491 Y114.462 E12.18053
G1 X128.741 Y114.12 E12.21224
G1 X128.791 Y114.047 E12.21886
G1 X129.016 Y113.691 E12.25037
G1 X129.226 Y113.312 E12.2828
G1 X129.412 Y112.92 E12.31527
G1 X129.553 Y112.575 E12.34316
G1 X129.714 Y112.107 E12.3802
G1 X129.799 Y111.79 E12.40476
G1 X130.037 Y112.037 E12.4146
G1 X130.36 Y112.276 E12.44467
G1 X130.811 Y112.509 E12.46675
G0 F6000 X131.028 Y111.946
;TYPE:WALL-OUTER
G1 F600 X131.475 Y112.064 E12.50135
G1 X131.873 Y112.083 E12.53117
G1 X132.332 Y112.011 E12.56594
G1 X132.762 Y111.834 E12.60074
G1 X133.088 Y111.609 E12.63038
G1 X133.305 Y111.398 E12.65303
G1 X133.54 Y111.082 E12.6825
G1 X133.707 Y110.722 E12.7122
G1 X133.786 Y110.431 E12.73476
G1 X133.825 Y110.035 E12.76454
G1 X133.774 Y109.577 E12.79903
G1 X133.62 Y109.141 E12.83363
G1 X133.409 Y108.799 E12.8637
G1 X133.092 Y108.463 E12.89827
G1 X132.706 Y108.209 E12.93285
G1 X132.335 Y108.064 E12.96266
G1 X131.877 Y107.988 E12.9974
G1 X131.482 Y108.009 E13.02701
G1 X131.191 Y108.072 E13.04929
G1 X130.818 Y108.224 E13.07943
G1 X130.435 Y108.484 E13.11407
G1 X130.124 Y108.823 E13.1485
G1 X129.922 Y109.166 E13.17829
G1 X129.77 Y109.607 E13.2132
G1 X129.727 Y110.066 E13.2477
G1 X129.772 Y110.467 E13.27789
G1 X129.919 Y110.904 E13.3124
G1 X130.161 Y111.3 E13.34713
G1 X130.435 Y111.585 E13.37671
G1 X130.678 Y111.765 E13.39934
G1 X131.028 Y111.946 E13.42883
G0 F6000 X130.791 Y112.561
G1 F1500 E6.92883
G0 F6000 X129.893 Y112.162
G0 X127.34 Y115.026
G0 X126.313 Y115.795
G0 X125.227 Y116.332
G0 X124.174 Y116.634
G0 X122.491 Y116.843
G1 F1500 E13.42883
G0 F6000 X122.506 Y116.645
G1 F600 X122.846 Y116.649 E13.45428
G1 X123.243 Y116.634 E13.48401
G1 X123.638 Y116.595 E13.51371
G1 X124.031 Y116.531 E13.54351
G1 X124.416 Y116.445 E13.57303
G1 X124.802 Y116.334 E13.60309
G1 X125.177 Y116.202 E13.63284
G1 X125.6 Y116.021 E13.66727
G1 X125.901 Y115.871 E13.69244
G1 X126.242 Y115.675 E13.72187
G1 X126.299 Y115.64 E13.72688
G1 X126.579 Y115.456 E13.75195
G1 X126.895 Y115.221 E13.78142
G1 X126.948 Y115.178 E13.78653
G1 X127.247 Y114.923 E13.81594
G1 X127.492 Y114.688 E13.84134
G1 X127.763 Y114.398 E13.87105
G1 X128.018 Y114.092 E13.90085
G1 X128.251 Y113.774 E13.93036
G1 X128.289 Y113.718 E13.93542
G1 X128.499 Y113.385 E13.96488
G1 X128.692 Y113.037 E13.99466
G1 X128.863 Y112.678 E14.02442
G1 X128.991 Y112.364 E14.0498
G1 X129.14 Y111.931 E14.08406
G1 X129.243 Y111.547 E14.11382
G1 X129.313 Y111.217 E14.13906
G1 X129.382 Y110.764 E14.17335
G1 X129.416 Y110.369 E14.20302
G1 X129.426 Y109.972 E14.23274
G1 X129.417 Y109.632 E14.25819
G1 X129.383 Y109.236 E14.28794
G1 X129.314 Y108.781 E14.32238
G1 X129.244 Y108.453 E14.34748
G1 X129.14 Y108.069 E14.37725
G1 X128.991 Y107.634 E14.41166
G1 X128.863 Y107.323 E14.43683
G1 X128.694 Y106.968 E14.46625
G1 X128.664 Y106.909 E14.4712
G1 X128.5 Y106.615 E14.4964
G1 X128.29 Y106.282 E14.52586
G1 X128.252 Y106.227 E14.53086
G1 X128.019 Y105.91 E14.5603
G1 X127.804 Y105.647 E14.58572
G1 X127.491 Y105.31 E14.62014
G1 X127.204 Y105.038 E14.64973
G1 X126.899 Y104.783 E14.67949
G1 X126.58 Y104.545 E14.70927
G1 X126.297 Y104.359 E14.73461
G1 X125.959 Y104.162 E14.76389
G1 X125.899 Y104.129 E14.76901
G1 X125.601 Y103.98 E14.79395
G1 X125.178 Y103.799 E14.82838
G1 X124.803 Y103.667 E14.85813
G1 X124.42 Y103.556 E14.88797
G1 X124.032 Y103.47 E14.91771
G1 X123.639 Y103.406 E14.94751
G1 X123.244 Y103.367 E14.97721
G1 X122.847 Y103.351 E15.00695
G1 X122.507 Y103.355 E15.03239
G1 X122.115 Y103.383 E15.0618
G1 X122.048 Y103.39 E15.06684
G1 X121.717 Y103.435 E15.09184
G1 X121.326 Y103.509 E15.12162
G1 X120.88 Y103.626 E15.15613
G1 X120.562 Y103.729 E15.18114
G1 X120.19 Y103.873 E15.211
G1 X119.829 Y104.039 E15.24073
G1 X119.478 Y104.225 E15.27046
G1 X119.139 Y104.433 E15.30022
G1 X118.812 Y104.66 E15.33001
G1 X118.5 Y104.907 E15.35979
G1 X118.207 Y105.169 E15.3892
G1 X118.158 Y105.216 E15.39429
G1 X117.924 Y105.453 E15.41921
G1 X117.879 Y105.501 E15.42413
G1 X117.658 Y105.754 E15.44927
G1 X117.415 Y106.066 E15.47887
G1 X117.191 Y106.39 E15.50835
G1 X117.155 Y106.447 E15.51339
G1 X116.955 Y106.788 E15.54297
G1 X116.77 Y107.145 E15.57307
G1 X116.612 Y107.505 E15.60249
G1 X116.474 Y107.879 E15.63232
G1 X116.358 Y108.26 E15.66212
G1 X116.266 Y108.647 E15.69189
G1 X116.196 Y109.039 E15.72169
G1 X116.151 Y109.434 E15.75144
G1 X116.129 Y109.829 E15.78105
G1 X116.128 Y110.169 E15.80649
G1 X116.15 Y110.565 E15.83617
G1 X116.195 Y110.96 E15.86592
G1 X116.278 Y111.414 E15.90046
G1 X116.357 Y111.74 E15.92557
G1 X116.473 Y112.12 E15.9553
G1 X116.611 Y112.494 E15.98513
G1 X116.771 Y112.857 E16.01482
G1 X116.951 Y113.207 E16.04427
G1 X116.984 Y113.266 E16.04933
G1 X117.156 Y113.555 E16.0745
G1 X117.376 Y113.88 E16.10387
G1 X117.416 Y113.935 E16.10896
G1 X117.658 Y114.247 E16.13851
G1 X117.921 Y114.544 E16.16819
G1 X118.159 Y114.785 E16.19354
G1 X118.453 Y115.053 E16.22331
G1 X118.813 Y115.341 E16.25781
G1 X119.138 Y115.566 E16.28739
G1 X119.477 Y115.774 E16.31716
G1 X119.828 Y115.96 E16.34689
G1 X120.189 Y116.126 E16.37662
G1 X120.561 Y116.27 E16.40647
G1 X120.882 Y116.374 E16.43172
G1 X121.262 Y116.475 E16.46115
G1 X121.329 Y116.491 E16.4663
G1 X121.716 Y116.564 E16.49578
G1 X122.047 Y116.609 E16.52077
G1 X122.113 Y116.616 E16.52574
G1 X122.506 Y116.645 E16.55523
G0 F6000 X122.478 Y117.304
G1 F1500 E10.05523
G0 F6000 X119.408 Y115.895
G0 X118.363 Y115.159
G0 X115.897 Y112.784
G0 X115.648 Y112.128
G0 X114.362 Y112.172
G1 F1500 E16.55523
G0 F6000 X114.332 Y111.975
G1 F600 X114.762 Y111.798 E16.59003
G1 X115.088 Y111.573 E16.61967
G1 X115.41 Y111.237 E16.6545
G1 X115.646 Y110.839 E16.68913
G1 X115.773 Y110.462 E16.7189
G1 X115.818 Y110.165 E16.74138
G1 X115.814 Y109.77 E16.77094
G1 X115.709 Y109.316 E16.80581
G1 X115.54 Y108.958 E16.83544
G1 X115.261 Y108.586 E16.87023
G1 X114.906 Y108.289 E16.90487
G1 X114.553 Y108.104 E16.9347
G1 X114.266 Y108.011 E16.95727
G1 X113.877 Y107.952 E16.98672
G1 X113.415 Y107.982 E17.02137
G1 X113.032 Y108.091 E17.05117
G1 X112.62 Y108.305 E17.08591
G1 X112.271 Y108.608 E17.1205
G1 X112.031 Y108.927 E17.15037
G1 X111.893 Y109.193 E17.1728
G1 X111.77 Y109.571 E17.20254
G1 X111.727 Y110.03 E17.23704
G1 X111.772 Y110.43 E17.26717
G1 X111.919 Y110.868 E17.30174
G1 X112.161 Y111.264 E17.33647
G1 X112.435 Y111.549 E17.36606
G1 X112.678 Y111.729 E17.38869
G1 X113.028 Y111.91 E17.41818
