;FLAVOR:Marlin
;TIME:3279
;Filament used: 1.45887m
;Layer height: 0.2
;MINX:85.851
;MINY:92.839
;MINZ:0.3
;MAXX:133.8
;MAXY:161.13
;MAXZ:8.9
;Generated with Cura_SteamEngine 4.12.1
M140 S80
M105
M190 S80
M104 S220
M105
M109 S220
M82 ;absolute extrusion mode
; Ender 3 Custom Start G-code
G92 E0 ; Reset Extruder
G28 ; Home all axes
G1 Z2.0 F3000 ; Move Z Axis up little to prevent scratching of Heat Bed
G1 X0.1 Y20 Z0.3 F5000.0 ; Move to start position
G1 X0.1 Y200.0 Z0.3 F1500.0 E15 ; Draw the first line
G1 X0.4 Y200.0 Z0.3 F5000.0 ; Move to side a little
G1 X0.4 Y20 Z0.3 F1500.0 E30 ; Draw the second line
G92 E0 ; Reset Extruder
G1 Z2.0 F3000 ; Move Z Axis up little to prevent scratching of Heat Bed
G1 X5 Y20 Z0.3 F5000.0 ; Move over to prevent blob squish
G92 E0
G92 E0
G1 F1500 E-6.5
;LAYER_COUNT:44
;LAYER:0
M107
;MESH:Front_SuspensionUpperLeft.stl
G0 F6000 X99.1 Y119.4 Z0.3
;TYPE:WALL-INNER
G1 F1500 E0
G1 F600 X118.767 Y119.4 E1.47179
G1 X119.232 Y118.3 E1.56116
G1 X100.222 Y98.759 E3.60134
G1 X99.1 Y99.215 E3.69197
G1 X99.1 Y119.4 E5.20252
G0 F6000 X99.7 Y118.8
;TYPE:WALL-OUTER
G1 F600 X118.369 Y118.8 E6.59962
G1 X118.524 Y118.433 E6.62944
G1 X100.074 Y99.467 E8.60955
G1 X99.7 Y99.619 E8.63976
G1 X99.7 Y118.8 E10.07518
G1 F1500 E3.57518
G0 F6000 X99.5 Y118.8
G0 X118.457 Y118.933
G0 X118.681 Y118.404
G0 X119.629 Y117.289
G0 X119.778 Y117.141
;TYPE:WALL-INNER
G1 F1500 E10.07518
G1 F600 X120.9 Y116.685 E10.16581
G1 X120.9 Y100.152 E11.40306
G1 X101.051 Y96.066 E12.91962
G1 X100.412 Y97.233 E13.01918
G1 X119.778 Y117.141 E15.09763
G0 F6000 X119.926 Y116.433
;TYPE:WALL-OUTER
G1 F600 X120.3 Y116.281 E15.12784
G1 X120.3 Y100.641 E16.29826
G1 X101.364 Y96.743 E17.74506
G1 X101.151 Y97.132 E17.77825
G1 X119.926 Y116.433 E19.79329
G1 F1500 E13.29329
G0 F6000 X119.782 Y116.571
G0 X117.892 Y115.476
G0 X116.048 Y117.271
G0 X115.239 Y117.835
G0 X115.239 Y120.39
G0 X112.622 Y120.6
;TYPE:WALL-INNER
G1 F1500 E19.79329
G1 F600 X88.362 Y120.6 E21.60879
G1 X88.361 Y119.4 E21.6986
G1 X97.9 Y119.4 E22.41245
G1 X97.9 Y95.6 E24.19353
G1 X89.75 Y95.6 E24.80344
G1 X89.749 Y94.4 E24.89324
G1 X98.906 Y94.4 E25.57851
G1 X130.25 Y100.853 E27.97334
G1 X130.25 Y102.6 E28.10408
G1 X122.1 Y102.6 E28.71398
G1 X122.1 Y119.4 E29.97122
G1 X131.638 Y119.4 E30.685
G1 X131.639 Y120.6 E30.7748
G1 X115.253 Y120.6 E32.00105
G1 X114.79 Y120.662 E32.03601
G1 X114.307 Y120.884 E32.07579
G1 X113.952 Y121.218 E32.11227
G1 X113.936 Y121.25 E32.11494
G1 X113.816 Y121.076 E32.12355
G1 X113.358 Y120.756 E32.16536
G1 X112.868 Y120.618 E32.20346
G1 X112.622 Y120.6 E32.22192
G0 F6000 X113.484 Y121.406
G0 X113.669 Y121.674
G0 X113.734 Y121.974
G0 X113.73 Y124.106
G0 X113.598 Y124.452
G0 X113.325 Y124.727
G0 X110.346 Y125.6
G1 F600 X110.346 Y125.401 E32.23681
G1 X112.676 Y125.398 E32.41117
G1 X113.103 Y125.337 E32.44345
G1 X113.594 Y125.112 E32.48387
G1 X113.954 Y124.749 E32.52213
G1 X114.075 Y124.924
G1 X114.531 Y125.243 E32.56378
G1 X115.023 Y125.382 E32.60204
G1 X115.27 Y125.4 E32.62057
G1 X117.546 Y125.4 E32.7909
G1 X117.546 Y125.6 E32.80586
G1 X115.27 Y125.6 E32.86273
G1 X114.531 Y125.6 E32.89402
G1 X113.594 Y125.6 E32.96156
G1 X112.676 Y125.6 E33.0118
G1 X110.346 Y125.6 E33.07016
G0 F6000 X109.82 Y126.153
;TYPE:WALL-OUTER
G1 F600 X109.75 Y126.033 E33.08056
G1 X109.746 Y125.987 E33.08402
G1 X109.746 Y125.012 E33.15698
G1 X109.797 Y124.869 E33.16834
G1 X109.957 Y124.801 E33.18135
G1 X112.633 Y124.798 E33.38161
G1 X112.932 Y124.755 E33.40422
G1 X113.245 Y124.612 E33.42997
G1 X113.479 Y124.376 E33.45484
G1 X113.592 Y124.078 E33.47869
G1 X113.595 Y124.007 E33.48401
G1 X113.595 Y121.989 E33.63503
G1 X113.539 Y121.73 E33.65486
G1 X113.384 Y121.506 E33.67524
G1 X113.098 Y121.306 E33.70136
G1 X112.764 Y121.212 E33.72732
G1 X112.6 Y121.2 E33.73963
G1 X87.762 Y121.2 E35.59839
G1 X87.761 Y118.8 E35.77799
G1 X97.3 Y118.8 E36.49185
G1 X97.3 Y96.2 E38.18313
G1 X89.15 Y96.2 E38.79303
G1 X89.149 Y93.8 E38.97264
G1 X98.969 Y93.8 E39.70752
G1 X130.85 Y100.364 E42.14339
G1 X130.85 Y103.2 E42.35562
G1 X122.7 Y103.2 E42.96553
G1 X122.7 Y118.8 E44.13296
G1 X132.238 Y118.8 E44.84674
G1 X132.239 Y121.2 E45.02634
G1 X115.293 Y121.2 E46.2945
G1 X114.959 Y121.245 E46.31972
G1 X114.647 Y121.388 E46.34541
G1 X114.441 Y121.582 E46.36658
G1 X114.318 Y121.828 E46.38717
G1 X114.298 Y121.928 E46.3948
G1 X114.296 Y122.35 E46.42638
G1 X114.297 Y124.008 E46.55046
G1 X114.353 Y124.272 E46.57065
G1 X114.507 Y124.494 E46.59087
G1 X114.792 Y124.693 E46.61689
G1 X115.128 Y124.788 E46.64302
G1 X115.292 Y124.8 E46.65532
G1 X117.938 Y124.8 E46.85334
G1 X118.076 Y124.85 E46.86432
G1 X118.141 Y124.966 E46.87427
G1 X118.146 Y125.019 E46.87825
G1 X118.146 Y125.992 E46.95107
G1 X118.096 Y126.13 E46.96205
G1 X117.98 Y126.195 E46.972
G1 X117.927 Y126.2 E46.97599
G1 X109.954 Y126.2 E47.57265
G1 X109.82 Y126.153 E47.58328
G0 F6000 X109.95 Y125.994
G0 X113.325 Y124.727
G0 X113.598 Y124.452
G0 X113.734 Y124.009
G0 X113.734 Y121.974
G0 X113.669 Y121.674
G0 X112.627 Y120.489
G0 X112.644 Y120.01
;TYPE:SKIN
G1 F600 X88.952 Y120.01 E49.35627
G1 X88.951 Y119.99 E49.35777
G1 X98.49 Y119.99 E50.07163
G1 X98.49 Y95.01 E51.94101
G1 X90.34 Y95.01 E52.55092
G1 X90.339 Y94.99 E52.55242
G1 X98.846 Y94.99 E53.18904
G1 X129.66 Y101.334 E55.54338
G1 X129.66 Y102.01 E55.59397
G1 X121.51 Y102.01 E56.20388
G1 X121.51 Y119.99 E57.54942
G1 X131.048 Y119.99 E58.2632
G1 X131.049 Y120.01 E58.2647
G1 X115.214 Y120.01 E59.44971
G1 X114.624 Y120.089 E59.49426
G1 X113.973 Y120.388 E59.54787
G1 X113.926 Y120.433 E59.55274
G1 X113.614 Y120.215 E59.58122
G1 X112.97 Y120.034 E59.63128
G1 X112.644 Y120.01 E59.65575
G0 F6000 X112.627 Y120.489
G0 X113.963 Y120.961
G0 X119.158 Y120.49
G0 X119.158 Y119.99
G1 F600 X119.928 Y118.169 E59.8037
G1 X100.368 Y98.063 E61.90289
G1 X98.51 Y98.818 E62.05298
G1 X98.51 Y119.99 E63.63739
G1 X119.158 Y119.99 E65.18259
G1 F1500 E58.68259
G0 F6000 X119.158 Y120.49
G0 X118.895 Y119.594
G0 X119.274 Y118.183
G1 F1500 E65.18259
G0 F6000 X119.632 Y117.837
G1 F600 X121.49 Y117.082 E65.33267
G1 X121.49 Y99.671 E66.63563
G1 X100.743 Y95.4 E68.2208
G1 X99.685 Y97.332 E68.38564
G1 X119.632 Y117.837 E70.52642
G0 F6000 X119.274 Y118.184
G0 X118.923 Y119.315
G0 X119.602 Y119.602
G1 F600 X119.749 Y119.749 E70.54198
G0 F6000 X119.854 Y119.006
G1 F600 X120.597 Y119.749 E70.62061
G0 F6000 X121.249 Y119.552
G1 F600 X120.107 Y118.409 E70.74153
G0 F6000 X120.365 Y117.819
G1 F600 X121.249 Y118.704 E70.83514
G0 F6000 X121.249 Y117.855
G1 F600 X120.968 Y117.574 E70.86488
G1 F1500 E64.36488
G0 F6000 X120.692 Y116.889
G0 X121.09 Y102.49
G0 X121.89 Y102.49
G1 F1500 E70.86488
G0 F6000 X122.114 Y101.749
G1 F600 X121.749 Y101.384 E70.90351
G0 F6000 X121.749 Y100.536
G1 F600 X122.963 Y101.749 E71.03193
G0 F6000 X123.811 Y101.749
G1 F600 X122.106 Y100.044 E71.21238
G0 F6000 X122.256 Y99.321
G0 X123.324 Y99.541
G0 X123.174 Y100.264
G1 F600 X124.66 Y101.749 E71.36959
G0 F6000 X125.508 Y101.749
G1 F600 X124.243 Y100.484 E71.50347
G0 F6000 X124.393 Y99.761
G0 X125.462 Y99.981
G0 X125.312 Y100.704
G1 F600 X126.357 Y101.749 E71.61407
G0 F6000 X126.38 Y100.924
G1 F600 X127.205 Y101.749 E71.70138
G0 F6000 X127.448 Y101.144
G1 F600 X128.054 Y101.749 E71.76546
G0 F6000 X128.518 Y101.365
G1 F600 X128.902 Y101.749 E71.8061
G1 F1500 E65.3061
G0 F6000 X128.902 Y102.49
G0 X130.068 Y102.418
G0 X130.071 Y100.999
G0 X101.065 Y95.04
G0 X100.949 Y95.847
G0 X100.809 Y96.276
G1 F1500 E71.8061
G0 F6000 X100.161 Y95.919
G1 F600 X99.668 Y95.425 E71.85833
G0 F6000 X98.748 Y95.354
G1 F600 X99.861 Y96.467 E71.97612
G0 F6000 X99.56 Y97.015
G1 F600 X98.748 Y96.203 E72.06206
G0 F6000 X98.748 Y97.051
G1 F600 X99.735 Y98.038 E72.16652
G0 F6000 X99.132 Y98.283
G1 F600 X98.748 Y97.9 E72.2071
G1 F1500 E65.7071
G0 F6000 X98.01 Y97.9
G0 X98.082 Y119.582
G0 X88.543 Y119.582
G0 X88.544 Y120.418
G0 X112.967 Y120.454
G0 X113.822 Y121.742
G0 X113.922 Y121.842
;TYPE:SKIN
G1 F1500 E72.2071
G1 F600 X113.945 Y122.148 E72.21279
G1 X113.967 Y124.149 E72.24983
G1 X113.762 Y124.51 E72.25752
G1 X113.949 Y125.263 E72.27188
G0 F6000 X113.873 Y124.478
G1 F1500 E65.77188
;MESH:Front_SuspensionUpperRight.stl
G0 F6000 X109.973 Y126.081
G0 X109.973 Y127.165
G0 X108.948 Y128.213
G0 X108.782 Y128.757
G0 X108.798 Y130.047
G0 X109.973 Y132.665
G0 X109.973 Y135.24
G0 X99.572 Y135.902
G0 X99.567 Y155.3
G0 X100.222 Y156.071
;TYPE:WALL-INNER
G1 F1500 E72.27188
G1 F600 X119.232 Y136.53 E74.31206
G1 X118.767 Y135.43 E74.40144
G1 X99.1 Y135.43 E75.87322
G1 X99.1 Y155.615 E77.38377
G1 X100.222 Y156.071 E77.47441
G0 F6000 X100.074 Y155.363
;TYPE:WALL-OUTER
G1 F600 X118.524 Y136.397 E79.45452
G1 X118.369 Y136.03 E79.48433
G1 X99.7 Y136.03 E80.88144
G1 X99.7 Y155.211 E82.31685
G1 X100.074 Y155.363 E82.34706
G1 F1500 E75.84706
G0 F6000 X99.999 Y155.547
G0 X100.27 Y156.3
G0 X100.84 Y156.856
G0 X101.051 Y158.764
;TYPE:WALL-INNER
G1 F1500 E82.34706
G1 F600 X120.9 Y154.677 E83.86363
G1 X120.9 Y138.145 E85.10081
G1 X119.778 Y137.689 E85.19144
G1 X100.412 Y157.597 E87.26988
G1 X101.051 Y158.764 E87.36945
G0 F6000 X101.364 Y158.087
;TYPE:WALL-OUTER
G1 F600 X120.3 Y154.188 E88.81626
G1 X120.3 Y138.549 E89.98661
G1 X119.926 Y138.397 E90.01682
G1 X101.151 Y157.698 E92.03187
G1 X101.364 Y158.087 E92.06505
G1 F1500 E85.56505
G0 F6000 X101.189 Y158.182
G0 X100.989 Y157.676
G0 X119.183 Y138.027
G0 X119.183 Y134.44
G0 X114.732 Y133.651
G0 X114.407 Y133.424
G0 X114.223 Y133.156
G0 X113.669 Y130.504
G0 X113.484 Y130.236
G0 X113.158 Y130.008
G0 X110.347 Y129.43
;TYPE:WALL-INNER
G1 F1500 E92.06505
G1 F600 X110.346 Y129.23 E92.08002
G1 X112.622 Y129.23 E92.25035
G1 X113.358 Y129.23 E92.30543
G1 X114.307 Y129.23 E92.37644
G1 X115.254 Y129.23 E92.44731
G1 X117.546 Y129.23 E92.61884
G1 X117.546 Y129.43 E92.6338
G1 X115.254 Y129.43 E92.69107
G1 X114.79 Y129.492 E92.7063
G1 X114.307 Y129.714 E92.73784
G1 X113.952 Y130.048 E92.77432
G1 X113.936 Y130.08 E92.777
G1 X113.816 Y129.906 E92.78561
G1 X113.358 Y129.586 E92.82742
G1 X112.868 Y129.448 E92.84572
G1 X112.622 Y129.43
G1 X110.347 Y129.43 E92.90254
G1 F1500 E86.40254
G0 F6000 X113.158 Y130.008
G0 X113.484 Y130.236
G0 X113.669 Y130.504
G0 X113.734 Y130.804
G0 X113.73 Y132.937
G0 X113.598 Y133.282
G0 X113.325 Y133.557
G0 X112.971 Y133.72
G0 X108.269 Y134.402
G0 X88.543 Y134.412
G0 X88.544 Y135.248
G0 X98.082 Y135.248
G0 X97.9 Y159.23
G1 F1500 E92.90254
G1 F600 X97.9 Y135.43 E94.68362
G1 X88.362 Y135.43 E95.3974
G1 X88.361 Y134.23 E95.4872
G1 X112.639 Y134.23 E97.30405
G1 X113.1 Y134.168 E97.33886
G1 X113.594 Y133.942 E97.37951
G1 X113.954 Y133.579 E97.41777
G1 X114.075 Y133.754
G1 X114.531 Y134.073 E97.45942
G1 X115.023 Y134.212 E97.49768
G1 X115.27 Y134.23 E97.51621
G1 X131.638 Y134.23 E98.74112
G1 X131.639 Y135.43 E98.83092
G1 X122.1 Y135.43 E99.54477
G1 X122.1 Y152.23 E100.802
G1 X130.25 Y152.23 E101.41191
G1 X130.251 Y153.976 E101.54257
G1 X98.905 Y160.43 E103.93757
G1 X89.75 Y160.43 E104.62269
G1 X89.749 Y159.23 E104.71249
G1 X97.9 Y159.23 E105.32247
G0 F6000 X97.3 Y158.63
;TYPE:WALL-OUTER
G1 F600 X97.3 Y136.03 E107.01375
G1 X87.762 Y136.03 E107.72753
G1 X87.761 Y133.63 E107.90713
G1 X112.599 Y133.63 E109.76589
G1 X112.932 Y133.585 E109.79104
G1 X113.245 Y133.442 E109.81679
G1 X113.479 Y133.206 E109.84166
G1 X113.592 Y132.909 E109.86544
G1 X113.595 Y132.837 E109.87084
G1 X113.595 Y130.819 E110.02185
G1 X113.539 Y130.56 E110.04168
G1 X113.384 Y130.336 E110.06207
G1 X113.098 Y130.136 E110.08818
G1 X112.764 Y130.042 E110.11415
G1 X112.6 Y130.03 E110.12646
G1 X109.954 Y130.03 E110.32447
G1 X109.82 Y129.983 E110.3351
G1 X109.75 Y129.864 E110.34543
G1 X109.747 Y129.825 E110.34836
G1 X109.746 Y128.842 E110.42192
G1 X109.797 Y128.699 E110.43328
G1 X109.912 Y128.635 E110.44313
G1 X109.965 Y128.63 E110.44711
G1 X117.938 Y128.63 E111.04378
G1 X118.076 Y128.68 E111.05476
G1 X118.141 Y128.796 E111.06471
G1 X118.146 Y128.849 E111.0687
G1 X118.146 Y129.822 E111.14151
G1 X118.096 Y129.96 E111.15249
G1 X117.98 Y130.025 E111.16245
G1 X117.927 Y130.03 E111.16643
G1 X115.294 Y130.03 E111.36347
G1 X114.959 Y130.075 E111.38877
G1 X114.647 Y130.218 E111.41445
G1 X114.441 Y130.412 E111.43563
G1 X114.318 Y130.658 E111.45621
G1 X114.298 Y130.758 E111.46384
G1 X114.296 Y131.18 E111.49542
G1 X114.297 Y132.838 E111.6195
G1 X114.353 Y133.101 E111.63962
G1 X114.507 Y133.324 E111.6599
G1 X114.792 Y133.523 E111.68591
G1 X115.128 Y133.618 E111.71204
G1 X115.292 Y133.63 E111.72435
G1 X132.238 Y133.63 E112.99251
G1 X132.239 Y136.03 E113.17211
G1 X122.7 Y136.03 E113.88597
G1 X122.7 Y151.63 E115.0534
G1 X130.85 Y151.63 E115.66331
G1 X130.851 Y154.465 E115.87546
G1 X98.968 Y161.03 E118.31149
G1 X89.15 Y161.03 E119.04623
G1 X89.149 Y158.63 E119.22583
G1 X97.3 Y158.63 E119.83582
G0 F6000 X97.5 Y158.63
G0 X97.151 Y159.406
G0 X89.931 Y159.412
G0 X89.932 Y160.248
G0 X98.49 Y160.32
G0 X98.49 Y159.82
;TYPE:SKIN
G1 F600 X98.49 Y134.84 E121.7052
G1 X88.952 Y134.84 E122.41898
G1 X88.951 Y134.82 E122.42048
G1 X112.679 Y134.82 E124.19617
G1 X113.265 Y134.741 E124.24042
G1 X113.938 Y134.434 E124.29578
G1 X113.97 Y134.401 E124.29922
G1 X114.275 Y134.614 E124.32706
G1 X114.921 Y134.796 E124.37728
G1 X115.248 Y134.82 E124.40182
G1 X131.048 Y134.82 E125.58422
G1 X131.049 Y134.84 E125.58572
G1 X121.51 Y134.84 E126.29957
G1 X121.51 Y152.82 E127.64511
G1 X129.66 Y152.82 E128.25502
G1 X129.661 Y153.495 E128.30553
G1 X98.845 Y159.84 E130.66003
G1 X90.34 Y159.84 E131.29651
G1 X90.339 Y159.82 E131.298
G1 X98.49 Y159.82 E131.90799
G1 F1500 E125.40799
G0 F6000 X98.49 Y160.32
G0 X89.932 Y160.248
G0 X89.931 Y159.412
G0 X98.082 Y159.412
G0 X98.11 Y157.589
G0 X100.172 Y157.564
G1 F1500 E131.90799
G0 F6000 X99.685 Y157.498
G1 F600 X100.743 Y159.43 E132.07283
G1 X121.49 Y155.158 E133.65801
G1 X121.49 Y137.748 E134.96089
G1 X119.632 Y136.993 E135.11098
G1 X99.685 Y157.498 E137.25176
G1 F1500 E130.75176
G0 F6000 X100.265 Y157.589
G0 X98.11 Y157.564
G0 X98.01 Y156.012
G1 F1500 E137.25176
G0 F6000 X98.51 Y156.012
G1 F600 X100.368 Y156.767 E137.40185
G1 X119.928 Y136.661 E139.50103
G1 X119.158 Y134.84 E139.64899
G1 X98.51 Y134.84 E141.19419
G1 X98.51 Y156.012 E142.7786
G0 F6000 X98.01 Y156.012
G0 X98.082 Y159.412
G0 X89.931 Y159.412
G0 X89.932 Y160.248
G0 X97.184 Y160.256
G0 X99.394 Y160.216
G0 X99.245 Y159.49
G1 F600 X98.749 Y158.995 E142.83104
G0 F6000 X98.749 Y158.146
G1 F600 X99.948 Y159.345 E142.95794
G0 F6000 X99.919 Y158.468
G1 F600 X98.749 Y157.298 E143.08176
G0 F6000 X99.556 Y157.256
G1 F600 X98.749 Y156.449 E143.16717
G1 F1500 E136.66717
G0 F6000 X98.01 Y156.449
G0 X98.11 Y153.994
G0 X100.943 Y156.75
G0 X101.587 Y157.065
G0 X100.989 Y157.676
G0 X101.296 Y158.236
G0 X120.431 Y154.295
G0 X121.01 Y153.994
G1 F1500 E143.16717
G0 F6000 X121.75 Y153.994
G1 F600 X122.465 Y154.709 E143.24284
G0 F6000 X123.168 Y154.564
G1 F600 X121.75 Y153.145 E143.39296
G0 F6000 X122.532 Y153.079
G1 F600 X123.873 Y154.42 E143.53489
G0 F6000 X124.576 Y154.275
G1 F600 X123.38 Y153.079 E143.66146
G0 F6000 X124.229 Y153.079
G1 F600 X125.28 Y154.13 E143.77269
G0 F6000 X125.983 Y153.985
G1 F600 X125.077 Y153.079 E143.86858
G0 F6000 X125.926 Y153.079
G1 F600 X126.687 Y153.84 E143.94912
G0 F6000 X127.39 Y153.695
M104 S210
G1 F600 X126.775 Y153.079 E144.01426
G0 F6000 X127.623 Y153.079
G1 F600 X128.094 Y153.55 E144.0641
G0 F6000 X128.472 Y153.079
G1 F600 X128.798 Y153.406 E144.09866
G1 F1500 E137.59866
G0 F6000 X128.946 Y154.132
G0 X130.072 Y153.83
G0 X130.068 Y152.412
G0 X122.572 Y151.758
G0 X121.89 Y138.051
G0 X121.09 Y138.051
G1 F1500 E144.09866
G0 F6000 X121.242 Y137.364
G1 F600 X119.968 Y136.09 E144.23349
G0 F6000 X119.286 Y136.376
G0 X118.895 Y135.236
G0 X118.895 Y134.44
G0 X119.805 Y134.34
G0 X119.805 Y135.079
G1 F600 X121.25 Y136.523 E144.38637
G0 F6000 X121.25 Y135.675
G1 F600 X120.654 Y135.079 E144.44944
G0 F6000 X120.654 Y134.34
G0 X115.105 Y133.756
G0 X114.732 Y133.651
G0 X114.05 Y133.001
G0 X113.959 Y132.91
;TYPE:SKIN
G1 F600 X113.945 Y132.613 E144.45629
G1 X113.915 Y130.603 E144.50261
G0 F6000 X114.035 Y129.591
G1 F600 X113.948 Y129.504 E144.50568
G1 F1500 E138.00568
G0 F6000 X113.907 Y129.585
G0 X113.827 Y133.061
G0 X113.895 Y133.129
G1 F1500 E144.50568
