;FLAVOR:Marlin
;TIME:1892
;Filament used: 0.859838m
;Layer height: 0.2
;MINX:76.97
;MINY:87.1
;MINZ:0.3
;MAXX:145.663
;MAXY:132.9
;MAXZ:16.9
;Generated with Cura_SteamEngine 4.12.1
M140 S80
M105
M190 S80
M104 S220
M105
M109 S220
M82 ;absolute extrusion mode
; Ender 3 Custom Start G-code
G92 E0 ; Reset Extruder
G28 ; Home all axes
G1 Z2.0 F3000 ; Move Z Axis up little to prevent scratching of Heat Bed
G1 X0.1 Y20 Z0.3 F5000.0 ; Move to start position
G1 X0.1 Y200.0 Z0.3 F1500.0 E15 ; Draw the first line
G1 X0.4 Y200.0 Z0.3 F5000.0 ; Move to side a little
G1 X0.4 Y20 Z0.3 F1500.0 E30 ; Draw the second line
G92 E0 ; Reset Extruder
G1 Z2.0 F3000 ; Move Z Axis up little to prevent scratching of Heat Bed
G1 X5 Y20 Z0.3 F5000.0 ; Move over to prevent blob squish
G92 E0
G92 E0
G1 F1500 E-6.5
;LAYER_COUNT:85
;LAYER:0
M107
G0 F6000 X82.13 Y101.66 Z0.3
;TYPE:SKIRT
G1 F1500 E0
G1 F600 X82.416 Y101.429 E0.02751
G1 X83.059 Y100.926 E0.08861
G1 X83.281 Y100.756 E0.10953
G1 X83.743 Y100.415 E0.1525
G1 X84.049 Y100.195 E0.18071
G1 X84.591 Y99.814 E0.23029
G1 X85.698 Y99.13 E0.32767
G1 X86.684 Y98.6 E0.41144
G1 X87.025 Y98.425 E0.44012
G1 X87.672 Y98.106 E0.49411
G1 X88.526 Y97.729 E0.56396
G1 X89.409 Y97.427 E0.6338
G1 X90.248 Y97.215 E0.69856
G1 X90.508 Y97.16 E0.71845
G1 X92.997 Y96.607 E0.90926
G1 X95.449 Y95.99 E1.09847
G1 X97.88 Y95.303 E1.28752
G1 X100.297 Y94.546 E1.47706
G1 X102.655 Y93.734 E1.6637
G1 X105.018 Y92.843 E1.85268
G1 X107.351 Y91.889 E2.04131
G1 X109.666 Y90.865 E2.23074
G1 X111.966 Y89.769 E2.42141
G1 X113.772 Y88.851 E2.57302
G1 X114.725 Y88.352 E2.65352
G1 X115.57 Y87.955 E2.72339
G1 X116.446 Y87.632 E2.79326
G1 X117.346 Y87.385 E2.8631
G1 X118.264 Y87.216 E2.93295
G1 X119.446 Y87.115 E3.02173
G1 X119.774 Y87.105 E3.04629
G1 X120.106 Y87.1 E3.07114
G1 X125.069 Y87.1 E3.44254
G1 X125.926 Y87.111 E3.50668
G1 X126.858 Y87.164 E3.57654
G1 X127.782 Y87.297 E3.6464
G1 X128.692 Y87.509 E3.71633
G1 X129.58 Y87.797 E3.78619
G1 X130.44 Y88.16 E3.85605
G1 X131.265 Y88.596 E3.92588
G1 X132.051 Y89.101 E3.99579
G1 X132.79 Y89.671 E4.06563
G1 X133.478 Y90.302 E4.1355
G1 X134.109 Y90.99 E4.20536
G1 X134.428 Y91.387 E4.24347
G1 X134.672 Y91.708 E4.27364
G1 X135.959 Y93.447 E4.43555
G1 X137.513 Y95.425 E4.62379
G1 X139.125 Y97.362 E4.81238
G1 X140.827 Y99.293 E5.005
G1 X141.999 Y100.561 E5.13422
G1 X142.418 Y101.041 E5.1819
G1 X142.593 Y101.254 E5.20253
G1 X143.135 Y101.972 E5.26985
G1 X143.263 Y102.157 E5.28669
G1 X143.779 Y102.98 E5.35938
G1 X143.918 Y103.225 E5.38046
G1 X144.343 Y104.054 E5.45018
G1 X144.439 Y104.263 E5.46739
G1 X144.755 Y105.027 E5.52926
G1 X144.825 Y105.216 E5.54434
G1 X145.028 Y105.817 E5.59182
G1 X145.094 Y106.033 E5.60872
G1 X145.388 Y107.232 E5.7011
G1 X145.466 Y107.653 E5.73315
G1 X145.596 Y108.578 E5.80305
G1 X145.633 Y109.077 E5.84049
G1 X145.65 Y109.406 E5.86515
G1 X145.663 Y110.156 E5.92128
G1 X145.639 Y110.761 E5.96659
G1 X145.619 Y111.057 E5.9888
G1 X145.525 Y111.926 E6.05421
G1 X145.5 Y112.094 E6.06692
G1 X145.305 Y113.086 E6.14258
G1 X145.215 Y113.453 E6.17085
G1 X144.899 Y114.509 E6.25334
G1 X144.819 Y114.734 E6.27121
G1 X144.472 Y115.592 E6.34047
G1 X144.367 Y115.823 E6.35946
G1 X143.985 Y116.584 E6.42318
G1 X143.885 Y116.765 E6.43866
G1 X143.494 Y117.418 E6.49562
G1 X143.382 Y117.591 E6.51104
G1 X143.141 Y117.948 E6.54327
G1 X142.749 Y118.473 E6.59231
G1 X142.549 Y118.725 E6.61638
G1 X142.179 Y119.167 E6.65952
G1 X141.959 Y119.414 E6.68427
G1 X140.336 Y121.197 E6.86471
G1 X138.67 Y123.135 E7.05596
G1 X137.113 Y125.054 E7.24089
G1 X135.561 Y127.081 E7.43194
G1 X135.365 Y127.352 E7.45697
G1 X134.543 Y128.461 E7.56027
G1 X134.044 Y129.085 E7.62007
G1 X133.407 Y129.767 E7.6899
G1 X132.713 Y130.392 E7.7598
G1 X131.969 Y130.955 E7.82962
G1 X131.179 Y131.453 E7.8995
G1 X130.349 Y131.881 E7.96939
G1 X129.486 Y132.237 E8.03925
G1 X128.596 Y132.518 E8.1091
G1 X127.685 Y132.721 E8.17894
G1 X126.759 Y132.846 E8.24887
G1 X126.073 Y132.887 E8.3003
G1 X125.751 Y132.896 E8.3244
G1 X125.446 Y132.9 E8.34723
G1 X120.328 Y132.899 E8.73024
G1 X119.624 Y132.889 E8.78293
G1 X118.692 Y132.836 E8.85279
G1 X117.768 Y132.703 E8.92265
G1 X116.859 Y132.492 E8.99248
G1 X115.971 Y132.203 E9.06236
G1 X115.438 Y131.988 E9.10537
G1 X114.632 Y131.637 E9.17116
G1 X113.535 Y131.142 E9.26123
G1 X111.198 Y130.164 E9.45082
G1 X108.847 Y129.256 E9.63942
G1 X106.478 Y128.422 E9.82737
G1 X104.077 Y127.651 E10.01609
G1 X101.655 Y126.946 E10.20486
G1 X99.212 Y126.31 E10.39378
G1 X96.8 Y125.755 E10.57899
G1 X94.269 Y125.245 E10.77221
G1 X91.803 Y124.824 E10.95942
G1 X89.3 Y124.467 E11.14863
G1 X88.609 Y124.388 E11.20068
G1 X87.62 Y124.261 E11.2753
G1 X86.7 Y124.103 E11.34516
G1 X85.797 Y123.866 E11.41502
G1 X84.917 Y123.553 E11.48492
G1 X84.067 Y123.166 E11.55481
G1 X83.254 Y122.708 E11.62464
G1 X82.738 Y122.366 E11.67097
G1 X82.236 Y122.013 E11.71689
G1 X81.953 Y121.808 E11.74305
G1 X81.622 Y121.559 E11.77404
G1 X80.901 Y120.966 E11.8439
G1 X80.233 Y120.314 E11.91376
G1 X79.623 Y119.607 E11.98364
G1 X79.076 Y118.85 E12.05353
G1 X78.596 Y118.049 E12.12341
G1 X78.186 Y117.211 E12.19323
G1 X77.863 Y116.378 E12.26009
G1 X77.673 Y115.823 E12.30399
G1 X77.572 Y115.515 E12.32825
G1 X77.447 Y115.111 E12.35989
G1 X77.21 Y114.208 E12.42976
G1 X77.05 Y113.288 E12.49964
G1 X76.97 Y112.358 E12.56949
G1 X76.97 Y111.424 E12.63939
G1 X77.05 Y110.494 E12.70924
G1 X77.209 Y109.574 E12.77911
G1 X77.446 Y108.671 E12.84898
G1 X77.743 Y107.832 E12.91558
G1 X78.045 Y107.079 E12.9763
G1 X78.188 Y106.739 E13.0039
G1 X78.404 Y106.249 E13.04397
G1 X78.817 Y105.412 E13.11382
G1 X79.3 Y104.613 E13.18369
G1 X79.849 Y103.858 E13.25355
G1 X80.462 Y103.153 E13.32346
G1 X81.376 Y102.292 E13.41743
G1 X82.13 Y101.66 E13.49106
G0 F6000 X82.515 Y102.12
G1 F600 X82.786 Y101.901 E13.51713
G1 X83.429 Y101.398 E13.57823
G1 X83.639 Y101.238 E13.59798
G1 X84.095 Y100.901 E13.64042
G1 X84.394 Y100.686 E13.66798
G1 X84.936 Y100.305 E13.71755
G1 X85.982 Y99.659 E13.80956
G1 X86.968 Y99.129 E13.89333
G1 X87.29 Y98.963 E13.92044
G1 X87.937 Y98.644 E13.97442
G1 X88.768 Y98.279 E14.04235
G1 X89.628 Y97.988 E14.11029
G1 X90.372 Y97.803 E14.16766
G1 X90.577 Y97.76 E14.18334
G1 X93.128 Y97.193 E14.3789
G1 X95.589 Y96.574 E14.56881
G1 X98.043 Y95.88 E14.75966
G1 X100.493 Y95.113 E14.95178
G1 X102.882 Y94.29 E15.14087
G1 X105.215 Y93.411 E15.32744
G1 X107.61 Y92.431 E15.5211
G1 X109.913 Y91.412 E15.70956
G1 X112.197 Y90.324 E15.89888
G1 X114.12 Y89.346 E16.06033
G1 X115.003 Y88.884 E16.13491
G1 X115.825 Y88.499 E16.20284
G1 X116.677 Y88.188 E16.27071
G1 X117.554 Y87.953 E16.33866
G1 X118.448 Y87.796 E16.40659
G1 X119.464 Y87.715 E16.48286
G1 X119.792 Y87.705 E16.50742
G1 X120.106 Y87.7 E16.53092
G1 X125.069 Y87.7 E16.90233
G1 X125.918 Y87.711 E16.96587
G1 X126.824 Y87.764 E17.03378
G1 X127.721 Y87.896 E17.10163
G1 X128.604 Y88.107 E17.16957
G1 X129.465 Y88.395 E17.23752
G1 X130.297 Y88.758 E17.30545
G1 X131.094 Y89.192 E17.37336
G1 X131.849 Y89.695 E17.44125
G1 X132.558 Y90.262 E17.50919
G1 X133.213 Y90.889 E17.57705
G1 X133.952 Y91.752 E17.66207
G1 X134.19 Y92.065 E17.6915
G1 X135.481 Y93.808 E17.85382
G1 X137.069 Y95.83 E18.04622
G1 X138.654 Y97.735 E18.23168
G1 X140.382 Y99.696 E18.42727
G1 X141.558 Y100.968 E18.55691
G1 X141.954 Y101.422 E18.602
G1 X142.129 Y101.635 E18.62263
G1 X142.641 Y102.314 E18.68627
G1 X142.769 Y102.499 E18.7031
G1 X143.258 Y103.276 E18.77181
G1 X143.397 Y103.521 E18.79289
G1 X143.798 Y104.305 E18.85879
G1 X143.894 Y104.514 E18.876
G1 X144.193 Y105.236 E18.93448
G1 X144.263 Y105.425 E18.94956
G1 X144.454 Y105.992 E18.99434
G1 X144.52 Y106.208 E19.01124
G1 X144.798 Y107.342 E19.09861
G1 X144.876 Y107.763 E19.13066
G1 X145.034 Y109.107 E19.23193
G1 X145.051 Y109.436 E19.25658
G1 X145.063 Y110.146 E19.30972
G1 X145.041 Y110.72 E19.35271
G1 X145.021 Y111.016 E19.37491
G1 X144.932 Y111.838 E19.43679
G1 X144.907 Y112.006 E19.4495
G1 X144.723 Y112.943 E19.52096
G1 X144.633 Y113.31 E19.54923
G1 X144.334 Y114.308 E19.6272
G1 X144.254 Y114.533 E19.64507
G1 X143.926 Y115.344 E19.71054
G1 X143.821 Y115.575 E19.72953
G1 X143.46 Y116.294 E19.78973
G1 X143.36 Y116.475 E19.80521
G1 X142.99 Y117.092 E19.85905
G1 X142.878 Y117.265 E19.87447
G1 X142.649 Y117.604 E19.90509
G1 X142.279 Y118.1 E19.95139
G1 X142.079 Y118.352 E19.97547
G1 X141.729 Y118.77 E20.01627
G1 X141.515 Y119.011 E20.04039
G1 X139.864 Y120.825 E20.22395
G1 X138.221 Y122.736 E20.41255
G1 X136.646 Y124.677 E20.59961
G1 X135.088 Y126.713 E20.79146
G1 X134.883 Y126.994 E20.81749
G1 X134.061 Y128.103 E20.9208
G1 X133.588 Y128.694 E20.97745
G1 X132.968 Y129.357 E21.04538
G1 X132.292 Y129.962 E21.11327
G1 X131.565 Y130.505 E21.18117
G1 X130.793 Y130.982 E21.24908
G1 X129.982 Y131.39 E21.31702
G1 X129.138 Y131.724 E21.38495
G1 X128.268 Y131.983 E21.45288
G1 X127.379 Y132.164 E21.52077
G1 X126.056 Y132.287 E21.62021
G1 X125.734 Y132.296 E21.64431
G1 X125.446 Y132.3 E21.66587
G1 X120.337 Y132.299 E22.0482
G1 X119.633 Y132.289 E22.10089
G1 X118.727 Y132.236 E22.16881
G1 X117.829 Y132.104 E22.23673
G1 X116.946 Y131.893 E22.30467
G1 X115.677 Y131.438 E22.40556
G1 X114.879 Y131.09 E22.47071
G1 X113.773 Y130.59 E22.56154
G1 X111.453 Y129.62 E22.74972
G1 X109.033 Y128.686 E22.94384
G1 X106.671 Y127.854 E23.13125
G1 X104.259 Y127.079 E23.32084
G1 X101.827 Y126.371 E23.5104
G1 X99.36 Y125.729 E23.70117
G1 X96.865 Y125.155 E23.89276
G1 X94.39 Y124.656 E24.0817
G1 X91.914 Y124.234 E24.26967
G1 X89.382 Y123.873 E24.46106
G1 X88.685 Y123.793 E24.51357
G1 X87.696 Y123.666 E24.58819
G1 X86.802 Y123.511 E24.65609
G1 X85.925 Y123.278 E24.724
G1 X85.072 Y122.968 E24.79191
G1 X84.249 Y122.585 E24.85985
G1 X83.464 Y122.13 E24.92775
G1 X83.083 Y121.875 E24.96206
G1 X82.581 Y121.522 E25.00798
G1 X82.314 Y121.328 E25.03268
G1 X81.983 Y121.079 E25.06368
G1 X81.283 Y120.502 E25.13156
G1 X80.636 Y119.866 E25.19946
G1 X80.047 Y119.175 E25.26741
G1 X79.522 Y118.435 E25.33531
G1 X79.064 Y117.651 E25.40325
G1 X78.676 Y116.831 E25.47114
G1 X78.43 Y116.184 E25.52294
G1 X78.24 Y115.629 E25.56684
G1 X78.145 Y115.337 E25.58982
G1 X78.02 Y114.933 E25.62147
G1 X77.79 Y114.056 E25.68932
G1 X77.639 Y113.161 E25.75724
G1 X77.567 Y112.256 E25.82518
G1 X77.574 Y111.349 E25.89306
G1 X77.662 Y110.445 E25.96103
G1 X77.828 Y109.553 E26.02893
G1 X78.073 Y108.679 E26.09686
G1 X78.3 Y108.055 E26.14655
G1 X78.602 Y107.302 E26.20726
G1 X78.737 Y106.981 E26.23332
G1 X78.953 Y106.491 E26.2734
G1 X79.355 Y105.678 E26.34127
G1 X79.828 Y104.903 E26.40922
G1 X80.366 Y104.173 E26.47708
G1 X80.967 Y103.493 E26.54499
G1 X81.761 Y102.752 E26.62627
G1 X82.515 Y102.12 E26.6999
G0 F6000 X89.613 Y111.552
G1 F600 X90.562 Y110.788 E26.79107
G1 X91.717 Y109.95 E26.89786
G1 X92.905 Y109.343 E26.99769
G1 X94.383 Y109.22 E27.10868
G1 X96.1 Y109.091 E27.23754
G1 X96.269 Y109.204 E27.25275
G1 X96.203 Y109.369 E27.26605
G1 X96.142 Y109.414 E27.27172
G1 X95.051 Y109.373 E27.35343
G1 X94.712 Y109.399 E27.37887
G1 X93.317 Y109.667 E27.48517
G1 X92.903 Y109.812 E27.518
G1 X91.529 Y110.533 E27.63412
G1 X91.055 Y110.711 E27.67201
G1 X90.748 Y110.869 E27.69785
G1 X90.557 Y111.02 E27.71607
G1 X89.573 Y111.942 E27.81698
G1 X89.451 Y111.934 E27.82613
G1 X89.613 Y111.552 E27.85718
G0 F6000 X89.12 Y111.179
G1 F600 X90.205 Y110.305 E27.96145
G1 X91.4 Y109.439 E28.07189
G1 X92.738 Y108.754 E28.18438
G1 X94.344 Y108.621 E28.30498
G1 X96.26 Y108.476 E28.44877
G1 X96.794 Y108.832 E28.4968
G1 X96.914 Y109.202 E28.52591
G1 X96.696 Y109.753 E28.57025
G1 X96.327 Y110.021 E28.60438
G1 X95.028 Y109.973 E28.70166
G1 X94.825 Y109.988 E28.71689
G1 X93.43 Y110.256 E28.82319
G1 X93.182 Y110.343 E28.84286
G1 X91.778 Y111.08 E28.96153
G1 X91.266 Y111.272 E29.00245
G1 X90.968 Y111.458 E29.02874
G1 X89.819 Y112.534 E29.14654
G1 X89.277 Y112.549 E29.18712
G1 X88.929 Y112.296 E29.21931
G1 X88.806 Y111.919 E29.24899
G1 X89.12 Y111.179 E29.30915
G0 F6000 X88.625 Y110.807
G1 F600 X89.843 Y109.826 E29.42619
G1 X91.084 Y108.927 E29.54086
G1 X92.571 Y108.166 E29.66587
G1 X94.295 Y108.023 E29.79533
G1 X96.421 Y107.863 E29.95488
G1 X97.3 Y108.449 E30.03394
G1 X97.552 Y109.221 E30.09471
G1 X97.19 Y110.135 E30.16828
G1 X96.513 Y110.628 E30.23095
G1 X95.006 Y110.572 E30.34381
G1 X94.938 Y110.577 E30.34891
G1 X93.543 Y110.845 E30.45521
G1 X93.461 Y110.874 E30.46172
G1 X92.02 Y111.63 E30.5835
G1 X91.477 Y111.834 E30.62691
G1 X91.378 Y111.896 E30.63565
G1 X90.063 Y113.128 E30.7705
G1 X89.09 Y113.155 E30.84334
G1 X88.418 Y112.666 E30.90554
G1 X88.166 Y111.892 E30.96645
G1 X88.625 Y110.807 E31.05462
G1 F1500 E24.55462
;MESH:Front_HubLeft.stl
G0 F6000 X108.985 Y110.804
G0 X110.05 Y110.803
G0 X110.718 Y110.855
G0 X110.731 Y111.931
G0 X111.808 Y112.049
G0 X113.88 Y112.186
G0 X116.223 Y111.776
G0 X116.645 Y112.917
G0 X117.304 Y114.018
G0 X118.063 Y114.885
G0 X119.062 Y115.683
G0 X120.135 Y116.254
G0 X121.3 Y116.628
G0 X122.501 Y116.784
G0 X123.656 Y116.733
G0 X124.844 Y116.467
G0 X125.966 Y115.994
G0 X127.037 Y115.285
G0 X127.867 Y114.49
G0 X129.913 Y112.093
G0 X130.807 Y112.436
;TYPE:WALL-INNER
G1 F1500 E31.05462
G1 F600 X131.02 Y112.492 E31.0711
G1 X130.773 Y112.657 E31.07895
G1 X130.352 Y113.09 E31.12415
G1 X130.055 Y113.556 E31.1655
G1 X129.848 Y113.951 E31.19887
G1 X129.656 Y114.275 E31.22706
G1 X129.433 Y114.614 E31.25742
G1 X129.21 Y114.92 E31.28576
G1 X128.962 Y115.23 E31.31547
G1 X128.706 Y115.518 E31.3443
G1 X128.436 Y115.794 E31.3732
G1 X128.141 Y116.069 E31.40338
G1 X127.865 Y116.302 E31.43041
G1 X127.539 Y116.552 E31.46115
G1 X127.218 Y116.773 E31.49032
G1 X126.883 Y116.981 E31.51983
G1 X126.547 Y117.168 E31.5486
G1 X126.195 Y117.343 E31.57802
G1 X125.832 Y117.501 E31.60765
G1 X124.876 Y117.864 E31.68418
G1 X124.876 Y121.1 E31.92634
G1 X120.676 Y121.1 E32.24065
G1 X120.676 Y117.866 E32.48267
G1 X119.697 Y117.492 E32.5611
G1 X119.319 Y117.324 E32.59205
G1 X118.943 Y117.135 E32.62354
G1 X118.59 Y116.934 E32.65394
G1 X118.262 Y116.725 E32.68305
G1 X117.918 Y116.481 E32.71461
G1 X117.605 Y116.233 E32.7445
G1 X117.272 Y115.942 E32.77759
G1 X117.001 Y115.68 E32.8058
G1 X116.724 Y115.383 E32.83619
G1 X116.26 Y114.831 E32.89016
G1 X116.166 Y114.724 E32.90081
G1 X115.953 Y114.496 E32.92416
G1 X115.858 Y114.4 E32.93427
G1 X115.633 Y114.185 E32.95756
G1 X115.537 Y114.098 E32.96726
G1 X115.292 Y113.889 E32.99136
G1 X115.192 Y113.808 E33.00099
G1 X114.933 Y113.612 E33.02529
G1 X114.838 Y113.544 E33.03404
G1 X114.564 Y113.359 E33.05878
G1 X114.468 Y113.297 E33.06733
G1 X114.093 Y113.078 E33.09983
G1 X113.781 Y112.915 E33.12617
G1 X113.693 Y112.873 E33.13347
G1 X113.36 Y112.722 E33.16083
G1 X112.941 Y112.559 E33.19448
G1 X112.464 Y112.405 E33.23199
G1 X112.035 Y112.296 E33.26511
G1 X111.603 Y112.21 E33.29807
G1 X111.165 Y112.148 E33.33118
G1 X110.723 Y112.112 E33.36436
G1 X110.55 Y112.107 E33.37732
G1 X110.55 Y110.037 E33.53223
G1 X110.549 Y107.893 E33.69267
G1 X110.731 Y107.888 E33.7063
G1 X111.173 Y107.85 E33.7395
G1 X111.611 Y107.79 E33.77258
G1 X112.044 Y107.702 E33.80565
G1 X112.472 Y107.592 E33.83872
G1 X112.893 Y107.457 E33.8718
G1 X113.305 Y107.3 E33.9048
G1 X113.709 Y107.12 E33.9379
G1 X114.101 Y106.918 E33.9709
G1 X114.482 Y106.694 E34.00397
G1 X114.849 Y106.448 E34.03704
G1 X115.203 Y106.184 E34.07008
G1 X115.541 Y105.899 E34.10317
G1 X115.863 Y105.596 E34.13626
G1 X116.167 Y105.274 E34.1694
G1 X116.73 Y104.61 E34.23455
G1 X116.996 Y104.326 E34.26367
G1 X117.302 Y104.03 E34.29553
G1 X117.618 Y103.755 E34.32687
G1 X117.919 Y103.517 E34.35559
G1 X118.259 Y103.277 E34.38674
G1 X118.584 Y103.07 E34.41557
G1 X118.971 Y102.85 E34.44888
G1 X119.311 Y102.679 E34.47737
G1 X119.706 Y102.505 E34.50967
G1 X120.676 Y102.134 E34.58739
G1 X120.676 Y98.9 E34.8294
G1 X124.876 Y98.9 E35.14371
G1 X124.876 Y102.136 E35.38588
G1 X125.835 Y102.5 E35.46264
G1 X126.196 Y102.659 E35.49216
G1 X126.543 Y102.831 E35.52114
G1 X126.873 Y103.013 E35.54935
G1 X127.212 Y103.223 E35.57919
G1 X127.543 Y103.451 E35.60927
G1 X127.829 Y103.67 E35.63622
G1 X128.118 Y103.911 E35.66438
G1 X128.407 Y104.178 E35.69383
G1 X128.696 Y104.472 E35.72468
G1 X128.932 Y104.735 E35.75112
G1 X129.178 Y105.039 E35.78039
G1 X129.413 Y105.358 E35.81004
