;FLAVOR:Marlin
;TIME:2454
;Filament used: 1.444m
;Layer height: 0.2
;MINX:37.2
;MINY:95.721
;MINZ:0.3
;MAXX:182.8
;MAXY:124.279
;MAXZ:6.1
;Generated with Cura_SteamEngine 4.12.1
M140 S80
M105
M190 S80
M104 S220
M105
M109 S220
M82 ;absolute extrusion mode
; Ender 3 Custom Start G-code
G92 E0 ; Reset Extruder
G28 ; Home all axes
G1 Z2.0 F3000 ; Move Z Axis up little to prevent scratching of Heat Bed
G1 X0.1 Y20 Z0.3 F5000.0 ; Move to start position
G1 X0.1 Y200.0 Z0.3 F1500.0 E15 ; Draw the first line
G1 X0.4 Y200.0 Z0.3 F5000.0 ; Move to side a little
G1 X0.4 Y20 Z0.3 F1500.0 E30 ; Draw the second line
G92 E0 ; Reset Extruder
G1 Z2.0 F3000 ; Move Z Axis up little to prevent scratching of Heat Bed
G1 X5 Y20 Z0.3 F5000.0 ; Move over to prevent blob squish
G92 E0
G92 E0
G1 F1500 E-6.5
;LAYER_COUNT:30
;LAYER:0
M107
G0 F6000 X43.39 Y97.99 Z0.3
;TYPE:SKIRT
G1 F1500 E0
G1 F600 X44.237 Y97.664 E0.06792
G1 X45.109 Y97.414 E0.1358
G1 X46 Y97.241 E0.20373
G1 X46.92 Y97.147 E0.27293
G1 X48.233 Y97.072 E0.37135
G1 X48.804 Y97.046 E0.41413
G1 X51.287 Y96.864 E0.60044
G1 X53.835 Y96.604 E0.79211
G1 X55.812 Y96.354 E0.94124
G1 X56.322 Y96.298 E0.97964
G1 X57.229 Y96.243 E1.04764
G1 X58.335 Y96.225 E1.13042
G1 X108.406 Y96.225 E4.87749
G1 X111.009 Y96.188 E5.07231
G1 X113.57 Y96.079 E5.26414
G1 X116.155 Y95.896 E5.45807
G1 X117.619 Y95.769 E5.56804
G1 X118.22 Y95.734 E5.61309
G1 X118.54 Y95.725 E5.63705
G1 X118.83 Y95.721 E5.65875
G1 X120.392 Y95.721 E5.77565
G1 X121.238 Y95.732 E5.83896
G1 X121.962 Y95.768 E5.89321
G1 X124.701 Y96 E6.09892
G1 X127.213 Y96.142 E6.2872
G1 X131.138 Y96.224 E6.581
G1 X161.969 Y96.226 E8.88824
G1 X162.65 Y96.236 E8.93921
G1 X163.211 Y96.26 E8.98123
G1 X163.413 Y96.274 E8.99639
G1 X163.806 Y96.308 E9.02591
G1 X164.12 Y96.344 E9.04956
G1 X165.033 Y96.463 E9.11846
G1 X167.592 Y96.758 E9.31123
G1 X170.156 Y96.98 E9.50383
G1 X173.079 Y97.147 E9.72293
G1 X173.982 Y97.238 E9.79085
G1 X174.873 Y97.409 E9.85874
G1 X175.746 Y97.658 E9.92668
G1 X176.594 Y97.982 E9.99461
G1 X177.409 Y98.38 E10.06249
G1 X178.187 Y98.848 E10.13043
G1 X178.92 Y99.383 E10.19834
G1 X179.604 Y99.98 E10.26629
G1 X180.232 Y100.635 E10.33419
G1 X180.8 Y101.343 E10.40212
G1 X181.303 Y102.098 E10.47001
G1 X181.738 Y102.894 E10.5379
G1 X182.102 Y103.726 E10.60586
G1 X182.391 Y104.586 E10.67375
G1 X182.603 Y105.469 E10.74171
G1 X182.736 Y106.366 E10.80957
G1 X182.787 Y107.14 E10.86762
G1 X182.796 Y107.46 E10.89157
G1 X182.8 Y107.75 E10.91328
G1 X182.799 Y111.971 E11.22916
G1 X182.79 Y112.698 E11.28357
G1 X182.739 Y113.604 E11.35148
G1 X182.608 Y114.502 E11.41939
G1 X182.399 Y115.385 E11.4873
G1 X182.113 Y116.246 E11.55519
G1 X181.752 Y117.079 E11.62313
G1 X181.319 Y117.876 E11.69101
G1 X180.818 Y118.633 E11.75894
G1 X180.252 Y119.342 E11.82683
G1 X179.625 Y119.999 E11.8948
G1 X178.944 Y120.598 E11.96267
G1 X178.212 Y121.135 E12.03061
G1 X177.436 Y121.605 E12.0985
G1 X176.621 Y122.006 E12.16647
G1 X175.775 Y122.332 E12.23432
G1 X174.903 Y122.584 E12.30225
G1 X174.012 Y122.757 E12.37017
G1 X173.08 Y122.853 E12.44029
G1 X171.767 Y122.928 E12.53871
G1 X171.196 Y122.954 E12.58148
G1 X168.713 Y123.136 E12.7678
G1 X166.165 Y123.396 E12.95947
G1 X164.188 Y123.646 E13.1086
G1 X163.678 Y123.702 E13.14699
G1 X162.771 Y123.757 E13.21499
G1 X161.665 Y123.775 E13.29777
G1 X131.17 Y123.775 E15.57987
G1 X128.567 Y123.812 E15.77469
G1 X126.034 Y123.919 E15.96442
G1 X123.036 Y124.138 E16.18937
G1 X122.031 Y124.228 E16.26488
G1 X121.407 Y124.265 E16.31166
G1 X120.981 Y124.275 E16.34355
G1 X120.594 Y124.279 E16.37251
G1 X119.059 Y124.278 E16.48738
G1 X118.361 Y124.268 E16.53962
G1 X117.639 Y124.232 E16.59372
G1 X114.91 Y124.001 E16.79868
G1 X112.396 Y123.859 E16.98711
G1 X108.46 Y123.776 E17.28173
G1 X58.031 Y123.774 E21.0556
G1 X57.35 Y123.764 E21.10657
G1 X56.789 Y123.74 E21.14859
G1 X56.587 Y123.726 E21.16374
G1 X56.194 Y123.692 E21.19326
G1 X55.88 Y123.656 E21.21691
G1 X54.967 Y123.537 E21.28582
G1 X52.408 Y123.242 E21.47859
G1 X49.844 Y123.02 E21.67118
G1 X46.921 Y122.853 E21.89028
G1 X46.018 Y122.762 E21.9582
G1 X45.127 Y122.591 E22.0261
G1 X44.254 Y122.342 E22.09404
G1 X43.406 Y122.018 E22.16197
G1 X42.591 Y121.62 E22.22984
G1 X41.813 Y121.152 E22.29779
G1 X41.08 Y120.617 E22.3657
G1 X40.396 Y120.02 E22.43364
G1 X39.768 Y119.365 E22.50155
G1 X39.2 Y118.657 E22.56948
G1 X38.697 Y117.902 E22.63737
G1 X38.262 Y117.106 E22.70525
G1 X37.898 Y116.274 E22.77321
G1 X37.609 Y115.414 E22.84111
G1 X37.397 Y114.531 E22.90906
G1 X37.264 Y113.634 E22.97693
G1 X37.213 Y112.849 E23.0358
G1 X37.204 Y112.517 E23.06065
G1 X37.2 Y112.238 E23.08153
G1 X37.201 Y107.954 E23.40213
G1 X37.21 Y107.29 E23.45182
G1 X37.262 Y106.384 E23.51973
G1 X37.394 Y105.486 E23.58766
G1 X37.604 Y104.604 E23.65551
G1 X37.892 Y103.743 E23.72345
G1 X38.253 Y102.911 E23.79132
G1 X38.687 Y102.113 E23.8593
G1 X39.189 Y101.358 E23.92715
G1 X39.756 Y100.649 E23.99509
G1 X40.383 Y99.993 E24.063
G1 X41.066 Y99.394 E24.13098
G1 X41.798 Y98.858 E24.19888
G1 X42.575 Y98.389 E24.2668
G1 X43.39 Y97.99 E24.3347
G1 F1500 E17.8347
;MESH:Rear_Shaft.stl
G0 F6000 X56.782 Y105.972
G0 X57.511 Y107.044
G0 X56.589 Y108.495
G0 X48.582 Y108.503
G0 X48.582 Y111.498
G0 X56.934 Y112.05
G0 X57.107 Y112.25
G0 X57.559 Y112.404
G0 X119.028 Y112.948
G0 X119.4 Y113.079
;TYPE:WALL-INNER
G1 F1500 E24.3347
G1 F600 X119.4 Y112.576 E24.37235
G1 X57.543 Y112.575 E29.00143
G1 X57.24 Y112.522 E29.02445
G1 X56.997 Y112.385 E29.04533
G1 X56.795 Y112.151 E29.06846
G1 X56.486 Y111.68 E29.11062
G1 X48.4 Y111.68 E29.71574
G1 X48.4 Y108.321 E29.96711
G1 X56.493 Y108.32 E30.57275
G1 X56.796 Y107.845 E30.61491
G1 X57.002 Y107.611 E30.63824
G1 X57.234 Y107.48 E30.65818
G1 X57.546 Y107.425 E30.68189
G1 X119.4 Y107.425 E35.31075
G1 X119.4 Y106.921 E35.34847
G1 X120.952 Y106.921 E35.46461
G1 X121.479 Y107.1 E35.50627
G1 X122.002 Y107.239 E35.54676
G1 X122.169 Y107.275 E35.55955
G1 X122.869 Y107.383 E35.61255
G1 X123.572 Y107.424 E35.66525
G1 X162.457 Y107.425 E38.57522
G1 X162.76 Y107.478 E38.59824
G1 X163.003 Y107.615 E38.61912
G1 X163.204 Y107.847 E38.64209
G1 X163.514 Y108.32 E38.68441
G1 X171.6 Y108.32 E39.28953
G1 X171.6 Y111.679 E39.5409
G1 X163.507 Y111.68 E40.14654
G1 X163.204 Y112.155 E40.18871
G1 X163.107 Y112.279 E40.20049
G1 X162.878 Y112.468 E40.22271
G1 X162.615 Y112.563 E40.24363
G1 X162.486 Y112.575 E40.25333
G1 X123.57 Y112.575 E43.16562
G1 X122.867 Y112.619 E43.21833
G1 X122.159 Y112.725 E43.27191
G1 X121.448 Y112.907 E43.32683
G1 X120.95 Y113.079 E43.36626
G1 X119.4 Y113.079 E43.48225
G0 F6000 X118.8 Y113.176
;TYPE:WALL-OUTER
G1 F600 X57.491 Y113.175 E48.07033
G1 X57.034 Y113.095 E48.10505
G1 X56.633 Y112.869 E48.1395
G1 X56.462 Y112.7 E48.15749
G1 X56.308 Y112.502 E48.17626
G1 X56.162 Y112.28 E48.19614
G1 X47.8 Y112.28 E48.82192
G1 X47.8 Y107.721 E49.16309
G1 X56.164 Y107.72 E49.78901
G1 X56.304 Y107.501 E49.80847
G1 X56.46 Y107.3 E49.82751
G1 X56.642 Y107.125 E49.8464
G1 X57.029 Y106.907 E49.87964
G1 X57.492 Y106.825 E49.91483
G1 X118.8 Y106.825 E54.50283
G1 X118.8 Y106.321 E54.54055
G1 X121.051 Y106.321 E54.709
G1 X121.653 Y106.525 E54.75657
G1 X122.143 Y106.656 E54.79453
G1 X122.278 Y106.685 E54.80486
G1 X122.932 Y106.786 E54.85438
G1 X123.589 Y106.824 E54.90363
G1 X162.509 Y106.825 E57.81622
G1 X162.966 Y106.905 E57.85094
G1 X163.367 Y107.131 E57.88539
G1 X163.537 Y107.299 E57.90327
G1 X163.692 Y107.498 E57.92215
G1 X163.838 Y107.72 E57.94204
G1 X172.2 Y107.72 E58.56781
G1 X172.2 Y112.279 E58.90898
G1 X163.836 Y112.28 E59.5349
G1 X163.696 Y112.499 E59.55436
G1 X163.54 Y112.7 E59.5734
G1 X163.181 Y112.996 E59.60822
G1 X162.747 Y113.153 E59.64276
G1 X162.508 Y113.175 E59.66072
G1 X123.589 Y113.175 E62.57323
G1 X122.931 Y113.216 E62.62257
G1 X122.539 Y113.276 E62.65225
G1 X122.277 Y113.314 E62.67206
G1 X121.621 Y113.482 E62.72273
G1 X121.05 Y113.679 E62.76794
G1 X118.8 Y113.679 E62.93632
G1 X118.8 Y113.176 E62.97396
G0 F6000 X119.1 Y113.176
G0 X119.51 Y112.489
G0 X119.99 Y112.489
;TYPE:SKIN
G1 F600 X119.99 Y111.986 E63.0116
G1 X57.599 Y111.985 E67.68065
G1 X57.377 Y111.922 E67.69792
G1 X57.265 Y111.793 E67.7107
G1 X56.805 Y111.09 E67.77358
G1 X48.99 Y111.09 E68.35841
G1 X48.99 Y108.911 E68.52148
G1 X56.816 Y108.91 E69.10714
G1 X57.269 Y108.2 E69.17017
G1 X57.437 Y108.043 E69.18738
G1 X57.597 Y108.015 E69.19953
G1 X119.99 Y108.015 E73.86873
G1 X119.99 Y107.511 E73.90645
G1 X120.854 Y107.511 E73.9711
G1 X121.308 Y107.665 E74.00698
G1 X121.864 Y107.813 E74.05004
G1 X122.061 Y107.855 E74.06511
G1 X122.806 Y107.971 E74.12154
G1 X123.555 Y108.014 E74.17768
G1 X162.401 Y108.015 E77.08473
G1 X162.624 Y108.079 E77.10209
G1 X162.731 Y108.201 E77.11424
G1 X163.195 Y108.91 E77.17765
G1 X171.01 Y108.91 E77.76249
G1 X171.01 Y111.089 E77.92555
G1 X163.184 Y111.09 E78.51121
G1 X162.725 Y111.811 E78.57518
G1 X162.584 Y111.946 E78.58978
G1 X162.451 Y111.985 E78.60016
G1 X123.552 Y111.985 E81.51118
G1 X122.804 Y112.031 E81.56726
G1 X122.041 Y112.146 E81.625
G1 X121.279 Y112.341 E81.68386
G1 X120.849 Y112.489 E81.7179
G1 X119.99 Y112.489 E81.78218
G1 F1500 E75.28218
G0 F6000 X119.51 Y112.489
G0 X119.582 Y112.897
G0 X162.575 Y112.396
G0 X163.063 Y112.059
G0 X171.418 Y111.497
G0 X171.49 Y109.655
G1 F1500 E81.78218
G0 F6000 X170.749 Y109.655
G1 F600 X170.264 Y109.17 E81.83351
G0 F6000 X169.415 Y109.17
G1 F600 X170.749 Y110.503 E81.97464
G0 F6000 X170.226 Y110.829
G1 F600 X168.567 Y109.17 E82.15021
G0 F6000 X167.718 Y109.17
G1 F600 X169.377 Y110.829 E82.32579
G0 F6000 X168.529 Y110.829
G1 F600 X166.87 Y109.17 E82.50137
G0 F6000 X166.021 Y109.17
G1 F600 X167.68 Y110.829 E82.67695
G0 F6000 X166.832 Y110.829
G1 F600 X165.173 Y109.17 E82.85252
G0 F6000 X164.324 Y109.17
G1 F600 X165.984 Y110.829 E83.02815
G0 F6000 X165.135 Y110.829
G1 F600 X163.476 Y109.17 E83.20373
G0 F6000 X163.476 Y108.43
G0 X171.418 Y108.502
G0 X171.418 Y111.497
G0 X163.438 Y111.57
G0 X163.438 Y110.829
G1 F600 X160.883 Y108.275 E83.47408
G0 F6000 X160.035 Y108.275
G1 F600 X162.865 Y111.105 E83.77359
G0 F6000 X162.534 Y111.623
G1 F600 X159.186 Y108.275 E84.12792
G0 F6000 X158.338 Y108.275
G1 F600 X161.788 Y111.724 E84.49299
G0 F6000 X160.939 Y111.724
G1 F600 X157.489 Y108.275 E84.85806
G0 F6000 X156.641 Y108.275
G1 F600 X160.091 Y111.724 E85.22313
G0 F6000 X159.242 Y111.724
G1 F600 X155.792 Y108.275 E85.5882
G0 F6000 X154.944 Y108.275
G1 F600 X158.394 Y111.724 E85.95327
G0 F6000 X157.545 Y111.724
G1 F600 X154.095 Y108.275 E86.31835
G0 F6000 X153.247 Y108.275
G1 F600 X156.696 Y111.724 E86.68336
G0 F6000 X155.848 Y111.724
G1 F600 X152.398 Y108.275 E87.04843
G0 F6000 X151.549 Y108.275
G1 F600 X154.999 Y111.724 E87.41351
G0 F6000 X154.151 Y111.724
G1 F600 X150.701 Y108.275 E87.77858
G0 F6000 X149.852 Y108.275
G1 F600 X153.302 Y111.724 E88.14365
G0 F6000 X152.454 Y111.724
G1 F600 X149.004 Y108.275 E88.50872
G0 F6000 X148.155 Y108.275
G1 F600 X151.605 Y111.724 E88.87379
G0 F6000 X150.757 Y111.724
G1 F600 X147.307 Y108.275 E89.23886
G0 F6000 X146.458 Y108.275
G1 F600 X149.908 Y111.724 E89.60393
G0 F6000 X149.06 Y111.724
G1 F600 X145.61 Y108.275 E89.96901
G0 F6000 X144.761 Y108.275
G1 F600 X148.211 Y111.724 E90.33408
G0 F6000 X147.363 Y111.724
G1 F600 X143.913 Y108.275 E90.69915
G0 F6000 X143.064 Y108.275
G1 F600 X146.514 Y111.724 E91.06422
G0 F6000 X145.666 Y111.724
G1 F600 X142.215 Y108.274 E91.4294
G0 F6000 X141.366 Y108.274
G1 F600 X144.817 Y111.724 E91.79457
G0 F6000 X143.969 Y111.724
G1 F600 X140.518 Y108.274 E92.15975
G0 F6000 X139.669 Y108.274
G1 F600 X143.12 Y111.724 E92.52493
G0 F6000 X142.272 Y111.724
G1 F600 X138.821 Y108.274 E92.8901
G0 F6000 X137.972 Y108.274
G1 F600 X141.423 Y111.724 E93.25528
G0 F6000 X140.574 Y111.724
G1 F600 X137.124 Y108.274 E93.62041
G0 F6000 X136.275 Y108.274
G1 F600 X139.726 Y111.724 E93.98558
G0 F6000 X138.877 Y111.724
G1 F600 X135.427 Y108.274 E94.35071
G0 F6000 X134.578 Y108.274
G1 F600 X138.029 Y111.724 E94.71588
G0 F6000 X137.18 Y111.724
G1 F600 X133.73 Y108.274 E95.08101
G0 F6000 X132.881 Y108.274
G1 F600 X136.332 Y111.724 E95.44619
G0 F6000 X135.483 Y111.724
G1 F600 X132.033 Y108.274 E95.81131
G0 F6000 X131.184 Y108.274
G1 F600 X134.635 Y111.724 E96.17649
G0 F6000 X133.786 Y111.724
G1 F600 X130.336 Y108.274 E96.54161
G0 F6000 X129.487 Y108.274
G1 F600 X132.938 Y111.724 E96.90679
G0 F6000 X132.089 Y111.724
G1 F600 X128.638 Y108.274 E97.27197
G0 F6000 X127.79 Y108.274
G1 F600 X131.241 Y111.724 E97.63714
G0 F6000 X130.392 Y111.724
G1 F600 X126.941 Y108.274 E98.00232
G0 F6000 X126.093 Y108.274
G1 F600 X129.544 Y111.724 E98.3675
G0 F6000 X128.695 Y111.724
G1 F600 X125.244 Y108.274 E98.73267
G0 F6000 X124.396 Y108.274
G1 F600 X127.847 Y111.724 E99.09785
G0 F6000 X126.998 Y111.724
G1 F600 X123.547 Y108.273 E99.46308
G0 F6000 X122.632 Y108.207
G1 F600 X126.149 Y111.724 E99.8353
G0 F6000 X125.301 Y111.724
G1 F600 X121.584 Y108.007 E100.22868
G0 F6000 X121.774 Y107.293
G0 X120.499 Y107.031
G0 X120.499 Y107.771
G1 F600 X124.452 Y111.724 E100.64704
G0 F6000 X123.604 Y111.724
G1 F600 X120.154 Y108.275 E101.01211
G0 F6000 X119.305 Y108.275
G1 F600 X122.8 Y111.769 E101.38194
G0 F6000 X122.062 Y111.879
G1 F600 X118.457 Y108.275 E101.76342
G0 F6000 X117.608 Y108.275
G1 F600 X121.379 Y112.046 E102.16251
G0 F6000 X120.713 Y112.228
G1 F600 X120.249 Y111.763 E102.21167
G0 F6000 X120.21 Y111.724
G1 F600 X116.76 Y108.275 E102.57674
G0 F6000 X115.911 Y108.275
G1 F600 X119.361 Y111.724 E102.94182
G0 F6000 X118.513 Y111.724
G1 F600 X115.063 Y108.275 E103.30689
G0 F6000 X114.214 Y108.275
G1 F600 X117.664 Y111.724 E103.67196
G0 F6000 X116.816 Y111.724
G1 F600 X113.366 Y108.275 E104.03703
G0 F6000 X112.517 Y108.275
G1 F600 X115.967 Y111.724 E104.4021
G0 F6000 X115.119 Y111.724
G1 F600 X111.669 Y108.275 E104.76717
G0 F6000 X110.82 Y108.275
G1 F600 X114.27 Y111.724 E105.13224
G0 F6000 X113.422 Y111.724
G1 F600 X109.972 Y108.275 E105.49731
G0 F6000 X109.123 Y108.275
G1 F600 X112.573 Y111.724 E105.86239
G0 F6000 X111.724 Y111.724
G1 F600 X108.275 Y108.275 E106.2274
G0 F6000 X107.426 Y108.275
G1 F600 X110.876 Y111.724 E106.59248
G0 F6000 X110.027 Y111.724
G1 F600 X106.577 Y108.275 E106.95755
G0 F6000 X105.729 Y108.275
G1 F600 X109.179 Y111.724 E107.32262
G0 F6000 X108.33 Y111.724
G1 F600 X104.88 Y108.275 E107.68769
G0 F6000 X104.032 Y108.275
G1 F600 X107.482 Y111.724 E108.05276
G0 F6000 X106.633 Y111.724
G1 F600 X103.183 Y108.275 E108.41783
G0 F6000 X102.335 Y108.275
G1 F600 X105.785 Y111.724 E108.7829
G0 F6000 X104.936 Y111.724
G1 F600 X101.486 Y108.275 E109.14797
G0 F6000 X100.638 Y108.275
G1 F600 X104.088 Y111.724 E109.51305
G0 F6000 X103.239 Y111.724
G1 F600 X99.789 Y108.275 E109.87812
G0 F6000 X98.941 Y108.275
G1 F600 X102.391 Y111.724 E110.24319
G0 F6000 X101.542 Y111.724
G1 F600 X98.092 Y108.275 E110.60826
G0 F6000 X97.244 Y108.275
G1 F600 X100.694 Y111.724 E110.97333
G0 F6000 X99.845 Y111.724
G1 F600 X96.395 Y108.275 E111.3384
G0 F6000 X95.547 Y108.275
G1 F600 X98.997 Y111.724 E111.70347
G0 F6000 X98.148 Y111.724
G1 F600 X94.698 Y108.275 E112.06854
G0 F6000 X93.85 Y108.275
G1 F600 X97.3 Y111.724 E112.43362
G0 F6000 X96.451 Y111.724
G1 F600 X93.001 Y108.275 E112.79869
G0 F6000 X92.152 Y108.275
G1 F600 X95.602 Y111.724 E113.16376
G0 F6000 X94.754 Y111.724
G1 F600 X91.304 Y108.275 E113.52883
G0 F6000 X90.455 Y108.275
G1 F600 X93.905 Y111.724 E113.8939
G0 F6000 X93.057 Y111.724
G1 F600 X89.607 Y108.275 E114.25897
G0 F6000 X88.758 Y108.275
G1 F600 X92.208 Y111.724 E114.62404
G0 F6000 X91.36 Y111.724
G1 F600 X87.91 Y108.275 E114.98911
G0 F6000 X87.061 Y108.275
G1 F600 X90.511 Y111.724 E115.35419
G0 F6000 X89.663 Y111.724
G1 F600 X86.213 Y108.275 E115.71926
G0 F6000 X85.364 Y108.275
G1 F600 X88.814 Y111.724 E116.08433
G0 F6000 X87.965 Y111.724
G1 F600 X84.516 Y108.275 E116.44935
G0 F6000 X83.667 Y108.275
G1 F600 X87.116 Y111.724 E116.81437
G0 F6000 X86.268 Y111.724
G1 F600 X82.819 Y108.275 E117.17938
G0 F6000 X81.97 Y108.275
G1 F600 X85.419 Y111.724 E117.5444
G0 F6000 X84.571 Y111.724
G1 F600 X81.122 Y108.275 E117.90942
G0 F6000 X80.273 Y108.275
G1 F600 X83.722 Y111.724 E118.27444
G0 F6000 X82.874 Y111.724
G1 F600 X79.425 Y108.275 E118.63946
