;FLAVOR:Marlin
;TIME:9647
;Filament used: 4.5387m
;Layer height: 0.2
;MINX:59.2
;MINY:44.7
;MINZ:0.3
;MAXX:158.662
;MAXY:175.3
;MAXZ:22.1
;Generated with Cura_SteamEngine 4.12.1
M140 S80
M105
M190 S80
M104 S220
M105
M109 S220
M82 ;absolute extrusion mode
; Ender 3 Custom Start G-code
G92 E0 ; Reset Extruder
G28 ; Home all axes
G1 Z2.0 F3000 ; Move Z Axis up little to prevent scratching of Heat Bed
G1 X0.1 Y20 Z0.3 F5000.0 ; Move to start position
G1 X0.1 Y200.0 Z0.3 F1500.0 E15 ; Draw the first line
G1 X0.4 Y200.0 Z0.3 F5000.0 ; Move to side a little
G1 X0.4 Y20 Z0.3 F1500.0 E30 ; Draw the second line
G92 E0 ; Reset Extruder
G1 Z2.0 F3000 ; Move Z Axis up little to prevent scratching of Heat Bed
G1 X5 Y20 Z0.3 F5000.0 ; Move over to prevent blob squish
G92 E0
G92 E0
G1 F1500 E-6.5
;LAYER_COUNT:110
;LAYER:0
M107
G0 F6000 X72.691 Y50.958 Z0.3
;TYPE:SKIRT
G1 F1500 E0
G1 F600 X72.921 Y50.631 E0.02992
G1 X73.081 Y50.413 E0.05015
G1 X73.619 Y49.741 E0.11458
G1 X73.924 Y49.396 E0.14904
G1 X74.111 Y49.193 E0.16969
G1 X74.582 Y48.715 E0.21991
G1 X74.688 Y48.614 E0.23087
G1 X75.07 Y48.267 E0.26949
G1 X75.301 Y48.068 E0.2923
G1 X75.921 Y47.575 E0.35158
G1 X76.095 Y47.447 E0.36775
G1 X76.375 Y47.248 E0.39345
G1 X76.553 Y47.126 E0.4096
G1 X77.288 Y46.667 E0.47445
G1 X77.674 Y46.451 E0.50755
G1 X77.899 Y46.33 E0.52667
G1 X78.691 Y45.946 E0.59254
G1 X78.89 Y45.86 E0.60876
G1 X79.221 Y45.724 E0.63554
G1 X79.433 Y45.641 E0.65258
G1 X80.167 Y45.385 E0.71076
G1 X80.343 Y45.331 E0.72453
G1 X80.647 Y45.243 E0.74822
G1 X80.892 Y45.176 E0.76722
G1 X81.639 Y45.001 E0.82464
G1 X81.834 Y44.963 E0.83951
G1 X82.263 Y44.889 E0.87209
G1 X82.534 Y44.848 E0.8926
G1 X83.368 Y44.756 E0.95539
G1 X83.557 Y44.743 E0.96957
G1 X83.856 Y44.727 E0.99197
G1 X84.108 Y44.717 E1.01085
G1 X84.372 Y44.71 E1.03061
G1 X85.162 Y44.7 E1.08974
G1 X100.963 Y44.702 E2.27221
G1 X101.672 Y44.712 E2.32527
G1 X101.958 Y44.72 E2.34668
G1 X102.173 Y44.729 E2.36279
G1 X102.555 Y44.752 E2.39143
G1 X102.795 Y44.771 E2.40944
G1 X103.57 Y44.862 E2.46784
G1 X103.711 Y44.884 E2.47852
G1 X104.013 Y44.936 E2.50145
G1 X104.297 Y44.989 E2.52307
G1 X105.107 Y45.174 E2.58525
G1 X105.269 Y45.218 E2.59781
G1 X105.536 Y45.295 E2.61861
G1 X105.792 Y45.372 E2.63861
G1 X106.709 Y45.696 E2.71139
G1 X107.049 Y45.836 E2.73891
G1 X107.294 Y45.941 E2.75886
G1 X108.092 Y46.324 E2.8251
G1 X108.281 Y46.425 E2.84113
G1 X108.596 Y46.601 E2.86814
G1 X108.82 Y46.731 E2.88752
G1 X109.476 Y47.145 E2.94557
G1 X109.597 Y47.228 E2.95655
G1 X109.847 Y47.405 E2.97947
G1 X110.066 Y47.565 E2.99977
G1 X110.718 Y48.083 E3.06209
G1 X110.849 Y48.196 E3.07503
G1 X111.081 Y48.402 E3.09825
G1 X111.273 Y48.578 E3.11774
G1 X111.785 Y49.082 E3.17151
G1 X111.896 Y49.199 E3.18358
G1 X112.182 Y49.513 E3.21536
G1 X112.382 Y49.742 E3.23812
G1 X112.942 Y50.442 E3.3052
G1 X113.072 Y50.62 E3.3217
G1 X113.281 Y50.917 E3.34887
G1 X113.405 Y51.1 E3.36542
G1 X113.816 Y51.76 E3.4236
G1 X113.968 Y52.026 E3.44653
G1 X115.33 Y54.329 E3.64676
G1 X116.658 Y56.44 E3.8334
G1 X118.077 Y58.559 E4.02424
G1 X119.558 Y60.64 E4.21539
G1 X121.077 Y62.651 E4.40399
G1 X122.666 Y64.638 E4.59439
G1 X124.302 Y66.568 E4.78373
G1 X126.008 Y68.469 E4.97488
G1 X127.741 Y70.293 E5.16316
G1 X129.534 Y72.076 E5.35239
G1 X131.393 Y73.824 E5.54335
G1 X133.296 Y75.513 E5.73377
G1 X135.23 Y77.136 E5.92271
G1 X137.226 Y78.715 E6.11317
G1 X139.261 Y80.235 E6.30325
G1 X141.335 Y81.693 E6.49297
G1 X143.45 Y83.094 E6.68282
G1 X145.606 Y84.434 E6.87279
G1 X147.809 Y85.72 E7.06369
G1 X149.139 Y86.457 E7.17748
G1 X150.094 Y86.975 E7.25878
G1 X151.108 Y87.604 E7.34808
G1 X151.965 Y88.209 E7.42658
G1 X152.224 Y88.399 E7.45062
G1 X152.766 Y88.806 E7.50135
G1 X153.467 Y89.382 E7.56924
G1 X154.114 Y90.018 E7.63714
G1 X154.703 Y90.708 E7.70503
G1 X155.229 Y91.448 E7.77297
G1 X155.688 Y92.231 E7.84089
G1 X155.904 Y92.663 E7.87704
G1 X156.338 Y93.587 E7.95343
G1 X156.493 Y93.933 E7.98181
G1 X156.733 Y94.497 E8.02768
G1 X156.902 Y94.921 E8.06183
G1 X157.183 Y95.784 E8.12975
G1 X157.444 Y97.012 E8.2237
G1 X157.628 Y98.237 E8.31641
G1 X157.661 Y98.394 E8.32841
G1 X157.821 Y99.472 E8.40997
G1 X158.171 Y101.49 E8.56324
G1 X158.332 Y102.354 E8.62901
G1 X158.461 Y103.272 E8.69839
G1 X158.563 Y104.372 E8.78106
G1 X158.599 Y104.846 E8.81663
G1 X158.644 Y105.561 E8.87024
G1 X158.662 Y106.431 E8.93536
G1 X158.641 Y107.402 E9.00805
G1 X158.607 Y108.365 E9.08016
G1 X158.603 Y112.155 E9.36378
G1 X158.597 Y112.703 E9.4048
G1 X158.561 Y113.652 E9.47587
G1 X158.504 Y114.744 E9.5577
G1 X158.444 Y117.053 E9.73055
G1 X158.43 Y118.117 E9.81018
G1 X158.378 Y119.023 E9.87809
G1 X158.203 Y120.132 E9.96211
G1 X158.02 Y120.984 E10.02733
G1 X157.84 Y121.761 E10.08701
G1 X157.672 Y122.447 E10.13987
G1 X157.418 Y123.318 E10.20777
G1 X157.088 Y124.163 E10.27565
G1 X156.707 Y124.936 E10.34015
G1 X156.213 Y125.84 E10.41724
G1 X156.03 Y126.163 E10.44502
G1 X155.602 Y126.886 E10.5079
G1 X155.105 Y127.645 E10.57579
G1 X154.542 Y128.357 E10.64372
G1 X153.919 Y129.017 E10.71164
G1 X153.303 Y129.569 E10.77354
G1 X152.719 Y130.051 E10.8302
G1 X152.458 Y130.259 E10.85518
G1 X152.177 Y130.476 E10.88175
G1 X151.435 Y130.999 E10.94968
G1 X150.939 Y131.297 E10.99299
G1 X150.535 Y131.524 E11.02766
G1 X148.703 Y132.526 E11.18393
G1 X146.547 Y133.787 E11.37085
G1 X144.385 Y135.137 E11.56159
G1 X142.249 Y136.552 E11.75333
G1 X140.212 Y137.989 E11.93989
G1 X138.149 Y139.531 E12.13263
G1 X136.186 Y141.089 E12.32018
G1 X134.22 Y142.742 E12.5124
G1 X132.356 Y144.401 E12.69914
G1 X130.483 Y146.165 E12.89168
G1 X128.696 Y147.946 E13.08049
G1 X126.951 Y149.788 E13.27037
G1 X125.253 Y151.684 E13.46084
G1 X123.622 Y153.611 E13.64977
G1 X122.03 Y155.604 E13.84066
G1 X120.515 Y157.614 E14.02902
G1 X119.041 Y159.692 E14.21968
G1 X117.631 Y161.803 E14.40965
G1 X116.28 Y163.954 E14.59974
G1 X114.998 Y166.129 E14.78868
G1 X114.235 Y167.509 E14.90668
G1 X113.82 Y168.235 E14.96926
G1 X113.395 Y168.915 E15.02927
G1 X113.295 Y169.062 E15.04258
G1 X113.094 Y169.347 E15.06868
G1 X112.931 Y169.57 E15.08935
G1 X112.414 Y170.221 E15.15156
G1 X112.307 Y170.345 E15.16382
G1 X112.117 Y170.559 E15.18523
G1 X111.929 Y170.765 E15.2061
G1 X111.363 Y171.338 E15.26638
G1 X111.252 Y171.442 E15.27776
G1 X110.955 Y171.711 E15.30775
G1 X110.723 Y171.912 E15.33072
G1 X110.056 Y172.442 E15.39447
G1 X109.67 Y172.721 E15.43012
G1 X109.488 Y172.847 E15.44668
G1 X108.708 Y173.336 E15.51558
G1 X108.53 Y173.437 E15.53089
G1 X108.305 Y173.561 E15.55012
G1 X108.09 Y173.676 E15.56836
G1 X107.36 Y174.03 E15.62908
G1 X107.152 Y174.121 E15.64607
G1 X106.814 Y174.262 E15.67347
G1 X106.627 Y174.336 E15.68853
G1 X105.943 Y174.579 E15.74285
G1 X105.747 Y174.641 E15.75823
G1 X105.327 Y174.765 E15.791
G1 X105.079 Y174.832 E15.81023
G1 X104.384 Y174.994 E15.86363
G1 X104.186 Y175.033 E15.87873
G1 X103.741 Y175.11 E15.91253
G1 X103.471 Y175.151 E15.93297
G1 X102.632 Y175.244 E15.99614
G1 X102.443 Y175.257 E16.01032
G1 X102.144 Y175.273 E16.03272
G1 X101.892 Y175.283 E16.0516
G1 X101.628 Y175.29 E16.07136
G1 X100.838 Y175.3 E16.13049
G1 X85.037 Y175.298 E17.31296
G1 X84.328 Y175.288 E17.36602
G1 X84.042 Y175.28 E17.38743
G1 X83.827 Y175.271 E17.40354
G1 X83.517 Y175.253 E17.42677
G1 X83.309 Y175.238 E17.44238
G1 X82.519 Y175.151 E17.50186
G1 X82.346 Y175.125 E17.51495
G1 X81.987 Y175.064 E17.5422
G1 X81.703 Y175.011 E17.56382
G1 X80.893 Y174.826 E17.626
G1 X80.731 Y174.782 E17.63856
G1 X80.461 Y174.704 E17.65959
G1 X80.202 Y174.626 E17.67984
G1 X79.277 Y174.299 E17.75326
G1 X78.946 Y174.162 E17.78006
G1 X78.692 Y174.053 E17.80075
G1 X77.868 Y173.655 E17.86923
G1 X77.449 Y173.426 E17.90496
G1 X77.252 Y173.313 E17.92196
G1 X76.587 Y172.896 E17.9807
G1 X76.434 Y172.792 E17.99454
G1 X76.15 Y172.592 E18.02054
G1 X75.935 Y172.435 E18.04046
G1 X75.281 Y171.916 E18.10294
G1 X75.15 Y171.803 E18.11589
G1 X74.923 Y171.601 E18.13863
G1 X74.722 Y171.417 E18.15902
G1 X74.159 Y170.86 E18.21829
G1 X74.056 Y170.75 E18.22957
G1 X73.792 Y170.457 E18.25908
G1 X73.59 Y170.224 E18.28216
G1 X73.063 Y169.564 E18.34536
G1 X72.937 Y169.392 E18.36132
G1 X72.762 Y169.146 E18.38391
G1 X72.636 Y168.963 E18.40054
G1 X72.155 Y168.194 E18.46842
G1 X71.942 Y167.811 E18.50121
G1 X71.822 Y167.587 E18.52023
G1 X71.446 Y166.809 E18.58489
G1 X71.36 Y166.61 E18.60112
G1 X71.224 Y166.279 E18.6279
G1 X71.141 Y166.067 E18.64494
G1 X70.896 Y165.368 E18.70037
G1 X70.841 Y165.191 E18.71424
G1 X70.717 Y164.758 E18.74794
G1 X70.638 Y164.458 E18.77116
G1 X70.461 Y163.658 E18.83247
G1 X70.388 Y163.231 E18.86489
G1 X70.347 Y162.959 E18.88548
G1 X70.255 Y162.117 E18.94886
G1 X70.243 Y161.939 E18.96221
G1 X70.229 Y161.669 E18.98245
G1 X70.207 Y161.133 E19.02259
G1 X70.064 Y158.538 E19.21709
G1 X69.851 Y156.003 E19.40746
G1 X69.568 Y153.476 E19.59775
G1 X69.212 Y150.955 E19.78828
G1 X68.791 Y148.472 E19.97675
G1 X68.295 Y145.988 E20.16631
G1 X67.73 Y143.52 E20.35578
G1 X67.095 Y141.063 E20.5457
G1 X66.385 Y138.609 E20.73687
G1 X65.605 Y136.172 E20.92836
G1 X64.777 Y133.815 E21.11531
G1 X63.867 Y131.445 E21.3053
G1 X62.88 Y129.078 E21.49722
G1 X61.842 Y126.771 E21.68653
G1 X60.73 Y124.474 E21.87751
G1 X60.67 Y124.357 E21.88735
G1 X60.274 Y123.555 E21.95429
G1 X59.909 Y122.725 E22.02214
G1 X59.618 Y121.865 E22.09009
G1 X59.404 Y120.983 E22.15801
G1 X59.268 Y120.086 E22.2259
G1 X59.216 Y119.343 E22.28164
G1 X59.206 Y118.973 E22.30934
G1 X59.2 Y118.438 E22.34938
G1 X59.201 Y101.561 E23.61237
G1 X59.211 Y100.857 E23.66506
G1 X59.264 Y99.951 E23.73298
G1 X59.396 Y99.053 E23.8009
G1 X59.607 Y98.17 E23.86884
G1 X59.895 Y97.31 E23.93671
G1 X60.309 Y96.373 E24.01337
G1 X60.695 Y95.606 E24.07763
G1 X61.801 Y93.328 E24.26714
G1 X62.841 Y91.025 E24.45624
G1 X63.841 Y88.635 E24.65012
G1 X64.738 Y86.298 E24.83745
G1 X65.574 Y83.93 E25.02538
G1 X66.364 Y81.47 E25.21874
G1 X67.067 Y79.051 E25.40725
G1 X67.698 Y76.62 E25.59521
G1 X68.277 Y74.109 E25.78805
G1 X68.773 Y71.627 E25.97746
G1 X69.198 Y69.132 E26.16687
G1 X69.554 Y66.631 E26.35592
G1 X69.84 Y64.115 E26.54541
G1 X70.054 Y61.592 E26.7349
G1 X70.2 Y58.986 E26.93023
G1 X70.227 Y58.352 E26.97772
G1 X70.245 Y58.047 E27.00058
G1 X70.262 Y57.811 E27.01829
G1 X70.348 Y57.029 E27.07716
G1 X70.374 Y56.855 E27.09033
G1 X70.431 Y56.516 E27.11605
G1 X70.483 Y56.233 E27.13759
G1 X70.684 Y55.353 E27.20514
G1 X70.729 Y55.19 E27.21779
G1 X70.88 Y54.683 E27.25738
G1 X71.173 Y53.849 E27.32353
G1 X71.348 Y53.42 E27.3582
G1 X71.457 Y53.168 E27.37875
G1 X71.831 Y52.394 E27.44308
G1 X71.929 Y52.211 E27.45862
G1 X72.088 Y51.926 E27.48304
G1 X72.204 Y51.725 E27.50041
G1 X72.591 Y51.106 E27.55504
G1 X72.691 Y50.958 E27.5684
G1 F1500 E21.0684
G0 F6000 X102.556 Y54.456
G0 X103.549 Y54.809
G0 X104.439 Y55.379
G0 X104.642 Y55.584
G0 X144.216 Y98.082
G1 F1500 E27.5684
G1 F600 X144.481 Y98.098 E27.58827
G1 X144.92 Y98.418 E27.62893
G1 X145.094 Y98.81 E27.66102
G1 X145.029 Y99.21 E27.69135
G1 X144.323 Y99.071 E27.7452
G1 X144.33 Y99.038 E27.74772
G1 X144.34 Y98.629 E27.77834
G1 X144.271 Y98.225 E27.80901
G1 X144.216 Y98.082 E27.82047
G0 F6000 X143.641 Y98.231
G1 F600 X143.478 Y97.927 E27.84629
G1 X143.249 Y97.667 E27.87222
G1 X142.967 Y97.467 E27.89809
G1 X142.795 Y97.397 E27.91199
G1 X144.692 Y97.509 E28.0542
G1 X145.401 Y98.026 E28.11986
G1 X145.714 Y98.729 E28.17745
G1 X145.555 Y99.716 E28.25226
G1 X145.54 Y100.062 E28.27818
G1 X145.251 Y99.898 E28.30305
G1 X144.956 Y99.807 E28.32615
G1 X143.577 Y99.535 E28.43134
G1 X143.671 Y99.25 E28.4538
G1 X143.74 Y98.911 E28.47969
G1 X143.73 Y98.566 E28.50552
G1 X143.641 Y98.231 E28.53145
G0 F6000 X143.111 Y98.534
G1 F600 X143 Y98.29 E28.55151
G1 X142.822 Y98.09 E28.57155
G1 X142.593 Y97.952 E28.59156
G1 X142.334 Y97.886 E28.61156
G1 X142.177 Y97.885 E28.62331
G1 X139.847 Y98.063 E28.79819
G1 X139.493 Y98.166 E28.82578
G1 X137.88 Y99.026 E28.96257
G1 X135.928 Y99.145 E29.10892
G1 X133.919 Y98.865 E29.26072
G1 X133.782 Y98.856 E29.27099
G1 X131.672 Y98.887 E29.42891
G1 X131.563 Y98.895 E29.43709
G1 X129.879 Y99.126 E29.56429
G1 X128.107 Y98.491 E29.70516
G1 X128.058 Y98.475 E29.70902
G1 X126.668 Y98.065 E29.81747
G1 X126.403 Y98.028 E29.83749
G1 X126.138 Y98.071 E29.85758
G1 X125.829 Y98.243 E29.88405
G1 X124.2 Y99.633 E30.0443
G1 X123.659 Y100.125 E30.09903
G1 X123.489 Y100.16 E30.11202
G1 X123.255 Y100.29 E30.13205
G1 X123.069 Y100.483 E30.15211
G1 X122.948 Y100.721 E30.17209
G1 X122.903 Y100.985 E30.19213
G1 X122.923 Y101.192 E30.20769
G1 X123.071 Y101.887 E30.26087
G1 X122.969 Y102.202 E30.28565
G1 X122.78 Y102.34 E30.30316
G1 X122.362 Y102.301 E30.33458
G1 X122.087 Y102.101 E30.36002
G1 X121.627 Y100.799 E30.46336
G1 X121.501 Y100.563 E30.48338
G1 X121.311 Y100.374 E30.50344
G1 X121.095 Y100.257 E30.52182
G1 X120.178 Y99.912 E30.59514
G1 X119.916 Y99.856 E30.61519
G1 X119.65 Y99.879 E30.63517
G1 X119.304 Y100.047 E30.66395
G1 X117.747 Y101.272 E30.81221
G1 X117.515 Y101.547 E30.83914
G1 X116.88 Y102.707 E30.9381
G1 X116.787 Y102.958 E30.95813
G1 X116.773 Y103.225 E30.97814
G1 X116.828 Y103.459 E30.99613
G1 X117.138 Y104.275 E31.06146
G1 X117.324 Y104.572 E31.08768
G1 X118.722 Y106.057 E31.24031
G1 X119.842 Y107.223 E31.3613
G1 X120.653 Y108.914 E31.50165
G1 X120.203 Y110.061 E31.59385
G1 X119.576 Y110.413 E31.64766
G1 X119.365 Y110.577 E31.66766
G1 X119.211 Y110.796 E31.6877
G1 X119.129 Y111.051 E31.70774
G1 X119.144 Y111.415 E31.73501
G1 X119.636 Y113.384 E31.88689
G1 X119.739 Y113.631 E31.90691
G1 X119.909 Y113.837 E31.9269
G1 X120.085 Y113.96 E31.94297
G1 X121.549 Y114.741 E32.06714
G1 X121.885 Y115.348 E32.11906
G1 X121.829 Y115.52 E32.1326
G1 X121.602 Y115.685 E32.1536
G1 X121.115 Y115.684 E32.19005
G1 X119.685 Y114.826 E32.31485
G1 X119.438 Y114.724 E32.33484
G1 X119.172 Y114.699 E32.35484
G1 X118.91 Y114.754 E32.37487
G1 X118.69 Y114.872 E32.39356
G1 X117.97 Y115.4 E32.46037
G1 X117.694 Y115.4 E32.48103
G1 X117.505 Y115.263 E32.4985
G1 X117.409 Y114.831 E32.53161
G1 X117.515 Y114.506 E32.5572
G1 X118.226 Y113.953 E32.6246
G1 X118.411 Y113.759 E32.64466
G1 X118.53 Y113.519 E32.66471
G1 X118.574 Y113.255 E32.68474
G1 X118.547 Y113.024 E32.70214
G1 X118.107 Y111.26 E32.8382
G1 X118.431 Y109.785 E32.95121
G1 X119.126 Y109.183 E33.02002
G1 X119.3 Y108.979 E33.04009
G1 X119.407 Y108.734 E33.06009
G1 X119.436 Y108.468 E33.08012
G1 X119.387 Y108.205 E33.10014
G1 X119.224 Y107.92 E33.12471
G1 X117.974 Y106.445 E33.2694
G1 X117.868 Y106.339 E33.28061
G1 X116.456 Y105.146 E33.41895
G1 X115.85 Y103.572 E33.54517
G1 X115.6 Y101.791 E33.67976
G1 X115.553 Y101.603 E33.69426
G1 X114.941 Y99.954 E33.82589
G1 X114.928 Y99.522 E33.85823
G1 X114.88 Y99.258 E33.87831
G1 X114.757 Y99.021 E33.89829
G1 X114.57 Y98.829 E33.91835
G1 X114.425 Y98.74 E33.93108
G1 X113.735 Y98.401 E33.98861
G1 X113.48 Y98.32 E34.00864
G1 X113.116 Y98.337 E34.03591
G1 X111.427 Y98.766 E34.16632
G1 X109.469 Y99.14 E34.31549
G1 X109.217 Y99.229 E34.33549
G1 X109.085 Y99.314 E34.34724
G1 X107.581 Y100.484 E34.48984
G1 X107.517 Y100.538 E34.49611
G1 X106.234 Y101.745 E34.62793
G1 X104.702 Y102.885 E34.77084
G1 X104.428 Y102.885 E34.79134
G1 X104.042 Y102.604 E34.82707
G1 X103.98 Y102.572 E34.83229
G1 X104.728 Y101.802 E34.91263
G1 X106.256 Y100.661 E35.05534
G1 X106.389 Y100.539 E35.06885
G1 X107.177 Y99.654 E35.15752
G1 X108.949 Y98.29 E35.32487
G1 X111.103 Y97.795 E35.49027
G1 X112.814 Y97.304 E35.62348
G1 X114.081 Y97.424 E35.71872
G1 X115.635 Y98.226 E35.84959
G1 X115.742 Y99.497 E35.94504
G1 X115.783 Y99.699 E35.96046
G1 X115.897 Y100.05 E35.98808
G1 X116.017 Y100.289 E36.00809
G1 X116.201 Y100.483 E36.0281
G1 X116.435 Y100.614 E36.04817
G1 X116.696 Y100.67 E36.06815
G1 X116.963 Y100.647 E36.0882
G1 X117.317 Y100.474 E36.11769
G1 X118.734 Y99.335 E36.25374
G1 X119.74 Y98.603 E36.34685
G1 X119.862 Y98.496 E36.35899
G1 X120.408 Y97.923 E36.41822
G1 X120.593 Y97.923 E36.43207
G1 X120.845 Y98.106 E36.45537
G1 X121.22 Y99.066 E36.5325
G1 X121.353 Y99.298 E36.55251
G1 X121.549 Y99.48 E36.57253
G1 X121.79 Y99.597 E36.59258
G1 X122.054 Y99.638 E36.61257
G1 X122.319 Y99.599 E36.63262
G1 X122.542 Y99.497 E36.65097
G1 X124.09 Y98.51 E36.78836
G1 X124.174 Y98.449 E36.79613
G1 X125.861 Y97.076 E36.9589
