;FLAVOR:Marlin
;TIME:6681
;Filament used: 3.04605m
;Layer height: 0.2
;MINX:76.2
;MINY:44.7
;MINZ:0.3
;MAXX:143.8
;MAXY:175.3
;MAXZ:36.9
;Generated with Cura_SteamEngine 4.12.1
M140 S80
M105
M190 S80
M104 S220
M105
M109 S220
M82 ;absolute extrusion mode
; Ender 3 Custom Start G-code
G92 E0 ; Reset Extruder
G28 ; Home all axes
G1 Z2.0 F3000 ; Move Z Axis up little to prevent scratching of Heat Bed
G1 X0.1 Y20 Z0.3 F5000.0 ; Move to start position
G1 X0.1 Y200.0 Z0.3 F1500.0 E15 ; Draw the first line
G1 X0.4 Y200.0 Z0.3 F5000.0 ; Move to side a little
G1 X0.4 Y20 Z0.3 F1500.0 E30 ; Draw the second line
G92 E0 ; Reset Extruder
G1 Z2.0 F3000 ; Move Z Axis up little to prevent scratching of Heat Bed
G1 X5 Y20 Z0.3 F5000.0 ; Move over to prevent blob squish
G92 E0
G92 E0
G1 F1500 E-6.5
;LAYER_COUNT:185
;LAYER:0
M107
G0 F6000 X89.215 Y51.702 Z0.3
;TYPE:SKIRT
G1 F1500 E0
G1 F600 X89.275 Y51.602 E0.00873
G1 X89.554 Y51.163 E0.04765
G1 X89.713 Y50.926 E0.06901
G1 X90.043 Y50.462 E0.11162
G1 X90.132 Y50.344 E0.12268
G1 X90.439 Y49.956 E0.15971
G1 X90.623 Y49.735 E0.18123
G1 X91.017 Y49.288 E0.22582
G1 X91.104 Y49.195 E0.23535
G1 X91.437 Y48.856 E0.27091
G1 X91.634 Y48.664 E0.2915
G1 X92.102 Y48.235 E0.33901
G1 X92.21 Y48.142 E0.34967
G1 X92.574 Y47.843 E0.38493
G1 X92.792 Y47.672 E0.40566
G1 X93.282 Y47.31 E0.45125
G1 X93.396 Y47.231 E0.46163
G1 X93.781 Y46.977 E0.49615
G1 X94.018 Y46.828 E0.5171
G1 X94.517 Y46.534 E0.56044
G1 X94.64 Y46.466 E0.57096
G1 X95.088 Y46.232 E0.60878
G1 X95.349 Y46.104 E0.63054
G1 X95.935 Y45.839 E0.67866
G1 X96.041 Y45.795 E0.68725
G1 X96.396 Y45.655 E0.71581
G1 X96.678 Y45.55 E0.73833
G1 X97.305 Y45.34 E0.78781
G1 X97.428 Y45.303 E0.79743
G1 X97.922 Y45.167 E0.83577
G1 X98.201 Y45.098 E0.85728
G1 X98.621 Y45.004 E0.88949
G1 X98.739 Y44.98 E0.8985
G1 X99.381 Y44.87 E0.94724
G1 X99.692 Y44.827 E0.97074
G1 X100.265 Y44.764 E1.01388
G1 X100.363 Y44.756 E1.02123
G1 X100.799 Y44.73 E1.05392
G1 X101.209 Y44.714 E1.08463
G1 X101.481 Y44.707 E1.10499
G1 X102.085 Y44.7 E1.15019
G1 X117.793 Y44.7 E2.3257
G1 X118.732 Y44.712 E2.39598
G1 X119.216 Y44.73 E2.43223
G1 X119.528 Y44.749 E2.45562
G1 X120.196 Y44.812 E2.50583
G1 X120.346 Y44.831 E2.51714
G1 X120.78 Y44.895 E2.54997
G1 X121.062 Y44.943 E2.57138
G1 X121.745 Y45.083 E2.62356
G1 X121.853 Y45.109 E2.63187
G1 X122.258 Y45.216 E2.66322
G1 X122.557 Y45.301 E2.68648
G1 X123.062 Y45.458 E2.72606
G1 X123.153 Y45.489 E2.73325
G1 X123.674 Y45.682 E2.77483
G1 X123.97 Y45.801 E2.7987
G1 X124.455 Y46.011 E2.83826
G1 X124.563 Y46.061 E2.84716
G1 X125.038 Y46.296 E2.88682
G1 X125.279 Y46.423 E2.90721
G1 X125.712 Y46.665 E2.94433
G1 X125.834 Y46.737 E2.95493
G1 X126.337 Y47.054 E2.99942
G1 X126.574 Y47.213 E3.02078
G1 X127.038 Y47.543 E3.06339
G1 X127.156 Y47.632 E3.07445
G1 X127.544 Y47.939 E3.11148
G1 X127.753 Y48.113 E3.13183
G1 X128.191 Y48.499 E3.17552
G1 X128.296 Y48.597 E3.18627
G1 X128.662 Y48.957 E3.22469
G1 X128.854 Y49.155 E3.24533
G1 X129.163 Y49.487 E3.27927
G1 X129.25 Y49.585 E3.28907
G1 X129.66 Y50.077 E3.337
G1 X129.836 Y50.302 E3.35838
G1 X130.178 Y50.766 E3.40152
G1 X130.258 Y50.881 E3.412
G1 X130.514 Y51.267 E3.44666
G1 X130.661 Y51.5 E3.46728
G1 X130.954 Y51.994 E3.51026
G1 X131.024 Y52.12 E3.52105
G1 X131.263 Y52.577 E3.55964
G1 X131.382 Y52.819 E3.57982
G1 X131.618 Y53.334 E3.62222
G1 X131.672 Y53.461 E3.63254
G1 X131.851 Y53.913 E3.66893
G1 X131.954 Y54.191 E3.69111
G1 X132.157 Y54.795 E3.7388
G1 X132.195 Y54.921 E3.74865
G1 X132.322 Y55.38 E3.78429
G1 X132.391 Y55.654 E3.80543
G1 X132.516 Y56.214 E3.84837
G1 X132.539 Y56.333 E3.85744
G1 X132.623 Y56.836 E3.8956
G1 X132.665 Y57.131 E3.9179
G1 X132.724 Y57.635 E3.95588
G1 X132.735 Y57.754 E3.96482
G1 X132.772 Y58.314 E4.00682
G1 X132.784 Y58.634 E4.03078
G1 X132.922 Y61.253 E4.22705
G1 X133.125 Y63.751 E4.4146
G1 X133.402 Y66.281 E4.60507
G1 X133.751 Y68.798 E4.79523
G1 X134.172 Y71.315 E4.98621
G1 X134.661 Y73.805 E5.17611
G1 X135.215 Y76.255 E5.36408
G1 X135.843 Y78.709 E5.55365
G1 X136.544 Y81.157 E5.74421
G1 X137.321 Y83.604 E5.93634
G1 X138.142 Y85.959 E6.12298
G1 X139.038 Y88.311 E6.31133
G1 X140.027 Y90.707 E6.50531
G1 X141.055 Y93.006 E6.69377
G1 X142.165 Y95.312 E6.8853
G1 X142.719 Y96.428 E6.97854
G1 X143.085 Y97.258 E7.04642
G1 X143.377 Y98.117 E7.11432
G1 X143.592 Y98.999 E7.18225
G1 X143.729 Y99.896 E7.25016
G1 X143.778 Y100.533 E7.29797
G1 X143.785 Y100.688 E7.30958
G1 X143.794 Y101.027 E7.33496
G1 X143.8 Y101.562 E7.375
G1 X143.799 Y118.44 E8.63807
G1 X143.789 Y119.142 E8.69061
G1 X143.736 Y120.048 E8.75853
G1 X143.604 Y120.945 E8.82638
G1 X143.393 Y121.828 E8.89432
G1 X143.105 Y122.689 E8.96226
G1 X142.696 Y123.615 E9.03801
G1 X142.327 Y124.351 E9.09963
G1 X141.196 Y126.68 E9.29338
G1 X140.141 Y129.019 E9.4854
G1 X139.159 Y131.367 E9.67587
G1 X138.265 Y133.696 E9.86256
G1 X137.417 Y136.102 E10.05347
G1 X136.634 Y138.54 E10.24509
G1 X135.933 Y140.957 E10.43342
G1 X135.298 Y143.4 E10.62232
G1 X134.717 Y145.925 E10.81622
G1 X134.23 Y148.367 E11.00257
G1 X133.801 Y150.884 E11.19364
G1 X133.448 Y153.362 E11.38096
G1 X133.157 Y155.933 E11.57459
G1 X132.947 Y158.422 E11.76151
G1 X132.799 Y161.087 E11.96126
G1 X132.781 Y161.53 E11.99444
G1 X132.748 Y162.074 E12.03522
G1 X132.687 Y162.706 E12.08274
G1 X132.668 Y162.855 E12.09398
G1 X132.605 Y163.28 E12.12613
G1 X132.557 Y163.562 E12.14754
G1 X132.417 Y164.245 E12.19971
G1 X132.391 Y164.353 E12.20803
G1 X132.29 Y164.74 E12.23796
G1 X132.207 Y165.034 E12.26082
G1 X132.043 Y165.56 E12.30205
G1 X132.013 Y165.648 E12.30901
G1 X131.836 Y166.127 E12.34722
G1 X131.716 Y166.429 E12.37154
G1 X131.44 Y167.061 E12.42315
G1 X131.388 Y167.17 E12.43219
G1 X131.218 Y167.51 E12.46064
G1 X131.094 Y167.747 E12.48065
G1 X130.837 Y168.21 E12.52028
G1 X130.762 Y168.337 E12.53132
G1 X130.446 Y168.837 E12.57558
G1 X130.287 Y169.074 E12.59694
G1 X129.965 Y169.528 E12.6386
G1 X129.88 Y169.641 E12.64918
G1 X129.568 Y170.036 E12.68685
G1 X129.39 Y170.25 E12.70768
G1 X129.008 Y170.683 E12.75089
G1 X128.913 Y170.785 E12.76132
G1 X128.567 Y171.139 E12.79836
G1 X128.366 Y171.335 E12.81937
G1 X127.952 Y171.718 E12.86158
G1 X127.857 Y171.801 E12.87102
G1 X127.445 Y172.142 E12.91104
G1 X127.216 Y172.322 E12.93284
G1 X126.718 Y172.69 E12.97918
G1 X126.604 Y172.769 E12.98956
G1 X126.219 Y173.023 E13.02408
G1 X125.982 Y173.172 E13.04503
G1 X125.483 Y173.466 E13.08837
G1 X125.36 Y173.534 E13.09889
G1 X124.912 Y173.768 E13.13671
G1 X124.651 Y173.896 E13.15846
G1 X124.065 Y174.161 E13.20659
G1 X123.959 Y174.205 E13.21518
G1 X123.6 Y174.346 E13.24405
G1 X123.323 Y174.449 E13.26616
G1 X122.707 Y174.656 E13.31479
G1 X122.581 Y174.694 E13.32464
G1 X122.097 Y174.828 E13.36222
G1 X121.816 Y174.898 E13.3839
G1 X121.379 Y174.996 E13.41741
G1 X121.261 Y175.02 E13.42642
G1 X120.619 Y175.13 E13.47517
G1 X120.308 Y175.173 E13.49866
G1 X119.735 Y175.236 E13.5418
G1 X119.637 Y175.244 E13.54916
G1 X119.201 Y175.27 E13.58185
G1 X118.791 Y175.286 E13.61255
G1 X118.519 Y175.293 E13.63291
G1 X117.915 Y175.3 E13.67812
G1 X102.065 Y175.299 E14.86426
G1 X101.269 Y175.288 E14.92383
G1 X100.787 Y175.27 E14.95993
G1 X100.474 Y175.251 E14.98339
G1 X99.804 Y175.188 E15.03375
G1 X99.654 Y175.169 E15.04507
G1 X99.22 Y175.105 E15.0779
G1 X98.938 Y175.057 E15.09931
G1 X98.255 Y174.917 E15.15148
G1 X98.147 Y174.891 E15.15979
G1 X97.742 Y174.784 E15.19114
G1 X97.443 Y174.699 E15.21441
G1 X96.938 Y174.542 E15.25398
G1 X96.847 Y174.511 E15.26118
G1 X96.326 Y174.318 E15.30275
G1 X96.03 Y174.199 E15.32663
G1 X95.545 Y173.989 E15.36618
G1 X95.437 Y173.939 E15.37509
G1 X94.956 Y173.701 E15.41525
G1 X94.704 Y173.568 E15.43657
G1 X94.248 Y173.312 E15.47571
G1 X94.137 Y173.246 E15.48537
G1 X93.655 Y172.941 E15.52806
G1 X93.411 Y172.777 E15.55006
G1 X92.942 Y172.442 E15.59319
G1 X92.831 Y172.358 E15.60361
G1 X92.456 Y172.061 E15.6394
G1 X92.247 Y171.887 E15.65976
G1 X91.809 Y171.501 E15.70345
G1 X91.704 Y171.403 E15.71419
G1 X91.357 Y171.063 E15.75055
G1 X91.163 Y170.864 E15.77135
G1 X90.749 Y170.414 E15.81711
G1 X90.659 Y170.31 E15.8274
G1 X90.344 Y169.927 E15.86451
G1 X90.173 Y169.709 E15.88524
G1 X89.773 Y169.163 E15.9359
G1 X89.691 Y169.043 E15.94677
G1 X89.501 Y168.755 E15.97259
G1 X89.353 Y168.522 E15.99325
G1 X89.019 Y167.957 E16.04237
G1 X88.952 Y167.835 E16.05278
G1 X88.721 Y167.389 E16.09037
G1 X88.587 Y167.114 E16.11326
G1 X88.347 Y166.585 E16.15674
G1 X88.308 Y166.492 E16.16428
G1 X88.133 Y166.045 E16.20021
G1 X88.027 Y165.755 E16.22331
G1 X87.833 Y165.171 E16.26936
G1 X87.798 Y165.054 E16.2785
G1 X87.682 Y164.634 E16.31111
G1 X87.612 Y164.358 E16.33242
G1 X87.486 Y163.797 E16.37545
G1 X87.463 Y163.679 E16.38445
G1 X87.37 Y163.119 E16.42693
G1 X87.327 Y162.808 E16.45042
G1 X87.271 Y162.32 E16.48718
G1 X87.262 Y162.22 E16.4947
G1 X87.228 Y161.686 E16.53474
G1 X87.216 Y161.364 E16.55885
G1 X87.078 Y158.747 E16.75497
G1 X86.875 Y156.248 E16.9426
G1 X86.597 Y153.714 E17.13337
G1 X86.246 Y151.177 E17.32503
G1 X85.832 Y148.707 E17.51246
G1 X85.342 Y146.209 E17.70296
G1 X84.782 Y143.734 E17.89286
G1 X84.149 Y141.262 E18.08382
G1 X83.458 Y138.85 E18.27158
G1 X82.686 Y136.416 E18.46267
G1 X81.854 Y134.03 E18.65177
G1 X80.962 Y131.689 E18.83925
G1 X79.979 Y129.308 E19.03202
G1 X78.937 Y126.976 E19.22317
G1 X77.831 Y124.681 E19.41382
G1 X77.274 Y123.554 E19.50789
G1 X76.909 Y122.724 E19.57575
G1 X76.618 Y121.864 E19.64369
G1 X76.404 Y120.982 E19.71161
G1 X76.268 Y120.085 E19.77951
G1 X76.216 Y119.343 E19.83517
G1 X76.206 Y118.973 E19.86287
G1 X76.2 Y118.438 E19.90291
G1 X76.201 Y101.54 E21.16747
G1 X76.211 Y100.853 E21.21889
G1 X76.264 Y99.947 E21.28681
G1 X76.397 Y99.049 E21.35474
G1 X76.608 Y98.167 E21.42261
G1 X76.896 Y97.306 E21.49055
G1 X77.309 Y96.373 E21.56691
G1 X77.676 Y95.644 E21.62799
G1 X78.804 Y93.32 E21.82131
G1 X79.859 Y90.981 E22.01333
G1 X80.841 Y88.633 E22.20379
G1 X81.735 Y86.304 E22.39048
G1 X82.583 Y83.898 E22.58139
G1 X83.366 Y81.46 E22.77302
G1 X84.069 Y79.036 E22.9619
G1 X84.702 Y76.6 E23.15025
G1 X85.283 Y74.075 E23.34415
G1 X85.77 Y71.633 E23.53049
G1 X86.199 Y69.116 E23.72157
G1 X86.552 Y66.638 E23.90888
G1 X86.843 Y64.067 E24.10251
G1 X87.053 Y61.578 E24.28944
G1 X87.202 Y58.884 E24.49135
G1 X87.219 Y58.47 E24.52236
G1 X87.235 Y58.183 E24.54387
G1 X87.256 Y57.877 E24.56683
G1 X87.314 Y57.286 E24.61127
G1 X87.331 Y57.152 E24.62137
G1 X87.397 Y56.708 E24.65497
G1 X87.445 Y56.428 E24.67623
G1 X87.573 Y55.799 E24.72426
G1 X87.599 Y55.689 E24.73272
G1 X87.716 Y55.242 E24.7673
G1 X87.801 Y54.943 E24.79056
G1 X87.958 Y54.438 E24.83014
G1 X87.989 Y54.347 E24.83733
G1 X88.182 Y53.826 E24.87891
G1 X88.301 Y53.53 E24.90278
G1 X88.511 Y53.045 E24.94234
G1 X88.561 Y52.937 E24.95124
G1 X88.802 Y52.451 E24.99184
G1 X88.941 Y52.188 E25.0141
G1 X89.215 Y51.702 E25.05585
G1 F1500 E18.55585
G0 F6000 X110.212 Y78.566
G1 F1500 E25.05585
G1 F600 X110.243 Y78.542 E25.05879
G1 X110.258 Y78.579 E25.06177
G1 X110.212 Y78.566 E25.06535
G0 F6000 X109.581 Y78.566
G1 F600 X109.707 Y78.181 E25.09567
G1 X110.035 Y77.942 E25.12604
G1 X110.439 Y77.942 E25.15627
G1 X110.767 Y78.181 E25.18664
G1 X110.893 Y78.566 E25.21696
G1 X110.767 Y78.951 E25.24727
G1 X110.439 Y79.19 E25.27764
G1 X110.035 Y79.19 E25.30788
G1 X109.707 Y78.951 E25.33825
G1 X109.581 Y78.566 E25.36856
G0 F6000 X108.95 Y78.566
G1 F600 X109.196 Y77.811 E25.42799
G1 X109.84 Y77.342 E25.48761
G1 X110.634 Y77.342 E25.54703
G1 X111.278 Y77.811 E25.60665
G1 X111.524 Y78.566 E25.66607
G1 X111.278 Y79.321 E25.72549
G1 X110.634 Y79.79 E25.78511
G1 X109.84 Y79.79 E25.84453
G1 X109.196 Y79.321 E25.90415
G1 X108.95 Y78.566 E25.96358
G0 F6000 X108.319 Y78.566
G1 F600 X108.686 Y77.44 E26.0522
G1 X109.644 Y76.742 E26.14091
G1 X110.83 Y76.742 E26.22966
G1 X111.788 Y77.44 E26.31837
G1 X112.155 Y78.566 E26.40699
G1 X111.788 Y79.692 E26.49562
G1 X110.83 Y80.39 E26.58432
G1 X109.644 Y80.39 E26.67308
G1 X108.686 Y79.692 E26.76178
G1 X108.319 Y78.566 E26.85041
G0 F6000 X107.687 Y78.566
G1 F600 X108.175 Y77.07 E26.96817
G1 X109.449 Y76.142 E27.08612
G1 X111.025 Y76.142 E27.20406
G1 X112.299 Y77.07 E27.32201
G1 X112.787 Y78.566 E27.43977
G1 X112.299 Y80.062 E27.55753
G1 X111.025 Y80.99 E27.67548
G1 X109.449 Y80.99 E27.79342
G1 X108.175 Y80.062 E27.91138
G1 X107.687 Y78.566 E28.02914
G1 F1500 E21.52914
;MESH:RearSuspension_Upper.stl
G0 F6000 X106.969 Y88.136
G0 X104.135 Y83.095
G0 X106.43 Y92.298
G0 X106.627 Y92.7
G0 X106.036 Y100.584
G0 X92.017 Y100.661
G0 X92.017 Y119.339
G0 X104.625 Y119.414
G0 X103.714 Y131.584
G0 X101.153 Y131.653
G0 X101.145 Y140.173
G0 X103.148 Y139.132
G0 X102.185 Y151.983
G0 X101.144 Y151.374
G0 X101.531 Y154.837
G0 X101.964 Y154.937
G0 X101.592 Y159.92
G0 X101.736 Y158.165
G0 X103.308 Y159.593
G0 X103.667 Y160.257
G0 X103.792 Y161
G0 X103.667 Y161.743
G0 X103.308 Y162.407
G0 X102.994 Y162.696
G0 X101.72 Y163.644
;TYPE:WALL-INNER
G1 F1500 E28.02914
G1 F600 X102.151 Y163.572 E28.06184
G1 X102.566 Y163.431 E28.09464
G1 X102.951 Y163.221 E28.12746
G1 X103.296 Y162.953 E28.16015
G1 X103.594 Y162.629 E28.19309
G1 X103.834 Y162.262 E28.22591
G1 X104.009 Y161.861 E28.25865
G1 X104.117 Y161.437 E28.29139
G1 X104.153 Y161 E28.32421
G1 X104.117 Y160.563 E28.35702
G1 X104.009 Y160.139 E28.38976
G1 X103.834 Y159.738 E28.42251
G1 X103.594 Y159.371 E28.45532
G1 X103.296 Y159.047 E28.48826
G1 X102.951 Y158.779 E28.52096
G1 X102.566 Y158.569 E28.55378
G1 X102.151 Y158.428 E28.58658
G1 X101.72 Y158.356 E28.61928
G1 X101.28 Y158.356 E28.65221
G1 X100.849 Y158.428 E28.68491
G1 X100.434 Y158.569 E28.71771
G1 X100.049 Y158.779 E28.75053
G1 X99.704 Y159.047 E28.78322
G1 X99.406 Y159.371 E28.81616
G1 X99.166 Y159.738 E28.84898
G1 X98.991 Y160.139 E28.88172
G1 X98.883 Y160.563 E28.91446
G1 X98.847 Y161 E28.94728
G1 X98.883 Y161.437 E28.98009
G1 X98.991 Y161.861 E29.01283
G1 X99.166 Y162.262 E29.04558
G1 X99.406 Y162.629 E29.07839
G1 X99.704 Y162.953 E29.11133
G1 X100.049 Y163.221 E29.14403
G1 X100.434 Y163.431 E29.17685
G1 X100.849 Y163.572 E29.20965
G1 X101.28 Y163.644 E29.24235
G1 X101.72 Y163.644 E29.27527
G0 F6000 X101.67 Y163.044
;TYPE:WALL-OUTER
G1 F600 X102.004 Y162.988 E29.30062
G1 X102.324 Y162.879 E29.32592
G1 X102.622 Y162.717 E29.3513
G1 X102.889 Y162.51 E29.37658
G1 X103.119 Y162.26 E29.402
G1 X103.304 Y161.976 E29.42737
G1 X103.44 Y161.666 E29.4527
G1 X103.523 Y161.338 E29.47802
G1 X103.551 Y161 E29.5034
G1 X103.523 Y160.662 E29.52878
G1 X103.44 Y160.334 E29.5541
G1 X103.304 Y160.024 E29.57944
G1 X103.119 Y159.74 E29.6048
G1 X102.889 Y159.49 E29.63022
G1 X102.622 Y159.283 E29.65551
G1 X102.324 Y159.121 E29.68089
G1 X102.004 Y159.012 E29.70619
G1 X101.67 Y158.956 E29.73153
G1 X101.33 Y158.956 E29.75698
G1 X100.996 Y159.012 E29.78232
G1 X100.676 Y159.121 E29.80762
G1 X100.378 Y159.283 E29.833
G1 X100.111 Y159.49 E29.85828
G1 X99.881 Y159.74 E29.88371
G1 X99.696 Y160.024 E29.90907
G1 X99.56 Y160.334 E29.9344
G1 X99.477 Y160.662 E29.95972
G1 X99.449 Y161 E29.9851
G1 X99.477 Y161.338 E30.01049
G1 X99.56 Y161.666 E30.03581
G1 X99.696 Y161.976 E30.06114
G1 X99.881 Y162.26 E30.0865
G1 X100.111 Y162.51 E30.11193
G1 X100.378 Y162.717 E30.13721
G1 X100.676 Y162.879 E30.16259
G1 X100.996 Y162.988 E30.18789
G1 X101.33 Y163.044 E30.21323
G1 X101.67 Y163.044 E30.23868
G0 F6000 X101.724 Y163.701
G1 F1500 E23.73868
G0 F6000 X103.052 Y162.687
G0 X103.516 Y162.09
G0 X103.76 Y161.377
G0 X103.76 Y160.623
G0 X103.056 Y158.619
G0 X102.092 Y160.093
G0 X104.166 Y155.533
G0 X103.751 Y155.26
G0 X101.144 Y151.374
G0 X104.966 Y153.776
G0 X106.696 Y149.973
G0 X103.419 Y147.794
G0 X107.71 Y147.745
G0 X109.611 Y143.569
G0 X103.938 Y143.524
G0 X111.556 Y139.293
G0 X114.468 Y132.894
G0 X116.69 Y131.634
G0 X115.063 Y131.587
G0 X118.065 Y124.992
G0 X117.357 Y126.606
G0 X118.28 Y126.644
;TYPE:WALL-INNER
G1 F1500 E30.23868
G1 F600 X118.72 Y126.644 E30.2716
G1 X119.151 Y126.572 E30.30431
G1 X119.566 Y126.431 E30.33711
G1 X119.951 Y126.221 E30.36993
G1 X120.296 Y125.953 E30.40262
G1 X120.594 Y125.629 E30.43556
G1 X120.834 Y125.262 E30.46838
G1 X121.009 Y124.861 E30.50112
G1 X121.117 Y124.437 E30.53386
G1 X121.153 Y124 E30.56668
G1 X121.117 Y123.563 E30.59949
