;FLAVOR:Marlin
;TIME:2162
;Filament used: 0.931281m
;Layer height: 0.2
;MINX:71.196
;MINY:79.949
;MINZ:0.3
;MAXX:139.9
;MAXY:148.667
;MAXZ:9.9
;Generated with Cura_SteamEngine 4.12.1
M140 S80
M105
M190 S80
M104 S220
M105
M109 S220
M82 ;absolute extrusion mode
; Ender 3 Custom Start G-code
G92 E0 ; Reset Extruder
G28 ; Home all axes
G1 Z2.0 F3000 ; Move Z Axis up little to prevent scratching of Heat Bed
G1 X0.1 Y20 Z0.3 F5000.0 ; Move to start position
G1 X0.1 Y200.0 Z0.3 F1500.0 E15 ; Draw the first line
G1 X0.4 Y200.0 Z0.3 F5000.0 ; Move to side a little
G1 X0.4 Y20 Z0.3 F1500.0 E30 ; Draw the second line
G92 E0 ; Reset Extruder
G1 Z2.0 F3000 ; Move Z Axis up little to prevent scratching of Heat Bed
G1 X5 Y20 Z0.3 F5000.0 ; Move over to prevent blob squish
G92 E0
G92 E0
G1 F1500 E-6.5
;LAYER_COUNT:50
;LAYER:0
M107
G0 F6000 X85.326 Y82.98 Z0.3
;TYPE:SKIRT
G1 F1500 E0
G1 F600 X86.028 Y82.364 E0.06989
G1 X86.78 Y81.811 E0.13975
G1 X87.576 Y81.324 E0.20958
G1 X88.412 Y80.907 E0.27949
G1 X89.28 Y80.563 E0.34937
G1 X90.174 Y80.295 E0.41921
G1 X91.088 Y80.104 E0.48909
G1 X92.015 Y79.992 E0.55896
G1 X92.54 Y79.964 E0.59831
G1 X92.848 Y79.955 E0.62137
G1 X93.164 Y79.95 E0.64502
G1 X99.303 Y79.949 E1.10443
G1 X100.169 Y79.96 E1.16924
G1 X101.101 Y80.013 E1.2391
G1 X102.025 Y80.146 E1.30896
G1 X102.934 Y80.357 E1.3788
G1 X103.822 Y80.645 E1.44866
G1 X104.682 Y81.009 E1.51855
G1 X105.508 Y81.444 E1.58841
G1 X106.293 Y81.949 E1.65826
G1 X106.762 Y82.298 E1.70201
G1 X107.064 Y82.536 E1.73078
G1 X107.295 Y82.724 E1.75307
G1 X134.018 Y104.995 E4.35635
G1 X134.515 Y105.42 E4.40528
G1 X135.198 Y106.056 E4.47513
G1 X135.824 Y106.749 E4.54501
G1 X136.388 Y107.493 E4.61488
G1 X136.887 Y108.282 E4.68474
G1 X137.204 Y108.877 E4.73519
G1 X137.688 Y109.857 E4.81699
G1 X137.786 Y110.061 E4.83393
G1 X138.577 Y111.753 E4.9737
G1 X138.911 Y112.488 E5.03412
G1 X139.261 Y113.353 E5.10395
G1 X139.535 Y114.246 E5.17385
G1 X139.678 Y114.869 E5.22169
G1 X139.822 Y115.792 E5.29159
G1 X139.885 Y116.669 E5.35739
G1 X139.895 Y116.991 E5.3815
G1 X139.9 Y117.329 E5.4068
G1 X139.9 Y125.978 E6.05405
G1 X139.898 Y126.195 E6.07029
G1 X139.872 Y127.503 E6.16819
G1 X139.794 Y128.601 E6.25057
G1 X139.768 Y128.815 E6.2667
G1 X139.607 Y129.777 E6.3397
G1 X139.56 Y129.997 E6.35653
G1 X139.365 Y130.772 E6.41634
G1 X139.295 Y131.012 E6.43505
G1 X139.008 Y131.864 E6.50233
G1 X138.919 Y132.096 E6.52092
G1 X138.562 Y132.923 E6.58833
G1 X138.456 Y133.143 E6.6066
G1 X137.997 Y133.995 E6.67903
G1 X137.864 Y134.218 E6.69846
G1 X137.603 Y134.635 E6.73527
G1 X137.178 Y135.243 E6.79079
G1 X137.045 Y135.42 E6.80736
G1 X136.399 Y136.201 E6.88321
G1 X136.171 Y136.452 E6.90858
G1 X135.629 Y137.008 E6.96669
G1 X135.352 Y137.267 E6.99507
G1 X135.136 Y137.464 E7.01695
G1 X133.212 Y139.262 E7.21401
G1 X131.412 Y141.043 E7.40351
G1 X129.668 Y142.869 E7.59247
G1 X129.399 Y143.167 E7.62252
G1 X128.394 Y144.251 E7.73314
G1 X127.958 Y144.695 E7.77971
G1 X127.774 Y144.872 E7.79881
G1 X127.156 Y145.423 E7.86077
G1 X127.07 Y145.494 E7.86912
G1 X126.54 Y145.905 E7.91931
G1 X126.28 Y146.094 E7.94337
G1 X125.445 Y146.644 E8.01819
G1 X125.245 Y146.763 E8.03561
G1 X124.457 Y147.189 E8.10264
G1 X124.236 Y147.297 E8.12105
G1 X123.474 Y147.634 E8.1834
G1 X123.26 Y147.719 E8.20063
G1 X122.324 Y148.042 E8.27473
G1 X122.06 Y148.12 E8.29533
G1 X121.516 Y148.266 E8.33749
G1 X120.987 Y148.382 E8.37801
G1 X120.79 Y148.42 E8.39303
G1 X120.078 Y148.533 E8.44698
G1 X119.87 Y148.559 E8.46266
G1 X118.73 Y148.641 E8.5482
G1 X117.498 Y148.665 E8.64041
G1 X117.286 Y148.667 E8.65628
G1 X108.792 Y148.666 E9.29193
G1 X108.117 Y148.656 E9.34245
G1 X107.184 Y148.602 E9.41239
G1 X106.26 Y148.469 E9.48225
G1 X105.351 Y148.257 E9.5521
G1 X104.463 Y147.968 E9.62198
G1 X103.866 Y147.724 E9.67025
G1 X102.89 Y147.292 E9.75012
G1 X102.681 Y147.197 E9.7673
G1 X100.838 Y146.333 E9.91963
G1 X100.228 Y146.036 E9.9704
G1 X99.407 Y145.592 E10.04025
G1 X98.627 Y145.079 E10.11011
G1 X97.894 Y144.501 E10.17997
G1 X97.213 Y143.863 E10.2498
G1 X96.778 Y143.392 E10.29778
G1 X96.08 Y142.59 E10.37735
G1 X95.929 Y142.412 E10.39482
G1 X74.05 Y116.157 E12.95241
G1 X73.623 Y115.628 E13.00328
G1 X73.069 Y114.877 E13.07312
G1 X72.58 Y114.082 E13.14297
G1 X72.162 Y113.247 E13.21285
G1 X71.816 Y112.38 E13.28271
G1 X71.546 Y111.486 E13.35259
G1 X71.353 Y110.573 E13.42243
G1 X71.239 Y109.646 E13.49232
G1 X71.21 Y109.101 E13.53317
G1 X71.201 Y108.794 E13.55615
G1 X71.196 Y108.475 E13.58003
G1 X71.197 Y102.16 E14.05261
G1 X71.207 Y101.464 E14.1047
G1 X71.261 Y100.532 E14.17456
G1 X71.393 Y99.608 E14.24441
G1 X71.605 Y98.699 E14.31427
G1 X71.894 Y97.811 E14.38415
G1 X72.257 Y96.951 E14.45401
G1 X72.693 Y96.125 E14.5239
G1 X73.198 Y95.34 E14.59376
G1 X73.768 Y94.601 E14.6636
G1 X74.399 Y93.913 E14.73346
G1 X74.809 Y93.524 E14.77575
G1 X75.084 Y93.277 E14.80342
G1 X76.72 Y91.836 E14.96657
G1 X78.556 Y90.124 E15.15443
G1 X80.33 Y88.375 E15.34086
G1 X82.103 Y86.524 E15.53267
G1 X83.826 Y84.621 E15.72479
G1 X84.679 Y83.653 E15.82134
G1 X85.326 Y82.98 E15.8912
G0 F6000 X85.759 Y83.396
G1 F600 X86.443 Y82.8 E15.9591
G1 X87.178 Y82.267 E16.02704
G1 X87.956 Y81.8 E16.09494
G1 X88.773 Y81.404 E16.16289
G1 X89.621 Y81.081 E16.2308
G1 X90.494 Y80.834 E16.29869
G1 X91.386 Y80.665 E16.36663
G1 X92.557 Y80.563 E16.4546
G1 X92.865 Y80.554 E16.47766
G1 X93.164 Y80.55 E16.50003
G1 X99.303 Y80.549 E16.95945
G1 X100.16 Y80.56 E17.02359
G1 X101.066 Y80.613 E17.0915
G1 X101.964 Y80.745 E17.15943
G1 X102.847 Y80.956 E17.22737
G1 X103.707 Y81.244 E17.29524
G1 X104.539 Y81.606 E17.36314
G1 X105.336 Y82.04 E17.43105
G1 X106.39 Y82.769 E17.52696
G1 X106.692 Y83.007 E17.55573
G1 X106.911 Y83.184 E17.57681
G1 X133.628 Y105.451 E20.17954
G1 X134.125 Y105.876 E20.22848
G1 X134.788 Y106.496 E20.29641
G1 X135.394 Y107.171 E20.3643
G1 X135.938 Y107.897 E20.43219
G1 X136.416 Y108.669 E20.50014
G1 X136.666 Y109.143 E20.54024
G1 X137.15 Y110.123 E20.62204
G1 X137.243 Y110.316 E20.63807
G1 X138.031 Y112.001 E20.77727
G1 X138.365 Y112.736 E20.83769
G1 X138.704 Y113.578 E20.90562
G1 X138.967 Y114.446 E20.97349
G1 X139.09 Y114.987 E21.01501
G1 X139.229 Y115.884 E21.08294
G1 X139.285 Y116.687 E21.14318
G1 X139.295 Y117.009 E21.16729
G1 X139.3 Y117.329 E21.19124
G1 X139.3 Y125.978 E21.83849
G1 X139.298 Y126.183 E21.85383
G1 X139.272 Y127.491 E21.95173
G1 X139.199 Y128.528 E22.02953
G1 X139.173 Y128.742 E22.04566
G1 X139.021 Y129.652 E22.1147
G1 X138.974 Y129.872 E22.13154
G1 X138.789 Y130.604 E22.18804
G1 X138.719 Y130.844 E22.20675
G1 X138.448 Y131.649 E22.27031
G1 X138.359 Y131.881 E22.28891
G1 X138.021 Y132.663 E22.35266
G1 X137.915 Y132.883 E22.37094
G1 X137.482 Y133.688 E22.43934
G1 X137.349 Y133.911 E22.45877
G1 X137.1 Y134.308 E22.49384
G1 X136.698 Y134.882 E22.54629
G1 X136.565 Y135.059 E22.56286
G1 X135.955 Y135.798 E22.63457
G1 X135.727 Y136.049 E22.65994
G1 X135.215 Y136.574 E22.71482
G1 X134.949 Y136.824 E22.74214
G1 X134.67 Y137.078 E22.77037
G1 X132.786 Y138.839 E22.96336
G1 X130.998 Y140.608 E23.15159
G1 X129.229 Y142.46 E23.34325
G1 X128.959 Y142.759 E23.3734
G1 X127.954 Y143.843 E23.48402
G1 X127.542 Y144.263 E23.52805
G1 X127.358 Y144.44 E23.54716
G1 X126.774 Y144.96 E23.60568
G1 X126.688 Y145.031 E23.61402
G1 X126.187 Y145.419 E23.66144
G1 X125.927 Y145.608 E23.6855
G1 X125.138 Y146.129 E23.75625
G1 X124.938 Y146.248 E23.77367
G1 X124.193 Y146.65 E23.83702
G1 X123.972 Y146.758 E23.85543
G1 X123.252 Y147.077 E23.91436
G1 X123.038 Y147.162 E23.93159
G1 X122.154 Y147.467 E24.00158
G1 X121.89 Y147.545 E24.02218
G1 X121.373 Y147.683 E24.06222
G1 X120.874 Y147.793 E24.10046
G1 X120.677 Y147.831 E24.11547
G1 X120.004 Y147.937 E24.16646
G1 X119.796 Y147.963 E24.18215
G1 X118.719 Y148.041 E24.26295
G1 X117.487 Y148.065 E24.35517
G1 X117.286 Y148.067 E24.37021
G1 X108.8 Y148.066 E25.00526
G1 X108.125 Y148.056 E25.05578
G1 X107.219 Y148.002 E25.1237
G1 X106.322 Y147.87 E25.19155
G1 X105.439 Y147.658 E25.25951
G1 X104.579 Y147.37 E25.32738
G1 X104.109 Y147.176 E25.36543
G1 X103.133 Y146.744 E25.44531
G1 X102.935 Y146.654 E25.46159
G1 X101.101 Y145.794 E25.61317
G1 X100.491 Y145.497 E25.66395
G1 X99.693 Y145.064 E25.73189
G1 X98.937 Y144.562 E25.7998
G1 X98.228 Y143.996 E25.86769
G1 X97.571 Y143.37 E25.93561
G1 X97.23 Y142.998 E25.97337
G1 X96.532 Y142.196 E26.05294
G1 X96.389 Y142.028 E26.06945
G1 X74.619 Y115.905 E28.61423
G1 X74.09 Y115.251 E28.67717
G1 X73.552 Y114.521 E28.74504
G1 X73.08 Y113.746 E28.81294
G1 X72.678 Y112.932 E28.88088
G1 X72.349 Y112.086 E28.94881
G1 X72.096 Y111.215 E29.01669
G1 X71.921 Y110.324 E29.08464
G1 X71.809 Y109.084 E29.17781
G1 X71.8 Y108.777 E29.2008
G1 X71.796 Y108.475 E29.2234
G1 X71.797 Y102.169 E29.69531
G1 X71.807 Y101.473 E29.7474
G1 X71.86 Y100.567 E29.81532
G1 X71.993 Y99.669 E29.88325
G1 X72.204 Y98.787 E29.95112
G1 X72.492 Y97.926 E30.01906
G1 X72.854 Y97.094 E30.08697
G1 X73.289 Y96.297 E30.15491
G1 X73.791 Y95.542 E30.22276
G1 X74.359 Y94.833 E30.29075
G1 X75.211 Y93.969 E30.38156
G1 X75.481 Y93.727 E30.40869
G1 X77.102 Y92.3 E30.57031
G1 X78.981 Y90.548 E30.76256
G1 X80.778 Y88.775 E30.95148
G1 X82.54 Y86.936 E31.14208
G1 X84.298 Y84.994 E31.33811
G1 X85.13 Y84.05 E31.43228
G1 X85.759 Y83.396 E31.50018
G1 F1500 E25.00018
;MESH:Rear_WingMountLeft.stl
G0 F6000 X92.468 Y90.468
G0 X93.264 Y91.264
G0 X93.927 Y92.74
G0 X105.002 Y105.768
G0 X106.362 Y106.266
G0 X106.431 Y106.816
G0 X121.763 Y112.223
G0 X122.458 Y110.959
G0 X126.594 Y114.39
G0 X127.637 Y116.678
G0 X124.228 Y116.8
G0 X123.32 Y119.239
G0 X125.423 Y121.589
;TYPE:WALL-INNER
G1 F1500 E31.50018
G1 F600 X126.014 Y121.654 E31.54468
G1 X126.603 Y121.584 E31.58906
G1 X127.154 Y121.391 E31.63275
G1 X127.665 Y121.066 E31.67807
G1 X128.076 Y120.655 E31.72157
G1 X128.1 Y120.616 E31.725
G1 X128.1 Y125.388 E32.08211
G1 X128.066 Y125.335 E32.08682
G1 X127.655 Y124.924 E32.13032
G1 X127.138 Y124.602 E32.1759
G1 X126.577 Y124.411 E32.22025
G1 X125.986 Y124.346 E32.26475
G1 X125.397 Y124.416 E32.30913
G1 X124.846 Y124.609 E32.35282
G1 X124.335 Y124.934 E32.39814
G1 X123.924 Y125.345 E32.44164
G1 X123.602 Y125.862 E32.48722
G1 X123.411 Y126.423 E32.53157
G1 X123.346 Y127.014 E32.57607
G1 X123.416 Y127.603 E32.62045
G1 X123.609 Y128.154 E32.66414
G1 X123.934 Y128.665 E32.70946
G1 X124.345 Y129.076 E32.75296
G1 X124.384 Y129.1 E32.75639
G1 X123.975 Y129.1 E32.77284
G1 X123.71 Y129.09 E32.78403
G1 X123.302 Y129.032 E32.81487
G1 X122.884 Y128.912 E32.84742
G1 X122.495 Y128.738 E32.87931
G1 X122.126 Y128.508 E32.91185
G1 X121.795 Y128.231 E32.94415
G1 X121.499 Y127.902 E32.97726
G1 X120.297 Y126.368 E33.12311
G1 X106.794 Y109.141 E34.76113
G1 X105.537 Y107.537 E34.91363
G1 X104.735 Y106.513 E35.01097
G1 X95.896 Y95.236 E36.08323
G1 X94.197 Y93.068 E36.28936
G1 X93.75 Y92.85 E36.32657
G1 X93.75 Y91.75 E36.40889
G1 X99.694 Y91.749 E36.85371
G1 X102.33 Y93.945 E37.11046
G1 X112.109 Y102.095 E38.06311
G1 X122.433 Y110.699 E39.06884
G1 X126.734 Y114.283 E39.48781
G1 X128.1 Y117.199 E39.72879
G1 X128.1 Y117.388 E39.74293
G1 X128.066 Y117.335
G1 X127.655 Y116.924 E39.78245
G1 X127.138 Y116.602 E39.82803
G1 X126.577 Y116.411 E39.87238
G1 X125.986 Y116.346 E39.91687
G1 X125.397 Y116.416 E39.96126
G1 X124.846 Y116.609 E40.00495
G1 X124.335 Y116.934 E40.05027
G1 X123.924 Y117.345 E40.09377
G1 X123.602 Y117.862 E40.13935
G1 X123.411 Y118.423 E40.1837
G1 X123.346 Y119.014 E40.22819
G1 X123.416 Y119.603 E40.27258
G1 X123.609 Y120.154 E40.31627
G1 X123.934 Y120.665 E40.36159
G1 X124.345 Y121.076 E40.40509
G1 X124.862 Y121.398 E40.45067
G1 X125.423 Y121.589 E40.49502
G0 F6000 X125.554 Y121
;TYPE:WALL-OUTER
G1 F600 X126.011 Y121.05 E40.52942
G1 X126.467 Y120.996 E40.56378
G1 X126.89 Y120.848 E40.59732
G1 X127.287 Y120.595 E40.63255
G1 X127.603 Y120.279 E40.66599
G1 X127.852 Y119.879 E40.70125
G1 X128 Y119.446 E40.7355
G1 X128.05 Y118.989 E40.7699
G1 X127.996 Y118.533 E40.80426
G1 X127.848 Y118.11 E40.8378
G1 X127.595 Y117.713 E40.87303
G1 X127.279 Y117.397 E40.90647
G1 X126.879 Y117.148 E40.94173
G1 X126.446 Y117 E40.97598
G1 X125.989 Y116.95 E41.01038
G1 X125.533 Y117.004 E41.04475
G1 X125.11 Y117.152 E41.07828
G1 X124.713 Y117.405 E41.11351
G1 X124.397 Y117.721 E41.14696
G1 X124.148 Y118.121 E41.18222
G1 X124 Y118.554 E41.21646
G1 X123.95 Y119.011 E41.25086
G1 X124.004 Y119.467 E41.28523
G1 X124.152 Y119.89 E41.31876
G1 X124.405 Y120.287 E41.35399
G1 X124.721 Y120.603 E41.38744
G1 X125.121 Y120.852 E41.4227
G1 X125.554 Y121 E41.45694
G0 F6000 X125.411 Y121.644
G1 F1500 E34.95694
G0 F6000 X123.175 Y119.015
G0 X125.358 Y116.248
G0 X127.637 Y116.678
G0 X126.594 Y114.39
G0 X122.458 Y110.959
G0 X121.763 Y112.223
G0 X106.431 Y106.816
G0 X105.757 Y105.856
;TYPE:WALL-INNER
G1 F1500 E41.45694
G1 F600 X111.818 Y102.114 E41.99
G1 X102.202 Y94.1 E42.37002
G1 X96.546 Y94.1 E42.79329
G1 X96.053 Y95.112 E42.87753
G1 X104.892 Y106.389 E43.23559
G1 X105.757 Y105.856 E43.31163
G0 F6000 X105.033 Y105.597
;TYPE:WALL-OUTER
G1 F600 X110.794 Y102.041 E43.81827
G1 X101.985 Y94.7 E44.6764
G1 X96.921 Y94.7 E45.05536
G1 X96.757 Y95.037 E45.08341
G1 X105.033 Y105.597 E46.08745
G0 F6000 X105.137 Y105.767
G0 X106.362 Y106.266
G0 X106.431 Y106.816
G0 X121.591 Y112.152
;TYPE:WALL-INNER
G1 F600 X122.305 Y110.853 E46.19837
G1 X111.981 Y102.25 E46.535
G1 X105.862 Y106.025 E46.72242
G1 X106.004 Y107.17 E46.80876
G1 X107.77 Y107.734 E46.94749
G1 X121.591 Y112.152 E48.03335
G0 F6000 X121.303 Y111.43
;TYPE:WALL-OUTER
G1 F600 X121.541 Y110.997 E48.07033
G1 X111.929 Y102.987 E49.00667
G1 X106.505 Y106.334 E49.48363
G1 X106.552 Y106.715 E49.51236
G1 X121.303 Y111.43 E50.67128
G0 F6000 X121.242 Y111.619
G0 X122.432 Y113.123
G0 X122.432 Y125.066
G0 X120.454 Y126.244
;TYPE:WALL-INNER
G1 F600 X122.9 Y125.4 E50.86492
G1 X122.9 Y119.603 E51.29874
G1 X122.9 Y118.423 E51.374
G1 X122.9 Y112.781 E51.79622
G1 X121.53 Y112.344 E51.90383
G1 X107.71 Y107.925 E52.26728
G1 X106.951 Y109.017 E52.3668
G1 X120.454 Y126.244 E52.91377
G0 F6000 X120.662 Y125.537
;TYPE:WALL-OUTER
G1 F600 X122.3 Y124.972 E53.04343
G1 X122.3 Y113.219 E53.92297
G1 X107.95 Y108.632 E55.05039
G1 X107.697 Y108.996 E55.08356
G1 X120.662 Y125.537 E56.65634
G1 F1500 E50.15634
G0 F6000 X120.505 Y125.659
G0 X120.563 Y126.404
G0 X121.912 Y128.105
G0 X122.572 Y128.585
G0 X123.192 Y128.811
G0 X125.532 Y129.198
G1 F1500 E56.65634
G0 F6000 X125.554 Y129
G1 F600 X126.011 Y129.05 E56.69075
G1 X126.467 Y128.996 E56.72511
G1 X126.89 Y128.848 E56.75865
G1 X127.287 Y128.595 E56.79388
G1 X127.603 Y128.279 E56.82732
G1 X127.852 Y127.879 E56.86258
G1 X128 Y127.446 E56.89683
G1 X128.05 Y126.989 E56.93123
G1 X127.996 Y126.533 E56.96559
G1 X127.848 Y126.11 E56.99913
G1 X127.595 Y125.713 E57.03436
G1 X127.279 Y125.397 E57.0678
G1 X126.879 Y125.148 E57.10306
G1 X126.446 Y125 E57.13731
G1 X125.989 Y124.95 E57.17171
G1 X125.533 Y125.004 E57.20607
G1 X125.11 Y125.152 E57.23961
G1 X124.713 Y125.405 E57.27484
G1 X124.397 Y125.721 E57.30828
G1 X124.148 Y126.121 E57.34354
G1 X124 Y126.554 E57.37779
G1 X123.95 Y127.011 E57.41219
G1 X124.004 Y127.467 E57.44656
G1 X124.152 Y127.89 E57.48009
G1 X124.405 Y128.287 E57.51532
G1 X124.721 Y128.603 E57.54877
G1 X125.121 Y128.852 E57.58403
G1 X125.554 Y129 E57.61827
G1 F1500 E51.11827
G0 F6000 X125.532 Y129.198
G0 X123.456 Y129.466
G1 F1500 E57.61827
G0 F6000 X123.43 Y129.664
G1 F600 X123.181 Y129.62 E57.63719
G1 X122.916 Y129.554 E57.65763
G1 X122.679 Y129.476 E57.6763
G1 X122.44 Y129.378 E57.69563
G1 X122.208 Y129.265 E57.71494
G1 X121.988 Y129.139 E57.73392
G1 X121.769 Y128.991 E57.7537
G1 X121.56 Y128.826 E57.77362
G1 X121.38 Y128.665 E57.7917
G1 X121.202 Y128.481 E57.81086
G1 X121.04 Y128.289 E57.82966
G1 X93.81 Y93.547 E61.133
G1 X93.15 Y93.226 E61.18793
G1 X93.15 Y91.15 E61.34329
G1 X99.911 Y91.149 E61.84925
G1 X127.22 Y113.907 E64.50954
G1 X128.7 Y117.067 E64.77067
G1 X128.7 Y126.993 E65.51349
G1 X128.663 Y127.446 E65.5475
G1 X128.553 Y127.879 E65.58094
G1 X128.371 Y128.291 E65.61464
G1 X128.123 Y128.667 E65.64835
G1 X127.824 Y128.989 E65.68123
G1 X127.465 Y129.267 E65.71521
G1 X127.089 Y129.47 E65.74719
G1 X126.671 Y129.614 E65.78027
G1 X126.219 Y129.691 E65.81459
